%
(Header)
(Generated by gcodetools from Inkscape.)
(Using default header. To add your own header create file "header" in the output dir.)
M3
(Header end.)
G21 (All units in mm)

(Start cutting path id: path6320)
(Change tool to Cylindrical cutter)

M300 S145 (G00 Z5.000000)
G00 X3680.000000 Y364.268890

M300 S125 (G01 Z0.000000 F100.0(Penetrate)
G01 X3760.000000 Y389.602090 Z0.000000 F200.000000
M300 S145 (G00 Z5.000000)

(End cutting path id: path6320)


(Start cutting path id: path6318)
(Change tool to Cylindrical cutter)

M300 S145 (G00 Z5.000000)
G00 X3836.000000 Y308.888790

M300 S125 (G01 Z0.000000 F100.0(Penetrate)
G01 X3764.000000 Y331.688590 Z0.000000 F200.000000
G01 X3764.000000 Y343.017990 Z0.000000
G01 X3836.000000 Y320.218090 Z0.000000
G01 X3836.000000 Y331.547390 Z0.000000
G01 X3764.000000 Y354.347290 Z0.000000
G01 X3764.000000 Y365.676690 Z0.000000
G01 X3836.000000 Y342.876790 Z0.000000
G01 X3836.000000 Y354.206090 Z0.000000
G01 X3764.000000 Y377.005990 Z0.000000
G01 X3764.000000 Y388.335390 Z0.000000
G01 X3836.000000 Y365.535490 Z0.000000
M300 S145 (G00 Z5.000000)

(End cutting path id: path6318)


(Start cutting path id: path6312)
(Change tool to Cylindrical cutter)

M300 S145 (G00 Z5.000000)
G00 X3756.000000 Y226.908790

M300 S125 (G01 Z0.000000 F100.0(Penetrate)
G01 X3684.000000 Y249.708690 Z0.000000 F200.000000
G01 X3684.000000 Y261.037990 Z0.000000
G01 X3756.000000 Y238.238090 Z0.000000
G01 X3756.000000 Y249.567490 Z0.000000
G01 X3684.000000 Y272.367390 Z0.000000
G01 X3684.000000 Y283.696690 Z0.000000
G01 X3756.000000 Y260.896790 Z0.000000
G01 X3756.000000 Y272.226190 Z0.000000
G01 X3684.000000 Y295.026090 Z0.000000
G01 X3684.000000 Y306.355390 Z0.000000
G01 X3756.000000 Y283.555490 Z0.000000
M300 S145 (G00 Z5.000000)

(End cutting path id: path6312)


(Start cutting path id: path6314)
(Change tool to Cylindrical cutter)

M300 S145 (G00 Z5.000000)
G00 X3684.000000 Y308.888790

M300 S125 (G01 Z0.000000 F100.0(Penetrate)
G01 X3756.000000 Y331.688590 Z0.000000 F200.000000
G01 X3782.666700 Y323.244190 Z0.000000
G01 X3710.666700 Y300.444290 Z0.000000
G01 X3737.333300 Y291.999890 Z0.000000
G01 X3809.333300 Y314.799790 Z0.000000
G01 X3836.000000 Y306.355390 Z0.000000
G01 X3764.000000 Y283.555490 Z0.000000
M300 S145 (G00 Z5.000000)

(End cutting path id: path6314)


(Start cutting path id: path6316)
(Change tool to Cylindrical cutter)

M300 S145 (G00 Z5.000000)
G00 X3680.000000 Y310.454390

M300 S125 (G01 Z0.000000 F100.0(Penetrate)
G01 X3680.000000 Y361.436490 Z0.000000 F200.000000
G01 X3700.000000 Y367.769790 Z0.000000
G01 X3700.000000 Y316.787690 Z0.000000
G01 X3720.000000 Y323.120990 Z0.000000
G01 X3720.000000 Y374.103090 Z0.000000
G01 X3740.000000 Y380.436390 Z0.000000
G01 X3740.000000 Y329.454290 Z0.000000
G01 X3760.000000 Y335.787590 Z0.000000
G01 X3760.000000 Y386.769690 Z0.000000
M300 S145 (G00 Z5.000000)

(End cutting path id: path6316)


(Start cutting path id: path6260)
(Change tool to Cylindrical cutter)

M300 S145 (G00 Z5.000000)
G00 X3676.000000 Y308.888790

M300 S125 (G01 Z0.000000 F100.0(Penetrate)
G01 X3604.000000 Y331.688590 Z0.000000 F200.000000
G01 X3604.000000 Y343.017990 Z0.000000
G01 X3676.000000 Y320.218090 Z0.000000
G01 X3676.000000 Y331.547390 Z0.000000
G01 X3604.000000 Y354.347290 Z0.000000
G01 X3604.000000 Y365.676690 Z0.000000
G01 X3676.000000 Y342.876790 Z0.000000
G01 X3676.000000 Y354.206090 Z0.000000
G01 X3604.000000 Y377.005990 Z0.000000
G01 X3604.000000 Y388.335390 Z0.000000
G01 X3676.000000 Y365.535490 Z0.000000
M300 S145 (G00 Z5.000000)

(End cutting path id: path6260)


(Start cutting path id: path6262)
(Change tool to Cylindrical cutter)

M300 S145 (G00 Z5.000000)
G00 X3520.000000 Y364.268890

M300 S125 (G01 Z0.000000 F100.0(Penetrate)
G01 X3600.000000 Y389.602090 Z0.000000 F200.000000
M300 S145 (G00 Z5.000000)

(End cutting path id: path6262)


(Start cutting path id: path6256)
(Change tool to Cylindrical cutter)

M300 S145 (G00 Z5.000000)
G00 X3524.000000 Y308.888790

M300 S125 (G01 Z0.000000 F100.0(Penetrate)
G01 X3596.000000 Y331.688590 Z0.000000 F200.000000
G01 X3622.666700 Y323.244190 Z0.000000
G01 X3550.666700 Y300.444290 Z0.000000
G01 X3577.333300 Y291.999890 Z0.000000
G01 X3649.333300 Y314.799790 Z0.000000
G01 X3676.000000 Y306.355390 Z0.000000
G01 X3604.000000 Y283.555490 Z0.000000
M300 S145 (G00 Z5.000000)

(End cutting path id: path6256)


(Start cutting path id: path6310)
(Change tool to Cylindrical cutter)

M300 S145 (G00 Z5.000000)
G00 X3600.000000 Y228.474490

M300 S125 (G01 Z0.000000 F100.0(Penetrate)
G01 X3600.000000 Y279.456490 Z0.000000 F200.000000
G01 X3620.000000 Y285.789790 Z0.000000
G01 X3620.000000 Y234.807790 Z0.000000
G01 X3640.000000 Y241.141090 Z0.000000
G01 X3640.000000 Y292.123090 Z0.000000
G01 X3660.000000 Y298.456390 Z0.000000
G01 X3660.000000 Y247.474390 Z0.000000
G01 X3680.000000 Y253.807690 Z0.000000
G01 X3680.000000 Y304.789690 Z0.000000
M300 S145 (G00 Z5.000000)

(End cutting path id: path6310)


(Start cutting path id: path6308)
(Change tool to Cylindrical cutter)

M300 S145 (G00 Z5.000000)
G00 X3604.000000 Y226.908790

M300 S125 (G01 Z0.000000 F100.0(Penetrate)
G01 X3676.000000 Y249.708690 Z0.000000 F200.000000
G01 X3702.666700 Y241.264290 Z0.000000
G01 X3630.666700 Y218.464390 Z0.000000
G01 X3657.333300 Y210.019970 Z0.000000
G01 X3729.333300 Y232.819890 Z0.000000
G01 X3756.000000 Y224.375490 Z0.000000
G01 X3684.000000 Y201.575560 Z0.000000
M300 S145 (G00 Z5.000000)

(End cutting path id: path6308)


(Start cutting path id: path6306)
(Change tool to Cylindrical cutter)

M300 S145 (G00 Z5.000000)
G00 X3676.000000 Y144.928800

M300 S125 (G01 Z0.000000 F100.0(Penetrate)
G01 X3604.000000 Y167.728680 Z0.000000 F200.000000
G01 X3604.000000 Y179.058040 Z0.000000
G01 X3676.000000 Y156.258160 Z0.000000
G01 X3676.000000 Y167.587510 Z0.000000
G01 X3604.000000 Y190.387390 Z0.000000
G01 X3604.000000 Y201.716740 Z0.000000
G01 X3676.000000 Y178.916860 Z0.000000
G01 X3676.000000 Y190.246210 Z0.000000
G01 X3604.000000 Y213.046090 Z0.000000
G01 X3604.000000 Y224.375390 Z0.000000
G01 X3676.000000 Y201.575560 Z0.000000
M300 S145 (G00 Z5.000000)

(End cutting path id: path6306)


(Start cutting path id: path6254)
(Change tool to Cylindrical cutter)

M300 S145 (G00 Z5.000000)
G00 X3596.000000 Y226.908790

M300 S125 (G01 Z0.000000 F100.0(Penetrate)
G01 X3524.000000 Y249.708690 Z0.000000 F200.000000
G01 X3524.000000 Y261.037990 Z0.000000
G01 X3596.000000 Y238.238090 Z0.000000
G01 X3596.000000 Y249.567490 Z0.000000
G01 X3524.000000 Y272.367390 Z0.000000
G01 X3524.000000 Y283.696690 Z0.000000
G01 X3596.000000 Y260.896790 Z0.000000
G01 X3596.000000 Y272.226190 Z0.000000
G01 X3524.000000 Y295.026090 Z0.000000
G01 X3524.000000 Y306.355390 Z0.000000
G01 X3596.000000 Y283.555490 Z0.000000
M300 S145 (G00 Z5.000000)

(End cutting path id: path6254)


(Start cutting path id: path6258)
(Change tool to Cylindrical cutter)

M300 S145 (G00 Z5.000000)
G00 X3520.000000 Y310.454390

M300 S125 (G01 Z0.000000 F100.0(Penetrate)
G01 X3520.000000 Y361.436490 Z0.000000 F200.000000
G01 X3540.000000 Y367.769790 Z0.000000
G01 X3540.000000 Y316.787690 Z0.000000
G01 X3560.000000 Y323.120990 Z0.000000
G01 X3560.000000 Y374.103090 Z0.000000
G01 X3580.000000 Y380.436390 Z0.000000
G01 X3580.000000 Y329.454290 Z0.000000
G01 X3600.000000 Y335.787590 Z0.000000
G01 X3600.000000 Y386.769690 Z0.000000
M300 S145 (G00 Z5.000000)

(End cutting path id: path6258)


(Start cutting path id: path6202)
(Change tool to Cylindrical cutter)

M300 S145 (G00 Z5.000000)
G00 X3516.000000 Y308.888790

M300 S125 (G01 Z0.000000 F100.0(Penetrate)
G01 X3444.000000 Y331.688590 Z0.000000 F200.000000
G01 X3444.000000 Y343.017990 Z0.000000
G01 X3516.000000 Y320.218090 Z0.000000
G01 X3516.000000 Y331.547390 Z0.000000
G01 X3444.000000 Y354.347290 Z0.000000
G01 X3444.000000 Y365.676690 Z0.000000
G01 X3516.000000 Y342.876790 Z0.000000
G01 X3516.000000 Y354.206090 Z0.000000
G01 X3444.000000 Y377.005990 Z0.000000
G01 X3444.000000 Y388.335390 Z0.000000
G01 X3516.000000 Y365.535490 Z0.000000
M300 S145 (G00 Z5.000000)

(End cutting path id: path6202)


(Start cutting path id: path6204)
(Change tool to Cylindrical cutter)

M300 S145 (G00 Z5.000000)
G00 X3360.000000 Y364.268890

M300 S125 (G01 Z0.000000 F100.0(Penetrate)
G01 X3440.000000 Y389.602090 Z0.000000 F200.000000
M300 S145 (G00 Z5.000000)

(End cutting path id: path6204)


(Start cutting path id: path6198)
(Change tool to Cylindrical cutter)

M300 S145 (G00 Z5.000000)
G00 X3364.000000 Y308.888790

M300 S125 (G01 Z0.000000 F100.0(Penetrate)
G01 X3436.000000 Y331.688590 Z0.000000 F200.000000
G01 X3462.666700 Y323.244190 Z0.000000
G01 X3390.666700 Y300.444290 Z0.000000
G01 X3417.333300 Y291.999890 Z0.000000
G01 X3489.333300 Y314.799790 Z0.000000
G01 X3516.000000 Y306.355390 Z0.000000
G01 X3444.000000 Y283.555490 Z0.000000
M300 S145 (G00 Z5.000000)

(End cutting path id: path6198)


(Start cutting path id: path6252)
(Change tool to Cylindrical cutter)

M300 S145 (G00 Z5.000000)
G00 X3440.000000 Y228.474490

M300 S125 (G01 Z0.000000 F100.0(Penetrate)
G01 X3440.000000 Y279.456490 Z0.000000 F200.000000
G01 X3460.000000 Y285.789790 Z0.000000
G01 X3460.000000 Y234.807790 Z0.000000
G01 X3480.000000 Y241.141090 Z0.000000
G01 X3480.000000 Y292.123090 Z0.000000
G01 X3500.000000 Y298.456390 Z0.000000
G01 X3500.000000 Y247.474390 Z0.000000
G01 X3520.000000 Y253.807690 Z0.000000
G01 X3520.000000 Y304.789690 Z0.000000
M300 S145 (G00 Z5.000000)

(End cutting path id: path6252)


(Start cutting path id: path6250)
(Change tool to Cylindrical cutter)

M300 S145 (G00 Z5.000000)
G00 X3444.000000 Y226.908790

M300 S125 (G01 Z0.000000 F100.0(Penetrate)
G01 X3516.000000 Y249.708690 Z0.000000 F200.000000
G01 X3542.666700 Y241.264290 Z0.000000
G01 X3470.666700 Y218.464390 Z0.000000
G01 X3497.333300 Y210.019970 Z0.000000
G01 X3569.333300 Y232.819890 Z0.000000
G01 X3596.000000 Y224.375490 Z0.000000
G01 X3524.000000 Y201.575560 Z0.000000
M300 S145 (G00 Z5.000000)

(End cutting path id: path6250)


(Start cutting path id: path6304)
(Change tool to Cylindrical cutter)

M300 S145 (G00 Z5.000000)
G00 X3520.000000 Y146.494480

M300 S125 (G01 Z0.000000 F100.0(Penetrate)
G01 X3520.000000 Y197.476570 Z0.000000 F200.000000
G01 X3540.000000 Y203.809870 Z0.000000
G01 X3540.000000 Y152.827780 Z0.000000
G01 X3560.000000 Y159.161080 Z0.000000
G01 X3560.000000 Y210.143170 Z0.000000
G01 X3580.000000 Y216.476490 Z0.000000
G01 X3580.000000 Y165.494380 Z0.000000
G01 X3600.000000 Y171.827680 Z0.000000
G01 X3600.000000 Y222.809790 Z0.000000
M300 S145 (G00 Z5.000000)

(End cutting path id: path6304)


(Start cutting path id: path6302)
(Change tool to Cylindrical cutter)

M300 S145 (G00 Z5.000000)
G00 X3524.000000 Y144.928800

M300 S125 (G01 Z0.000000 F100.0(Penetrate)
G01 X3596.000000 Y167.728680 Z0.000000 F200.000000
G01 X3622.666700 Y159.284290 Z0.000000
G01 X3550.666700 Y136.484410 Z0.000000
G01 X3577.333300 Y128.040010 Z0.000000
G01 X3649.333300 Y150.839890 Z0.000000
G01 X3676.000000 Y142.395480 Z0.000000
G01 X3604.000000 Y119.595600 Z0.000000
M300 S145 (G00 Z5.000000)

(End cutting path id: path6302)


(Start cutting path id: path6300)
(Change tool to Cylindrical cutter)

M300 S145 (G00 Z5.000000)
G00 X3596.000000 Y62.948850

M300 S125 (G01 Z0.000000 F100.0(Penetrate)
G01 X3524.000000 Y85.748730 Z0.000000 F200.000000
G01 X3524.000000 Y97.078080 Z0.000000
G01 X3596.000000 Y74.278200 Z0.000000
G01 X3596.000000 Y85.607550 Z0.000000
G01 X3524.000000 Y108.407430 Z0.000000
G01 X3524.000000 Y119.736790 Z0.000000
G01 X3596.000000 Y96.936910 Z0.000000
G01 X3596.000000 Y108.266260 Z0.000000
G01 X3524.000000 Y131.066140 Z0.000000
G01 X3524.000000 Y142.395480 Z0.000000
G01 X3596.000000 Y119.595600 Z0.000000
M300 S145 (G00 Z5.000000)

(End cutting path id: path6300)


(Start cutting path id: path6248)
(Change tool to Cylindrical cutter)

M300 S145 (G00 Z5.000000)
G00 X3516.000000 Y144.928800

M300 S125 (G01 Z0.000000 F100.0(Penetrate)
G01 X3444.000000 Y167.728680 Z0.000000 F200.000000
G01 X3444.000000 Y179.058040 Z0.000000
G01 X3516.000000 Y156.258160 Z0.000000
G01 X3516.000000 Y167.587510 Z0.000000
G01 X3444.000000 Y190.387390 Z0.000000
G01 X3444.000000 Y201.716740 Z0.000000
G01 X3516.000000 Y178.916860 Z0.000000
G01 X3516.000000 Y190.246210 Z0.000000
G01 X3444.000000 Y213.046090 Z0.000000
G01 X3444.000000 Y224.375390 Z0.000000
G01 X3516.000000 Y201.575560 Z0.000000
M300 S145 (G00 Z5.000000)

(End cutting path id: path6248)


(Start cutting path id: path6196)
(Change tool to Cylindrical cutter)

M300 S145 (G00 Z5.000000)
G00 X3436.000000 Y226.908790

M300 S125 (G01 Z0.000000 F100.0(Penetrate)
G01 X3364.000000 Y249.708690 Z0.000000 F200.000000
G01 X3364.000000 Y261.037990 Z0.000000
G01 X3436.000000 Y238.238090 Z0.000000
G01 X3436.000000 Y249.567490 Z0.000000
G01 X3364.000000 Y272.367390 Z0.000000
G01 X3364.000000 Y283.696690 Z0.000000
G01 X3436.000000 Y260.896790 Z0.000000
G01 X3436.000000 Y272.226190 Z0.000000
G01 X3364.000000 Y295.026090 Z0.000000
G01 X3364.000000 Y306.355390 Z0.000000
G01 X3436.000000 Y283.555490 Z0.000000
M300 S145 (G00 Z5.000000)

(End cutting path id: path6196)


(Start cutting path id: path6200)
(Change tool to Cylindrical cutter)

M300 S145 (G00 Z5.000000)
G00 X3360.000000 Y310.454390

M300 S125 (G01 Z0.000000 F100.0(Penetrate)
G01 X3360.000000 Y361.436490 Z0.000000 F200.000000
G01 X3380.000000 Y367.769790 Z0.000000
G01 X3380.000000 Y316.787690 Z0.000000
G01 X3400.000000 Y323.120990 Z0.000000
G01 X3400.000000 Y374.103090 Z0.000000
G01 X3420.000000 Y380.436390 Z0.000000
G01 X3420.000000 Y329.454290 Z0.000000
G01 X3440.000000 Y335.787590 Z0.000000
G01 X3440.000000 Y386.769690 Z0.000000
M300 S145 (G00 Z5.000000)

(End cutting path id: path6200)


(Start cutting path id: path6144)
(Change tool to Cylindrical cutter)

M300 S145 (G00 Z5.000000)
G00 X3356.000000 Y308.888790

M300 S125 (G01 Z0.000000 F100.0(Penetrate)
G01 X3284.000000 Y331.688590 Z0.000000 F200.000000
G01 X3284.000000 Y343.017990 Z0.000000
G01 X3356.000000 Y320.218090 Z0.000000
G01 X3356.000000 Y331.547390 Z0.000000
G01 X3284.000000 Y354.347290 Z0.000000
G01 X3284.000000 Y365.676690 Z0.000000
G01 X3356.000000 Y342.876790 Z0.000000
G01 X3356.000000 Y354.206090 Z0.000000
G01 X3284.000000 Y377.005990 Z0.000000
G01 X3284.000000 Y388.335390 Z0.000000
G01 X3356.000000 Y365.535490 Z0.000000
M300 S145 (G00 Z5.000000)

(End cutting path id: path6144)


(Start cutting path id: path6146)
(Change tool to Cylindrical cutter)

M300 S145 (G00 Z5.000000)
G00 X3200.000000 Y364.268890

M300 S125 (G01 Z0.000000 F100.0(Penetrate)
G01 X3280.000000 Y389.602090 Z0.000000 F200.000000
M300 S145 (G00 Z5.000000)

(End cutting path id: path6146)


(Start cutting path id: path6140)
(Change tool to Cylindrical cutter)

M300 S145 (G00 Z5.000000)
G00 X3204.000000 Y308.888790

M300 S125 (G01 Z0.000000 F100.0(Penetrate)
G01 X3276.000000 Y331.688590 Z0.000000 F200.000000
G01 X3302.666700 Y323.244190 Z0.000000
G01 X3230.666700 Y300.444290 Z0.000000
G01 X3257.333300 Y291.999890 Z0.000000
G01 X3329.333300 Y314.799790 Z0.000000
G01 X3356.000000 Y306.355390 Z0.000000
G01 X3284.000000 Y283.555490 Z0.000000
M300 S145 (G00 Z5.000000)

(End cutting path id: path6140)


(Start cutting path id: path6194)
(Change tool to Cylindrical cutter)

M300 S145 (G00 Z5.000000)
G00 X3280.000000 Y228.474490

M300 S125 (G01 Z0.000000 F100.0(Penetrate)
G01 X3280.000000 Y279.456490 Z0.000000 F200.000000
G01 X3300.000000 Y285.789790 Z0.000000
G01 X3300.000000 Y234.807790 Z0.000000
G01 X3320.000000 Y241.141090 Z0.000000
G01 X3320.000000 Y292.123090 Z0.000000
G01 X3340.000000 Y298.456390 Z0.000000
G01 X3340.000000 Y247.474390 Z0.000000
G01 X3360.000000 Y253.807690 Z0.000000
G01 X3360.000000 Y304.789690 Z0.000000
M300 S145 (G00 Z5.000000)

(End cutting path id: path6194)


(Start cutting path id: path6192)
(Change tool to Cylindrical cutter)

M300 S145 (G00 Z5.000000)
G00 X3284.000000 Y226.908790

M300 S125 (G01 Z0.000000 F100.0(Penetrate)
G01 X3356.000000 Y249.708690 Z0.000000 F200.000000
G01 X3382.666700 Y241.264290 Z0.000000
G01 X3310.666700 Y218.464390 Z0.000000
G01 X3337.333300 Y210.019970 Z0.000000
G01 X3409.333300 Y232.819890 Z0.000000
G01 X3436.000000 Y224.375490 Z0.000000
G01 X3364.000000 Y201.575560 Z0.000000
M300 S145 (G00 Z5.000000)

(End cutting path id: path6192)


(Start cutting path id: path6246)
(Change tool to Cylindrical cutter)

M300 S145 (G00 Z5.000000)
G00 X3360.000000 Y146.494480

M300 S125 (G01 Z0.000000 F100.0(Penetrate)
G01 X3360.000000 Y197.476570 Z0.000000 F200.000000
G01 X3380.000000 Y203.809870 Z0.000000
G01 X3380.000000 Y152.827780 Z0.000000
G01 X3400.000000 Y159.161080 Z0.000000
G01 X3400.000000 Y210.143170 Z0.000000
G01 X3420.000000 Y216.476490 Z0.000000
G01 X3420.000000 Y165.494380 Z0.000000
G01 X3440.000000 Y171.827680 Z0.000000
G01 X3440.000000 Y222.809790 Z0.000000
M300 S145 (G00 Z5.000000)

(End cutting path id: path6246)


(Start cutting path id: path6244)
(Change tool to Cylindrical cutter)

M300 S145 (G00 Z5.000000)
G00 X3364.000000 Y144.928800

M300 S125 (G01 Z0.000000 F100.0(Penetrate)
G01 X3436.000000 Y167.728680 Z0.000000 F200.000000
G01 X3462.666700 Y159.284290 Z0.000000
G01 X3390.666700 Y136.484410 Z0.000000
G01 X3417.333300 Y128.040010 Z0.000000
G01 X3489.333300 Y150.839890 Z0.000000
G01 X3516.000000 Y142.395480 Z0.000000
G01 X3444.000000 Y119.595600 Z0.000000
M300 S145 (G00 Z5.000000)

(End cutting path id: path6244)


(Start cutting path id: path6298)
(Change tool to Cylindrical cutter)

M300 S145 (G00 Z5.000000)
G00 X3440.000000 Y64.514530

M300 S125 (G01 Z0.000000 F100.0(Penetrate)
G01 X3440.000000 Y115.496610 Z0.000000 F200.000000
G01 X3460.000000 Y121.829910 Z0.000000
G01 X3460.000000 Y70.847830 Z0.000000
G01 X3480.000000 Y77.181130 Z0.000000
G01 X3480.000000 Y128.163210 Z0.000000
G01 X3500.000000 Y134.496510 Z0.000000
G01 X3500.000000 Y83.514430 Z0.000000
G01 X3520.000000 Y89.847730 Z0.000000
G01 X3520.000000 Y140.829810 Z0.000000
M300 S145 (G00 Z5.000000)

(End cutting path id: path6298)


(Start cutting path id: path6296)
(Change tool to Cylindrical cutter)

M300 S145 (G00 Z5.000000)
G00 X3444.000000 Y62.948850

M300 S125 (G01 Z0.000000 F100.0(Penetrate)
G01 X3516.000000 Y85.748730 Z0.000000 F200.000000
G01 X3542.666700 Y77.304330 Z0.000000
G01 X3470.666700 Y54.504450 Z0.000000
G01 X3497.333300 Y46.060050 Z0.000000
G01 X3569.333300 Y68.859930 Z0.000000
G01 X3596.000000 Y60.415530 Z0.000000
G01 X3524.000000 Y37.615650 Z0.000000
M300 S145 (G00 Z5.000000)

(End cutting path id: path6296)


(Start cutting path id: path6294)
(Change tool to Cylindrical cutter)

M300 S145 (G00 Z5.000000)
G00 X3516.000000 Y-19.031110

M300 S125 (G01 Z0.000000 F100.0(Penetrate)
G01 X3444.000000 Y3.768770 Z0.000000 F200.000000
G01 X3444.000000 Y15.098120 Z0.000000
G01 X3516.000000 Y-7.701760 Z0.000000
G01 X3516.000000 Y3.627590 Z0.000000
G01 X3444.000000 Y26.427470 Z0.000000
G01 X3444.000000 Y37.756830 Z0.000000
G01 X3516.000000 Y14.956950 Z0.000000
G01 X3516.000000 Y26.286300 Z0.000000
G01 X3444.000000 Y49.086180 Z0.000000
G01 X3444.000000 Y60.415530 Z0.000000
G01 X3516.000000 Y37.615650 Z0.000000
M300 S145 (G00 Z5.000000)

(End cutting path id: path6294)


(Start cutting path id: path6242)
(Change tool to Cylindrical cutter)

M300 S145 (G00 Z5.000000)
G00 X3436.000000 Y62.948850

M300 S125 (G01 Z0.000000 F100.0(Penetrate)
G01 X3364.000000 Y85.748730 Z0.000000 F200.000000
G01 X3364.000000 Y97.078080 Z0.000000
G01 X3436.000000 Y74.278200 Z0.000000
G01 X3436.000000 Y85.607550 Z0.000000
G01 X3364.000000 Y108.407430 Z0.000000
G01 X3364.000000 Y119.736790 Z0.000000
G01 X3436.000000 Y96.936910 Z0.000000
G01 X3436.000000 Y108.266260 Z0.000000
G01 X3364.000000 Y131.066140 Z0.000000
G01 X3364.000000 Y142.395480 Z0.000000
G01 X3436.000000 Y119.595600 Z0.000000
M300 S145 (G00 Z5.000000)

(End cutting path id: path6242)


(Start cutting path id: path6190)
(Change tool to Cylindrical cutter)

M300 S145 (G00 Z5.000000)
G00 X3356.000000 Y144.928800

M300 S125 (G01 Z0.000000 F100.0(Penetrate)
G01 X3284.000000 Y167.728680 Z0.000000 F200.000000
G01 X3284.000000 Y179.058040 Z0.000000
G01 X3356.000000 Y156.258160 Z0.000000
G01 X3356.000000 Y167.587510 Z0.000000
G01 X3284.000000 Y190.387390 Z0.000000
G01 X3284.000000 Y201.716740 Z0.000000
G01 X3356.000000 Y178.916860 Z0.000000
G01 X3356.000000 Y190.246210 Z0.000000
G01 X3284.000000 Y213.046090 Z0.000000
G01 X3284.000000 Y224.375390 Z0.000000
G01 X3356.000000 Y201.575560 Z0.000000
M300 S145 (G00 Z5.000000)

(End cutting path id: path6190)


(Start cutting path id: path6138)
(Change tool to Cylindrical cutter)

M300 S145 (G00 Z5.000000)
G00 X3276.000000 Y226.908790

M300 S125 (G01 Z0.000000 F100.0(Penetrate)
G01 X3204.000000 Y249.708690 Z0.000000 F200.000000
G01 X3204.000000 Y261.037990 Z0.000000
G01 X3276.000000 Y238.238090 Z0.000000
G01 X3276.000000 Y249.567490 Z0.000000
G01 X3204.000000 Y272.367390 Z0.000000
G01 X3204.000000 Y283.696690 Z0.000000
G01 X3276.000000 Y260.896790 Z0.000000
G01 X3276.000000 Y272.226190 Z0.000000
G01 X3204.000000 Y295.026090 Z0.000000
G01 X3204.000000 Y306.355390 Z0.000000
G01 X3276.000000 Y283.555490 Z0.000000
M300 S145 (G00 Z5.000000)

(End cutting path id: path6138)


(Start cutting path id: path6142)
(Change tool to Cylindrical cutter)

M300 S145 (G00 Z5.000000)
G00 X3200.000000 Y310.454390

M300 S125 (G01 Z0.000000 F100.0(Penetrate)
G01 X3200.000000 Y361.436490 Z0.000000 F200.000000
G01 X3220.000000 Y367.769790 Z0.000000
G01 X3220.000000 Y316.787690 Z0.000000
G01 X3240.000000 Y323.120990 Z0.000000
G01 X3240.000000 Y374.103090 Z0.000000
G01 X3260.000000 Y380.436390 Z0.000000
G01 X3260.000000 Y329.454290 Z0.000000
G01 X3280.000000 Y335.787590 Z0.000000
G01 X3280.000000 Y386.769690 Z0.000000
M300 S145 (G00 Z5.000000)

(End cutting path id: path6142)


(Start cutting path id: path6086)
(Change tool to Cylindrical cutter)

M300 S145 (G00 Z5.000000)
G00 X3196.000000 Y308.888790

M300 S125 (G01 Z0.000000 F100.0(Penetrate)
G01 X3124.000000 Y331.688590 Z0.000000 F200.000000
G01 X3124.000000 Y343.017990 Z0.000000
G01 X3196.000000 Y320.218090 Z0.000000
G01 X3196.000000 Y331.547390 Z0.000000
G01 X3124.000000 Y354.347290 Z0.000000
G01 X3124.000000 Y365.676690 Z0.000000
G01 X3196.000000 Y342.876790 Z0.000000
G01 X3196.000000 Y354.206090 Z0.000000
G01 X3124.000000 Y377.005990 Z0.000000
G01 X3124.000000 Y388.335390 Z0.000000
G01 X3196.000000 Y365.535490 Z0.000000
M300 S145 (G00 Z5.000000)

(End cutting path id: path6086)


(Start cutting path id: path6088)
(Change tool to Cylindrical cutter)

M300 S145 (G00 Z5.000000)
G00 X3040.000000 Y364.268890

M300 S125 (G01 Z0.000000 F100.0(Penetrate)
G01 X3120.000000 Y389.602090 Z0.000000 F200.000000
M300 S145 (G00 Z5.000000)

(End cutting path id: path6088)


(Start cutting path id: path6082)
(Change tool to Cylindrical cutter)

M300 S145 (G00 Z5.000000)
G00 X3044.000000 Y308.888790

M300 S125 (G01 Z0.000000 F100.0(Penetrate)
G01 X3116.000000 Y331.688590 Z0.000000 F200.000000
G01 X3142.666700 Y323.244190 Z0.000000
G01 X3070.666700 Y300.444290 Z0.000000
G01 X3097.333300 Y291.999890 Z0.000000
G01 X3169.333300 Y314.799790 Z0.000000
G01 X3196.000000 Y306.355390 Z0.000000
G01 X3124.000000 Y283.555490 Z0.000000
M300 S145 (G00 Z5.000000)

(End cutting path id: path6082)


(Start cutting path id: path6136)
(Change tool to Cylindrical cutter)

M300 S145 (G00 Z5.000000)
G00 X3120.000000 Y228.474490

M300 S125 (G01 Z0.000000 F100.0(Penetrate)
G01 X3120.000000 Y279.456490 Z0.000000 F200.000000
G01 X3140.000000 Y285.789790 Z0.000000
G01 X3140.000000 Y234.807790 Z0.000000
G01 X3160.000000 Y241.141090 Z0.000000
G01 X3160.000000 Y292.123090 Z0.000000
G01 X3180.000000 Y298.456390 Z0.000000
G01 X3180.000000 Y247.474390 Z0.000000
G01 X3200.000000 Y253.807690 Z0.000000
G01 X3200.000000 Y304.789690 Z0.000000
M300 S145 (G00 Z5.000000)

(End cutting path id: path6136)


(Start cutting path id: path6134)
(Change tool to Cylindrical cutter)

M300 S145 (G00 Z5.000000)
G00 X3124.000000 Y226.908790

M300 S125 (G01 Z0.000000 F100.0(Penetrate)
G01 X3196.000000 Y249.708690 Z0.000000 F200.000000
G01 X3222.666700 Y241.264290 Z0.000000
G01 X3150.666700 Y218.464390 Z0.000000
G01 X3177.333300 Y210.019970 Z0.000000
G01 X3249.333300 Y232.819890 Z0.000000
G01 X3276.000000 Y224.375490 Z0.000000
G01 X3204.000000 Y201.575560 Z0.000000
M300 S145 (G00 Z5.000000)

(End cutting path id: path6134)


(Start cutting path id: path6188)
(Change tool to Cylindrical cutter)

M300 S145 (G00 Z5.000000)
G00 X3200.000000 Y146.494480

M300 S125 (G01 Z0.000000 F100.0(Penetrate)
G01 X3200.000000 Y197.476570 Z0.000000 F200.000000
G01 X3220.000000 Y203.809870 Z0.000000
G01 X3220.000000 Y152.827780 Z0.000000
G01 X3240.000000 Y159.161080 Z0.000000
G01 X3240.000000 Y210.143170 Z0.000000
G01 X3260.000000 Y216.476490 Z0.000000
G01 X3260.000000 Y165.494380 Z0.000000
G01 X3280.000000 Y171.827680 Z0.000000
G01 X3280.000000 Y222.809790 Z0.000000
M300 S145 (G00 Z5.000000)

(End cutting path id: path6188)


(Start cutting path id: path6186)
(Change tool to Cylindrical cutter)

M300 S145 (G00 Z5.000000)
G00 X3204.000000 Y144.928800

M300 S125 (G01 Z0.000000 F100.0(Penetrate)
G01 X3276.000000 Y167.728680 Z0.000000 F200.000000
G01 X3302.666700 Y159.284290 Z0.000000
G01 X3230.666700 Y136.484410 Z0.000000
G01 X3257.333300 Y128.040010 Z0.000000
G01 X3329.333300 Y150.839890 Z0.000000
G01 X3356.000000 Y142.395480 Z0.000000
G01 X3284.000000 Y119.595600 Z0.000000
M300 S145 (G00 Z5.000000)

(End cutting path id: path6186)


(Start cutting path id: path6240)
(Change tool to Cylindrical cutter)

M300 S145 (G00 Z5.000000)
G00 X3280.000000 Y64.514530

M300 S125 (G01 Z0.000000 F100.0(Penetrate)
G01 X3280.000000 Y115.496610 Z0.000000 F200.000000
G01 X3300.000000 Y121.829910 Z0.000000
G01 X3300.000000 Y70.847830 Z0.000000
G01 X3320.000000 Y77.181130 Z0.000000
G01 X3320.000000 Y128.163210 Z0.000000
G01 X3340.000000 Y134.496510 Z0.000000
G01 X3340.000000 Y83.514430 Z0.000000
G01 X3360.000000 Y89.847730 Z0.000000
G01 X3360.000000 Y140.829810 Z0.000000
M300 S145 (G00 Z5.000000)

(End cutting path id: path6240)


(Start cutting path id: path6238)
(Change tool to Cylindrical cutter)

M300 S145 (G00 Z5.000000)
G00 X3284.000000 Y62.948850

M300 S125 (G01 Z0.000000 F100.0(Penetrate)
G01 X3356.000000 Y85.748730 Z0.000000 F200.000000
G01 X3382.666700 Y77.304330 Z0.000000
G01 X3310.666700 Y54.504450 Z0.000000
G01 X3337.333300 Y46.060050 Z0.000000
G01 X3409.333300 Y68.859930 Z0.000000
G01 X3436.000000 Y60.415530 Z0.000000
G01 X3364.000000 Y37.615650 Z0.000000
M300 S145 (G00 Z5.000000)

(End cutting path id: path6238)


(Start cutting path id: path6292)
(Change tool to Cylindrical cutter)

M300 S145 (G00 Z5.000000)
G00 X3360.000000 Y-17.465430

M300 S125 (G01 Z0.000000 F100.0(Penetrate)
G01 X3360.000000 Y33.516650 Z0.000000 F200.000000
G01 X3380.000000 Y39.849950 Z0.000000
G01 X3380.000000 Y-11.132130 Z0.000000
G01 X3400.000000 Y-4.798830 Z0.000000
G01 X3400.000000 Y46.183250 Z0.000000
G01 X3420.000000 Y52.516550 Z0.000000
G01 X3420.000000 Y1.534470 Z0.000000
G01 X3440.000000 Y7.867770 Z0.000000
G01 X3440.000000 Y58.849850 Z0.000000
M300 S145 (G00 Z5.000000)

(End cutting path id: path6292)


(Start cutting path id: path6290)
(Change tool to Cylindrical cutter)

M300 S145 (G00 Z5.000000)
G00 X3364.000000 Y-19.031110

M300 S125 (G01 Z0.000000 F100.0(Penetrate)
G01 X3436.000000 Y3.768770 Z0.000000 F200.000000
G01 X3462.666700 Y-4.675630 Z0.000000
G01 X3390.666700 Y-27.475510 Z0.000000
G01 X3417.333300 Y-35.919910 Z0.000000
G01 X3489.333300 Y-13.120030 Z0.000000
G01 X3516.000000 Y-21.564430 Z0.000000
G01 X3444.000000 Y-44.364310 Z0.000000
M300 S145 (G00 Z5.000000)

(End cutting path id: path6290)


(Start cutting path id: path6288)
(Change tool to Cylindrical cutter)

M300 S145 (G00 Z5.000000)
G00 X3436.000000 Y-101.011060

M300 S125 (G01 Z0.000000 F100.0(Penetrate)
G01 X3364.000000 Y-78.211180 Z0.000000 F200.000000
G01 X3364.000000 Y-66.881830 Z0.000000
G01 X3436.000000 Y-89.681710 Z0.000000
G01 X3436.000000 Y-78.352360 Z0.000000
G01 X3364.000000 Y-55.552480 Z0.000000
G01 X3364.000000 Y-44.223130 Z0.000000
G01 X3436.000000 Y-67.023010 Z0.000000
G01 X3436.000000 Y-55.693660 Z0.000000
G01 X3364.000000 Y-32.893780 Z0.000000
G01 X3364.000000 Y-21.564430 Z0.000000
G01 X3436.000000 Y-44.364310 Z0.000000
M300 S145 (G00 Z5.000000)

(End cutting path id: path6288)


(Start cutting path id: path6236)
(Change tool to Cylindrical cutter)

M300 S145 (G00 Z5.000000)
G00 X3356.000000 Y-19.031110

M300 S125 (G01 Z0.000000 F100.0(Penetrate)
G01 X3284.000000 Y3.768770 Z0.000000 F200.000000
G01 X3284.000000 Y15.098120 Z0.000000
G01 X3356.000000 Y-7.701760 Z0.000000
G01 X3356.000000 Y3.627590 Z0.000000
G01 X3284.000000 Y26.427470 Z0.000000
G01 X3284.000000 Y37.756830 Z0.000000
G01 X3356.000000 Y14.956950 Z0.000000
G01 X3356.000000 Y26.286300 Z0.000000
G01 X3284.000000 Y49.086180 Z0.000000
G01 X3284.000000 Y60.415530 Z0.000000
G01 X3356.000000 Y37.615650 Z0.000000
M300 S145 (G00 Z5.000000)

(End cutting path id: path6236)


(Start cutting path id: path6184)
(Change tool to Cylindrical cutter)

M300 S145 (G00 Z5.000000)
G00 X3276.000000 Y62.948850

M300 S125 (G01 Z0.000000 F100.0(Penetrate)
G01 X3204.000000 Y85.748730 Z0.000000 F200.000000
G01 X3204.000000 Y97.078080 Z0.000000
G01 X3276.000000 Y74.278200 Z0.000000
G01 X3276.000000 Y85.607550 Z0.000000
G01 X3204.000000 Y108.407430 Z0.000000
G01 X3204.000000 Y119.736790 Z0.000000
G01 X3276.000000 Y96.936910 Z0.000000
G01 X3276.000000 Y108.266260 Z0.000000
G01 X3204.000000 Y131.066140 Z0.000000
G01 X3204.000000 Y142.395480 Z0.000000
G01 X3276.000000 Y119.595600 Z0.000000
M300 S145 (G00 Z5.000000)

(End cutting path id: path6184)


(Start cutting path id: path6132)
(Change tool to Cylindrical cutter)

M300 S145 (G00 Z5.000000)
G00 X3196.000000 Y144.928800

M300 S125 (G01 Z0.000000 F100.0(Penetrate)
G01 X3124.000000 Y167.728680 Z0.000000 F200.000000
G01 X3124.000000 Y179.058040 Z0.000000
G01 X3196.000000 Y156.258160 Z0.000000
G01 X3196.000000 Y167.587510 Z0.000000
G01 X3124.000000 Y190.387390 Z0.000000
G01 X3124.000000 Y201.716740 Z0.000000
G01 X3196.000000 Y178.916860 Z0.000000
G01 X3196.000000 Y190.246210 Z0.000000
G01 X3124.000000 Y213.046090 Z0.000000
G01 X3124.000000 Y224.375390 Z0.000000
G01 X3196.000000 Y201.575560 Z0.000000
M300 S145 (G00 Z5.000000)

(End cutting path id: path6132)


(Start cutting path id: path6080)
(Change tool to Cylindrical cutter)

M300 S145 (G00 Z5.000000)
G00 X3116.000000 Y226.908790

M300 S125 (G01 Z0.000000 F100.0(Penetrate)
G01 X3044.000000 Y249.708690 Z0.000000 F200.000000
G01 X3044.000000 Y261.037990 Z0.000000
G01 X3116.000000 Y238.238090 Z0.000000
G01 X3116.000000 Y249.567490 Z0.000000
G01 X3044.000000 Y272.367390 Z0.000000
G01 X3044.000000 Y283.696690 Z0.000000
G01 X3116.000000 Y260.896790 Z0.000000
G01 X3116.000000 Y272.226190 Z0.000000
G01 X3044.000000 Y295.026090 Z0.000000
G01 X3044.000000 Y306.355390 Z0.000000
G01 X3116.000000 Y283.555490 Z0.000000
M300 S145 (G00 Z5.000000)

(End cutting path id: path6080)


(Start cutting path id: path6084)
(Change tool to Cylindrical cutter)

M300 S145 (G00 Z5.000000)
G00 X3040.000000 Y310.454390

M300 S125 (G01 Z0.000000 F100.0(Penetrate)
G01 X3040.000000 Y361.436490 Z0.000000 F200.000000
G01 X3060.000000 Y367.769790 Z0.000000
G01 X3060.000000 Y316.787690 Z0.000000
G01 X3080.000000 Y323.120990 Z0.000000
G01 X3080.000000 Y374.103090 Z0.000000
G01 X3100.000000 Y380.436390 Z0.000000
G01 X3100.000000 Y329.454290 Z0.000000
G01 X3120.000000 Y335.787590 Z0.000000
G01 X3120.000000 Y386.769690 Z0.000000
M300 S145 (G00 Z5.000000)

(End cutting path id: path6084)


(Start cutting path id: path6028)
(Change tool to Cylindrical cutter)

M300 S145 (G00 Z5.000000)
G00 X3036.000000 Y308.888790

M300 S125 (G01 Z0.000000 F100.0(Penetrate)
G01 X2964.000000 Y331.688590 Z0.000000 F200.000000
G01 X2964.000000 Y343.017990 Z0.000000
G01 X3036.000000 Y320.218090 Z0.000000
G01 X3036.000000 Y331.547390 Z0.000000
G01 X2964.000000 Y354.347290 Z0.000000
G01 X2964.000000 Y365.676690 Z0.000000
G01 X3036.000000 Y342.876790 Z0.000000
G01 X3036.000000 Y354.206090 Z0.000000
G01 X2964.000000 Y377.005990 Z0.000000
G01 X2964.000000 Y388.335390 Z0.000000
G01 X3036.000000 Y365.535490 Z0.000000
M300 S145 (G00 Z5.000000)

(End cutting path id: path6028)


(Start cutting path id: path6030)
(Change tool to Cylindrical cutter)

M300 S145 (G00 Z5.000000)
G00 X2880.000000 Y364.268890

M300 S125 (G01 Z0.000000 F100.0(Penetrate)
G01 X2960.000000 Y389.602090 Z0.000000 F200.000000
M300 S145 (G00 Z5.000000)

(End cutting path id: path6030)


(Start cutting path id: path6024)
(Change tool to Cylindrical cutter)

M300 S145 (G00 Z5.000000)
G00 X2884.000000 Y308.888790

M300 S125 (G01 Z0.000000 F100.0(Penetrate)
G01 X2956.000000 Y331.688590 Z0.000000 F200.000000
G01 X2982.666700 Y323.244190 Z0.000000
G01 X2910.666700 Y300.444290 Z0.000000
G01 X2937.333300 Y291.999890 Z0.000000
G01 X3009.333300 Y314.799790 Z0.000000
G01 X3036.000000 Y306.355390 Z0.000000
G01 X2964.000000 Y283.555490 Z0.000000
M300 S145 (G00 Z5.000000)

(End cutting path id: path6024)


(Start cutting path id: path6078)
(Change tool to Cylindrical cutter)

M300 S145 (G00 Z5.000000)
G00 X2960.000000 Y228.474490

M300 S125 (G01 Z0.000000 F100.0(Penetrate)
G01 X2960.000000 Y279.456490 Z0.000000 F200.000000
G01 X2980.000000 Y285.789790 Z0.000000
G01 X2980.000000 Y234.807790 Z0.000000
G01 X3000.000000 Y241.141090 Z0.000000
G01 X3000.000000 Y292.123090 Z0.000000
G01 X3020.000000 Y298.456390 Z0.000000
G01 X3020.000000 Y247.474390 Z0.000000
G01 X3040.000000 Y253.807690 Z0.000000
G01 X3040.000000 Y304.789690 Z0.000000
M300 S145 (G00 Z5.000000)

(End cutting path id: path6078)


(Start cutting path id: path6076)
(Change tool to Cylindrical cutter)

M300 S145 (G00 Z5.000000)
G00 X2964.000000 Y226.908790

M300 S125 (G01 Z0.000000 F100.0(Penetrate)
G01 X3036.000000 Y249.708690 Z0.000000 F200.000000
G01 X3062.666700 Y241.264290 Z0.000000
G01 X2990.666700 Y218.464390 Z0.000000
G01 X3017.333300 Y210.019970 Z0.000000
G01 X3089.333300 Y232.819890 Z0.000000
G01 X3116.000000 Y224.375490 Z0.000000
G01 X3044.000000 Y201.575560 Z0.000000
M300 S145 (G00 Z5.000000)

(End cutting path id: path6076)


(Start cutting path id: path6130)
(Change tool to Cylindrical cutter)

M300 S145 (G00 Z5.000000)
G00 X3040.000000 Y146.494480

M300 S125 (G01 Z0.000000 F100.0(Penetrate)
G01 X3040.000000 Y197.476570 Z0.000000 F200.000000
G01 X3060.000000 Y203.809870 Z0.000000
G01 X3060.000000 Y152.827780 Z0.000000
G01 X3080.000000 Y159.161080 Z0.000000
G01 X3080.000000 Y210.143170 Z0.000000
G01 X3100.000000 Y216.476490 Z0.000000
G01 X3100.000000 Y165.494380 Z0.000000
G01 X3120.000000 Y171.827680 Z0.000000
G01 X3120.000000 Y222.809790 Z0.000000
M300 S145 (G00 Z5.000000)

(End cutting path id: path6130)


(Start cutting path id: path6128)
(Change tool to Cylindrical cutter)

M300 S145 (G00 Z5.000000)
G00 X3044.000000 Y144.928800

M300 S125 (G01 Z0.000000 F100.0(Penetrate)
G01 X3116.000000 Y167.728680 Z0.000000 F200.000000
G01 X3142.666700 Y159.284290 Z0.000000
G01 X3070.666700 Y136.484410 Z0.000000
G01 X3097.333300 Y128.040010 Z0.000000
G01 X3169.333300 Y150.839890 Z0.000000
G01 X3196.000000 Y142.395480 Z0.000000
G01 X3124.000000 Y119.595600 Z0.000000
M300 S145 (G00 Z5.000000)

(End cutting path id: path6128)


(Start cutting path id: path6182)
(Change tool to Cylindrical cutter)

M300 S145 (G00 Z5.000000)
G00 X3120.000000 Y64.514530

M300 S125 (G01 Z0.000000 F100.0(Penetrate)
G01 X3120.000000 Y115.496610 Z0.000000 F200.000000
G01 X3140.000000 Y121.829910 Z0.000000
G01 X3140.000000 Y70.847830 Z0.000000
G01 X3160.000000 Y77.181130 Z0.000000
G01 X3160.000000 Y128.163210 Z0.000000
G01 X3180.000000 Y134.496510 Z0.000000
G01 X3180.000000 Y83.514430 Z0.000000
G01 X3200.000000 Y89.847730 Z0.000000
G01 X3200.000000 Y140.829810 Z0.000000
M300 S145 (G00 Z5.000000)

(End cutting path id: path6182)


(Start cutting path id: path6180)
(Change tool to Cylindrical cutter)

M300 S145 (G00 Z5.000000)
G00 X3124.000000 Y62.948850

M300 S125 (G01 Z0.000000 F100.0(Penetrate)
G01 X3196.000000 Y85.748730 Z0.000000 F200.000000
G01 X3222.666700 Y77.304330 Z0.000000
G01 X3150.666700 Y54.504450 Z0.000000
G01 X3177.333300 Y46.060050 Z0.000000
G01 X3249.333300 Y68.859930 Z0.000000
G01 X3276.000000 Y60.415530 Z0.000000
G01 X3204.000000 Y37.615650 Z0.000000
M300 S145 (G00 Z5.000000)

(End cutting path id: path6180)


(Start cutting path id: path6234)
(Change tool to Cylindrical cutter)

M300 S145 (G00 Z5.000000)
G00 X3200.000000 Y-17.465430

M300 S125 (G01 Z0.000000 F100.0(Penetrate)
G01 X3200.000000 Y33.516650 Z0.000000 F200.000000
G01 X3220.000000 Y39.849950 Z0.000000
G01 X3220.000000 Y-11.132130 Z0.000000
G01 X3240.000000 Y-4.798830 Z0.000000
G01 X3240.000000 Y46.183250 Z0.000000
G01 X3260.000000 Y52.516550 Z0.000000
G01 X3260.000000 Y1.534470 Z0.000000
G01 X3280.000000 Y7.867770 Z0.000000
G01 X3280.000000 Y58.849850 Z0.000000
M300 S145 (G00 Z5.000000)

(End cutting path id: path6234)


(Start cutting path id: path6232)
(Change tool to Cylindrical cutter)

M300 S145 (G00 Z5.000000)
G00 X3204.000000 Y-19.031110

M300 S125 (G01 Z0.000000 F100.0(Penetrate)
G01 X3276.000000 Y3.768770 Z0.000000 F200.000000
G01 X3302.666700 Y-4.675630 Z0.000000
G01 X3230.666700 Y-27.475510 Z0.000000
G01 X3257.333300 Y-35.919910 Z0.000000
G01 X3329.333300 Y-13.120030 Z0.000000
G01 X3356.000000 Y-21.564430 Z0.000000
G01 X3284.000000 Y-44.364310 Z0.000000
M300 S145 (G00 Z5.000000)

(End cutting path id: path6232)


(Start cutting path id: path6286)
(Change tool to Cylindrical cutter)

M300 S145 (G00 Z5.000000)
G00 X3280.000000 Y-99.445390

M300 S125 (G01 Z0.000000 F100.0(Penetrate)
G01 X3280.000000 Y-48.463310 Z0.000000 F200.000000
G01 X3300.000000 Y-42.130010 Z0.000000
G01 X3300.000000 Y-93.112090 Z0.000000
G01 X3320.000000 Y-86.778790 Z0.000000
G01 X3320.000000 Y-35.796710 Z0.000000
G01 X3340.000000 Y-29.463410 Z0.000000
G01 X3340.000000 Y-80.445490 Z0.000000
G01 X3360.000000 Y-74.112190 Z0.000000
G01 X3360.000000 Y-23.130110 Z0.000000
M300 S145 (G00 Z5.000000)

(End cutting path id: path6286)


(Start cutting path id: path6284)
(Change tool to Cylindrical cutter)

M300 S145 (G00 Z5.000000)
G00 X3284.000000 Y-101.011060

M300 S125 (G01 Z0.000000 F100.0(Penetrate)
G01 X3356.000000 Y-78.211180 Z0.000000 F200.000000
G01 X3382.666700 Y-86.655590 Z0.000000
G01 X3310.666700 Y-109.455470 Z0.000000
G01 X3337.333300 Y-117.899870 Z0.000000
G01 X3409.333300 Y-95.099990 Z0.000000
G01 X3436.000000 Y-103.544380 Z0.000000
G01 X3364.000000 Y-126.344260 Z0.000000
M300 S145 (G00 Z5.000000)

(End cutting path id: path6284)


(Start cutting path id: path6282)
(Change tool to Cylindrical cutter)

M300 S145 (G00 Z5.000000)
G00 X3356.000000 Y-182.991020

M300 S125 (G01 Z0.000000 F100.0(Penetrate)
G01 X3284.000000 Y-160.191140 Z0.000000 F200.000000
G01 X3284.000000 Y-148.861790 Z0.000000
G01 X3356.000000 Y-171.661670 Z0.000000
G01 X3356.000000 Y-160.332320 Z0.000000
G01 X3284.000000 Y-137.532440 Z0.000000
G01 X3284.000000 Y-126.203090 Z0.000000
G01 X3356.000000 Y-149.002970 Z0.000000
G01 X3356.000000 Y-137.673620 Z0.000000
G01 X3284.000000 Y-114.873740 Z0.000000
G01 X3284.000000 Y-103.544380 Z0.000000
G01 X3356.000000 Y-126.344260 Z0.000000
M300 S145 (G00 Z5.000000)

(End cutting path id: path6282)


(Start cutting path id: path6230)
(Change tool to Cylindrical cutter)

M300 S145 (G00 Z5.000000)
G00 X3276.000000 Y-101.011060

M300 S125 (G01 Z0.000000 F100.0(Penetrate)
G01 X3204.000000 Y-78.211180 Z0.000000 F200.000000
G01 X3204.000000 Y-66.881830 Z0.000000
G01 X3276.000000 Y-89.681710 Z0.000000
G01 X3276.000000 Y-78.352360 Z0.000000
G01 X3204.000000 Y-55.552480 Z0.000000
G01 X3204.000000 Y-44.223130 Z0.000000
G01 X3276.000000 Y-67.023010 Z0.000000
G01 X3276.000000 Y-55.693660 Z0.000000
G01 X3204.000000 Y-32.893780 Z0.000000
G01 X3204.000000 Y-21.564430 Z0.000000
G01 X3276.000000 Y-44.364310 Z0.000000
M300 S145 (G00 Z5.000000)

(End cutting path id: path6230)


(Start cutting path id: path6178)
(Change tool to Cylindrical cutter)

M300 S145 (G00 Z5.000000)
G00 X3196.000000 Y-19.031110

M300 S125 (G01 Z0.000000 F100.0(Penetrate)
G01 X3124.000000 Y3.768770 Z0.000000 F200.000000
G01 X3124.000000 Y15.098120 Z0.000000
G01 X3196.000000 Y-7.701760 Z0.000000
G01 X3196.000000 Y3.627590 Z0.000000
G01 X3124.000000 Y26.427470 Z0.000000
G01 X3124.000000 Y37.756830 Z0.000000
G01 X3196.000000 Y14.956950 Z0.000000
G01 X3196.000000 Y26.286300 Z0.000000
G01 X3124.000000 Y49.086180 Z0.000000
G01 X3124.000000 Y60.415530 Z0.000000
G01 X3196.000000 Y37.615650 Z0.000000
M300 S145 (G00 Z5.000000)

(End cutting path id: path6178)


(Start cutting path id: path6126)
(Change tool to Cylindrical cutter)

M300 S145 (G00 Z5.000000)
G00 X3116.000000 Y62.948850

M300 S125 (G01 Z0.000000 F100.0(Penetrate)
G01 X3044.000000 Y85.748730 Z0.000000 F200.000000
G01 X3044.000000 Y97.078080 Z0.000000
G01 X3116.000000 Y74.278200 Z0.000000
G01 X3116.000000 Y85.607550 Z0.000000
G01 X3044.000000 Y108.407430 Z0.000000
G01 X3044.000000 Y119.736790 Z0.000000
G01 X3116.000000 Y96.936910 Z0.000000
G01 X3116.000000 Y108.266260 Z0.000000
G01 X3044.000000 Y131.066140 Z0.000000
G01 X3044.000000 Y142.395480 Z0.000000
G01 X3116.000000 Y119.595600 Z0.000000
M300 S145 (G00 Z5.000000)

(End cutting path id: path6126)


(Start cutting path id: path6074)
(Change tool to Cylindrical cutter)

M300 S145 (G00 Z5.000000)
G00 X3036.000000 Y144.928800

M300 S125 (G01 Z0.000000 F100.0(Penetrate)
G01 X2964.000000 Y167.728680 Z0.000000 F200.000000
G01 X2964.000000 Y179.058040 Z0.000000
G01 X3036.000000 Y156.258160 Z0.000000
G01 X3036.000000 Y167.587510 Z0.000000
G01 X2964.000000 Y190.387390 Z0.000000
G01 X2964.000000 Y201.716740 Z0.000000
G01 X3036.000000 Y178.916860 Z0.000000
G01 X3036.000000 Y190.246210 Z0.000000
G01 X2964.000000 Y213.046090 Z0.000000
G01 X2964.000000 Y224.375390 Z0.000000
G01 X3036.000000 Y201.575560 Z0.000000
M300 S145 (G00 Z5.000000)

(End cutting path id: path6074)


(Start cutting path id: path6022)
(Change tool to Cylindrical cutter)

M300 S145 (G00 Z5.000000)
G00 X2956.000000 Y226.908790

M300 S125 (G01 Z0.000000 F100.0(Penetrate)
G01 X2884.000000 Y249.708690 Z0.000000 F200.000000
G01 X2884.000000 Y261.037990 Z0.000000
G01 X2956.000000 Y238.238090 Z0.000000
G01 X2956.000000 Y249.567490 Z0.000000
G01 X2884.000000 Y272.367390 Z0.000000
G01 X2884.000000 Y283.696690 Z0.000000
G01 X2956.000000 Y260.896790 Z0.000000
G01 X2956.000000 Y272.226190 Z0.000000
G01 X2884.000000 Y295.026090 Z0.000000
G01 X2884.000000 Y306.355390 Z0.000000
G01 X2956.000000 Y283.555490 Z0.000000
M300 S145 (G00 Z5.000000)

(End cutting path id: path6022)


(Start cutting path id: path6026)
(Change tool to Cylindrical cutter)

M300 S145 (G00 Z5.000000)
G00 X2880.000000 Y310.454390

M300 S125 (G01 Z0.000000 F100.0(Penetrate)
G01 X2880.000000 Y361.436490 Z0.000000 F200.000000
G01 X2900.000000 Y367.769790 Z0.000000
G01 X2900.000000 Y316.787690 Z0.000000
G01 X2920.000000 Y323.120990 Z0.000000
G01 X2920.000000 Y374.103090 Z0.000000
G01 X2940.000000 Y380.436390 Z0.000000
G01 X2940.000000 Y329.454290 Z0.000000
G01 X2960.000000 Y335.787590 Z0.000000
G01 X2960.000000 Y386.769690 Z0.000000
M300 S145 (G00 Z5.000000)

(End cutting path id: path6026)


(Start cutting path id: path5970)
(Change tool to Cylindrical cutter)

M300 S145 (G00 Z5.000000)
G00 X2876.000000 Y308.888790

M300 S125 (G01 Z0.000000 F100.0(Penetrate)
G01 X2804.000000 Y331.688590 Z0.000000 F200.000000
G01 X2804.000000 Y343.017990 Z0.000000
G01 X2876.000000 Y320.218090 Z0.000000
G01 X2876.000000 Y331.547390 Z0.000000
G01 X2804.000000 Y354.347290 Z0.000000
G01 X2804.000000 Y365.676690 Z0.000000
G01 X2876.000000 Y342.876790 Z0.000000
G01 X2876.000000 Y354.206090 Z0.000000
G01 X2804.000000 Y377.005990 Z0.000000
G01 X2804.000000 Y388.335390 Z0.000000
G01 X2876.000000 Y365.535490 Z0.000000
M300 S145 (G00 Z5.000000)

(End cutting path id: path5970)


(Start cutting path id: path5972)
(Change tool to Cylindrical cutter)

M300 S145 (G00 Z5.000000)
G00 X2720.000000 Y364.268890

M300 S125 (G01 Z0.000000 F100.0(Penetrate)
G01 X2800.000000 Y389.602090 Z0.000000 F200.000000
M300 S145 (G00 Z5.000000)

(End cutting path id: path5972)


(Start cutting path id: path5966)
(Change tool to Cylindrical cutter)

M300 S145 (G00 Z5.000000)
G00 X2724.000000 Y308.888790

M300 S125 (G01 Z0.000000 F100.0(Penetrate)
G01 X2796.000000 Y331.688590 Z0.000000 F200.000000
G01 X2822.666700 Y323.244190 Z0.000000
G01 X2750.666700 Y300.444290 Z0.000000
G01 X2777.333300 Y291.999890 Z0.000000
G01 X2849.333300 Y314.799790 Z0.000000
G01 X2876.000000 Y306.355390 Z0.000000
G01 X2804.000000 Y283.555490 Z0.000000
M300 S145 (G00 Z5.000000)

(End cutting path id: path5966)


(Start cutting path id: path6020)
(Change tool to Cylindrical cutter)

M300 S145 (G00 Z5.000000)
G00 X2800.000000 Y228.474490

M300 S125 (G01 Z0.000000 F100.0(Penetrate)
G01 X2800.000000 Y279.456490 Z0.000000 F200.000000
G01 X2820.000000 Y285.789790 Z0.000000
G01 X2820.000000 Y234.807790 Z0.000000
G01 X2840.000000 Y241.141090 Z0.000000
G01 X2840.000000 Y292.123090 Z0.000000
G01 X2860.000000 Y298.456390 Z0.000000
G01 X2860.000000 Y247.474390 Z0.000000
G01 X2880.000000 Y253.807690 Z0.000000
G01 X2880.000000 Y304.789690 Z0.000000
M300 S145 (G00 Z5.000000)

(End cutting path id: path6020)


(Start cutting path id: path6018)
(Change tool to Cylindrical cutter)

M300 S145 (G00 Z5.000000)
G00 X2804.000000 Y226.908790

M300 S125 (G01 Z0.000000 F100.0(Penetrate)
G01 X2876.000000 Y249.708690 Z0.000000 F200.000000
G01 X2902.666700 Y241.264290 Z0.000000
G01 X2830.666700 Y218.464390 Z0.000000
G01 X2857.333300 Y210.019970 Z0.000000
G01 X2929.333300 Y232.819890 Z0.000000
G01 X2956.000000 Y224.375490 Z0.000000
G01 X2884.000000 Y201.575560 Z0.000000
M300 S145 (G00 Z5.000000)

(End cutting path id: path6018)


(Start cutting path id: path6072)
(Change tool to Cylindrical cutter)

M300 S145 (G00 Z5.000000)
G00 X2880.000000 Y146.494480

M300 S125 (G01 Z0.000000 F100.0(Penetrate)
G01 X2880.000000 Y197.476570 Z0.000000 F200.000000
G01 X2900.000000 Y203.809870 Z0.000000
G01 X2900.000000 Y152.827780 Z0.000000
G01 X2920.000000 Y159.161080 Z0.000000
G01 X2920.000000 Y210.143170 Z0.000000
G01 X2940.000000 Y216.476490 Z0.000000
G01 X2940.000000 Y165.494380 Z0.000000
G01 X2960.000000 Y171.827680 Z0.000000
G01 X2960.000000 Y222.809790 Z0.000000
M300 S145 (G00 Z5.000000)

(End cutting path id: path6072)


(Start cutting path id: path6070)
(Change tool to Cylindrical cutter)

M300 S145 (G00 Z5.000000)
G00 X2884.000000 Y144.928800

M300 S125 (G01 Z0.000000 F100.0(Penetrate)
G01 X2956.000000 Y167.728680 Z0.000000 F200.000000
G01 X2982.666700 Y159.284290 Z0.000000
G01 X2910.666700 Y136.484410 Z0.000000
G01 X2937.333300 Y128.040010 Z0.000000
G01 X3009.333300 Y150.839890 Z0.000000
G01 X3036.000000 Y142.395480 Z0.000000
G01 X2964.000000 Y119.595600 Z0.000000
M300 S145 (G00 Z5.000000)

(End cutting path id: path6070)


(Start cutting path id: path6124)
(Change tool to Cylindrical cutter)

M300 S145 (G00 Z5.000000)
G00 X2960.000000 Y64.514530

M300 S125 (G01 Z0.000000 F100.0(Penetrate)
G01 X2960.000000 Y115.496610 Z0.000000 F200.000000
G01 X2980.000000 Y121.829910 Z0.000000
G01 X2980.000000 Y70.847830 Z0.000000
G01 X3000.000000 Y77.181130 Z0.000000
G01 X3000.000000 Y128.163210 Z0.000000
G01 X3020.000000 Y134.496510 Z0.000000
G01 X3020.000000 Y83.514430 Z0.000000
G01 X3040.000000 Y89.847730 Z0.000000
G01 X3040.000000 Y140.829810 Z0.000000
M300 S145 (G00 Z5.000000)

(End cutting path id: path6124)


(Start cutting path id: path6122)
(Change tool to Cylindrical cutter)

M300 S145 (G00 Z5.000000)
G00 X2964.000000 Y62.948850

M300 S125 (G01 Z0.000000 F100.0(Penetrate)
G01 X3036.000000 Y85.748730 Z0.000000 F200.000000
G01 X3062.666700 Y77.304330 Z0.000000
G01 X2990.666700 Y54.504450 Z0.000000
G01 X3017.333300 Y46.060050 Z0.000000
G01 X3089.333300 Y68.859930 Z0.000000
G01 X3116.000000 Y60.415530 Z0.000000
G01 X3044.000000 Y37.615650 Z0.000000
M300 S145 (G00 Z5.000000)

(End cutting path id: path6122)


(Start cutting path id: path6176)
(Change tool to Cylindrical cutter)

M300 S145 (G00 Z5.000000)
G00 X3040.000000 Y-17.465430

M300 S125 (G01 Z0.000000 F100.0(Penetrate)
G01 X3040.000000 Y33.516650 Z0.000000 F200.000000
G01 X3060.000000 Y39.849950 Z0.000000
G01 X3060.000000 Y-11.132130 Z0.000000
G01 X3080.000000 Y-4.798830 Z0.000000
G01 X3080.000000 Y46.183250 Z0.000000
G01 X3100.000000 Y52.516550 Z0.000000
G01 X3100.000000 Y1.534470 Z0.000000
G01 X3120.000000 Y7.867770 Z0.000000
G01 X3120.000000 Y58.849850 Z0.000000
M300 S145 (G00 Z5.000000)

(End cutting path id: path6176)


(Start cutting path id: path6174)
(Change tool to Cylindrical cutter)

M300 S145 (G00 Z5.000000)
G00 X3044.000000 Y-19.031110

M300 S125 (G01 Z0.000000 F100.0(Penetrate)
G01 X3116.000000 Y3.768770 Z0.000000 F200.000000
G01 X3142.666700 Y-4.675630 Z0.000000
G01 X3070.666700 Y-27.475510 Z0.000000
G01 X3097.333300 Y-35.919910 Z0.000000
G01 X3169.333300 Y-13.120030 Z0.000000
G01 X3196.000000 Y-21.564430 Z0.000000
G01 X3124.000000 Y-44.364310 Z0.000000
M300 S145 (G00 Z5.000000)

(End cutting path id: path6174)


(Start cutting path id: path6228)
(Change tool to Cylindrical cutter)

M300 S145 (G00 Z5.000000)
G00 X3120.000000 Y-99.445390

M300 S125 (G01 Z0.000000 F100.0(Penetrate)
G01 X3120.000000 Y-48.463310 Z0.000000 F200.000000
G01 X3140.000000 Y-42.130010 Z0.000000
G01 X3140.000000 Y-93.112090 Z0.000000
G01 X3160.000000 Y-86.778790 Z0.000000
G01 X3160.000000 Y-35.796710 Z0.000000
G01 X3180.000000 Y-29.463410 Z0.000000
G01 X3180.000000 Y-80.445490 Z0.000000
G01 X3200.000000 Y-74.112190 Z0.000000
G01 X3200.000000 Y-23.130110 Z0.000000
M300 S145 (G00 Z5.000000)

(End cutting path id: path6228)


(Start cutting path id: path6226)
(Change tool to Cylindrical cutter)

M300 S145 (G00 Z5.000000)
G00 X3124.000000 Y-101.011060

M300 S125 (G01 Z0.000000 F100.0(Penetrate)
G01 X3196.000000 Y-78.211180 Z0.000000 F200.000000
G01 X3222.666700 Y-86.655590 Z0.000000
G01 X3150.666700 Y-109.455470 Z0.000000
G01 X3177.333300 Y-117.899870 Z0.000000
G01 X3249.333300 Y-95.099990 Z0.000000
G01 X3276.000000 Y-103.544380 Z0.000000
G01 X3204.000000 Y-126.344260 Z0.000000
M300 S145 (G00 Z5.000000)

(End cutting path id: path6226)


(Start cutting path id: path6280)
(Change tool to Cylindrical cutter)

M300 S145 (G00 Z5.000000)
G00 X3200.000000 Y-181.425350

M300 S125 (G01 Z0.000000 F100.0(Penetrate)
G01 X3200.000000 Y-130.443260 Z0.000000 F200.000000
G01 X3220.000000 Y-124.109960 Z0.000000
G01 X3220.000000 Y-175.092050 Z0.000000
G01 X3240.000000 Y-168.758750 Z0.000000
G01 X3240.000000 Y-117.776660 Z0.000000
G01 X3260.000000 Y-111.443360 Z0.000000
G01 X3260.000000 Y-162.425450 Z0.000000
G01 X3280.000000 Y-156.092150 Z0.000000
G01 X3280.000000 Y-105.110060 Z0.000000
M300 S145 (G00 Z5.000000)

(End cutting path id: path6280)


(Start cutting path id: path6278)
(Change tool to Cylindrical cutter)

M300 S145 (G00 Z5.000000)
G00 X3204.000000 Y-182.991020

M300 S125 (G01 Z0.000000 F100.0(Penetrate)
G01 X3276.000000 Y-160.191140 Z0.000000 F200.000000
G01 X3302.666700 Y-168.635550 Z0.000000
G01 X3230.666700 Y-191.435430 Z0.000000
G01 X3257.333300 Y-199.879820 Z0.000000
G01 X3329.333300 Y-177.079940 Z0.000000
G01 X3356.000000 Y-185.524340 Z0.000000
G01 X3284.000000 Y-208.324200 Z0.000000
M300 S145 (G00 Z5.000000)

(End cutting path id: path6278)


(Start cutting path id: path6276)
(Change tool to Cylindrical cutter)

M300 S145 (G00 Z5.000000)
G00 X3276.000000 Y-264.971000

M300 S125 (G01 Z0.000000 F100.0(Penetrate)
G01 X3204.000000 Y-242.171100 Z0.000000 F200.000000
G01 X3204.000000 Y-230.841800 Z0.000000
G01 X3276.000000 Y-253.641600 Z0.000000
G01 X3276.000000 Y-242.312300 Z0.000000
G01 X3204.000000 Y-219.512400 Z0.000000
G01 X3204.000000 Y-208.183100 Z0.000000
G01 X3276.000000 Y-230.982900 Z0.000000
G01 X3276.000000 Y-219.653600 Z0.000000
G01 X3204.000000 Y-196.853700 Z0.000000
G01 X3204.000000 Y-185.524340 Z0.000000
G01 X3276.000000 Y-208.324200 Z0.000000
M300 S145 (G00 Z5.000000)

(End cutting path id: path6276)


(Start cutting path id: path6224)
(Change tool to Cylindrical cutter)

M300 S145 (G00 Z5.000000)
G00 X3196.000000 Y-182.991020

M300 S125 (G01 Z0.000000 F100.0(Penetrate)
G01 X3124.000000 Y-160.191140 Z0.000000 F200.000000
G01 X3124.000000 Y-148.861790 Z0.000000
G01 X3196.000000 Y-171.661670 Z0.000000
G01 X3196.000000 Y-160.332320 Z0.000000
G01 X3124.000000 Y-137.532440 Z0.000000
G01 X3124.000000 Y-126.203090 Z0.000000
G01 X3196.000000 Y-149.002970 Z0.000000
G01 X3196.000000 Y-137.673620 Z0.000000
G01 X3124.000000 Y-114.873740 Z0.000000
G01 X3124.000000 Y-103.544380 Z0.000000
G01 X3196.000000 Y-126.344260 Z0.000000
M300 S145 (G00 Z5.000000)

(End cutting path id: path6224)


(Start cutting path id: path6172)
(Change tool to Cylindrical cutter)

M300 S145 (G00 Z5.000000)
G00 X3116.000000 Y-101.011060

M300 S125 (G01 Z0.000000 F100.0(Penetrate)
G01 X3044.000000 Y-78.211180 Z0.000000 F200.000000
G01 X3044.000000 Y-66.881830 Z0.000000
G01 X3116.000000 Y-89.681710 Z0.000000
G01 X3116.000000 Y-78.352360 Z0.000000
G01 X3044.000000 Y-55.552480 Z0.000000
G01 X3044.000000 Y-44.223130 Z0.000000
G01 X3116.000000 Y-67.023010 Z0.000000
G01 X3116.000000 Y-55.693660 Z0.000000
G01 X3044.000000 Y-32.893780 Z0.000000
G01 X3044.000000 Y-21.564430 Z0.000000
G01 X3116.000000 Y-44.364310 Z0.000000
M300 S145 (G00 Z5.000000)

(End cutting path id: path6172)


(Start cutting path id: path6120)
(Change tool to Cylindrical cutter)

M300 S145 (G00 Z5.000000)
G00 X3036.000000 Y-19.031110

M300 S125 (G01 Z0.000000 F100.0(Penetrate)
G01 X2964.000000 Y3.768770 Z0.000000 F200.000000
G01 X2964.000000 Y15.098120 Z0.000000
G01 X3036.000000 Y-7.701760 Z0.000000
G01 X3036.000000 Y3.627590 Z0.000000
G01 X2964.000000 Y26.427470 Z0.000000
G01 X2964.000000 Y37.756830 Z0.000000
G01 X3036.000000 Y14.956950 Z0.000000
G01 X3036.000000 Y26.286300 Z0.000000
G01 X2964.000000 Y49.086180 Z0.000000
G01 X2964.000000 Y60.415530 Z0.000000
G01 X3036.000000 Y37.615650 Z0.000000
M300 S145 (G00 Z5.000000)

(End cutting path id: path6120)


(Start cutting path id: path6068)
(Change tool to Cylindrical cutter)

M300 S145 (G00 Z5.000000)
G00 X2956.000000 Y62.948850

M300 S125 (G01 Z0.000000 F100.0(Penetrate)
G01 X2884.000000 Y85.748730 Z0.000000 F200.000000
G01 X2884.000000 Y97.078080 Z0.000000
G01 X2956.000000 Y74.278200 Z0.000000
G01 X2956.000000 Y85.607550 Z0.000000
G01 X2884.000000 Y108.407430 Z0.000000
G01 X2884.000000 Y119.736790 Z0.000000
G01 X2956.000000 Y96.936910 Z0.000000
G01 X2956.000000 Y108.266260 Z0.000000
G01 X2884.000000 Y131.066140 Z0.000000
G01 X2884.000000 Y142.395480 Z0.000000
G01 X2956.000000 Y119.595600 Z0.000000
M300 S145 (G00 Z5.000000)

(End cutting path id: path6068)


(Start cutting path id: path6016)
(Change tool to Cylindrical cutter)

M300 S145 (G00 Z5.000000)
G00 X2876.000000 Y144.928800

M300 S125 (G01 Z0.000000 F100.0(Penetrate)
G01 X2804.000000 Y167.728680 Z0.000000 F200.000000
G01 X2804.000000 Y179.058040 Z0.000000
G01 X2876.000000 Y156.258160 Z0.000000
G01 X2876.000000 Y167.587510 Z0.000000
G01 X2804.000000 Y190.387390 Z0.000000
G01 X2804.000000 Y201.716740 Z0.000000
G01 X2876.000000 Y178.916860 Z0.000000
G01 X2876.000000 Y190.246210 Z0.000000
G01 X2804.000000 Y213.046090 Z0.000000
G01 X2804.000000 Y224.375390 Z0.000000
G01 X2876.000000 Y201.575560 Z0.000000
M300 S145 (G00 Z5.000000)

(End cutting path id: path6016)


(Start cutting path id: path5964)
(Change tool to Cylindrical cutter)

M300 S145 (G00 Z5.000000)
G00 X2796.000000 Y226.908790

M300 S125 (G01 Z0.000000 F100.0(Penetrate)
G01 X2724.000000 Y249.708690 Z0.000000 F200.000000
G01 X2724.000000 Y261.037990 Z0.000000
G01 X2796.000000 Y238.238090 Z0.000000
G01 X2796.000000 Y249.567490 Z0.000000
G01 X2724.000000 Y272.367390 Z0.000000
G01 X2724.000000 Y283.696690 Z0.000000
G01 X2796.000000 Y260.896790 Z0.000000
G01 X2796.000000 Y272.226190 Z0.000000
G01 X2724.000000 Y295.026090 Z0.000000
G01 X2724.000000 Y306.355390 Z0.000000
G01 X2796.000000 Y283.555490 Z0.000000
M300 S145 (G00 Z5.000000)

(End cutting path id: path5964)


(Start cutting path id: path5968)
(Change tool to Cylindrical cutter)

M300 S145 (G00 Z5.000000)
G00 X2720.000000 Y310.454390

M300 S125 (G01 Z0.000000 F100.0(Penetrate)
G01 X2720.000000 Y361.436490 Z0.000000 F200.000000
G01 X2740.000000 Y367.769790 Z0.000000
G01 X2740.000000 Y316.787690 Z0.000000
G01 X2760.000000 Y323.120990 Z0.000000
G01 X2760.000000 Y374.103090 Z0.000000
G01 X2780.000000 Y380.436390 Z0.000000
G01 X2780.000000 Y329.454290 Z0.000000
G01 X2800.000000 Y335.787590 Z0.000000
G01 X2800.000000 Y386.769690 Z0.000000
M300 S145 (G00 Z5.000000)

(End cutting path id: path5968)


(Start cutting path id: path5912)
(Change tool to Cylindrical cutter)

M300 S145 (G00 Z5.000000)
G00 X2716.000000 Y308.888790

M300 S125 (G01 Z0.000000 F100.0(Penetrate)
G01 X2644.000000 Y331.688590 Z0.000000 F200.000000
G01 X2644.000000 Y343.017990 Z0.000000
G01 X2716.000000 Y320.218090 Z0.000000
G01 X2716.000000 Y331.547390 Z0.000000
G01 X2644.000000 Y354.347290 Z0.000000
G01 X2644.000000 Y365.676690 Z0.000000
G01 X2716.000000 Y342.876790 Z0.000000
G01 X2716.000000 Y354.206090 Z0.000000
G01 X2644.000000 Y377.005990 Z0.000000
G01 X2644.000000 Y388.335390 Z0.000000
G01 X2716.000000 Y365.535490 Z0.000000
M300 S145 (G00 Z5.000000)

(End cutting path id: path5912)


(Start cutting path id: path5914)
(Change tool to Cylindrical cutter)

M300 S145 (G00 Z5.000000)
G00 X2560.000000 Y364.268890

M300 S125 (G01 Z0.000000 F100.0(Penetrate)
G01 X2640.000000 Y389.602090 Z0.000000 F200.000000
M300 S145 (G00 Z5.000000)

(End cutting path id: path5914)


(Start cutting path id: path5908)
(Change tool to Cylindrical cutter)

M300 S145 (G00 Z5.000000)
G00 X2564.000000 Y308.888790

M300 S125 (G01 Z0.000000 F100.0(Penetrate)
G01 X2636.000000 Y331.688590 Z0.000000 F200.000000
G01 X2662.666700 Y323.244190 Z0.000000
G01 X2590.666700 Y300.444290 Z0.000000
G01 X2617.333300 Y291.999890 Z0.000000
G01 X2689.333300 Y314.799790 Z0.000000
G01 X2716.000000 Y306.355390 Z0.000000
G01 X2644.000000 Y283.555490 Z0.000000
M300 S145 (G00 Z5.000000)

(End cutting path id: path5908)


(Start cutting path id: path5962)
(Change tool to Cylindrical cutter)

M300 S145 (G00 Z5.000000)
G00 X2640.000000 Y228.474490

M300 S125 (G01 Z0.000000 F100.0(Penetrate)
G01 X2640.000000 Y279.456490 Z0.000000 F200.000000
G01 X2660.000000 Y285.789790 Z0.000000
G01 X2660.000000 Y234.807790 Z0.000000
G01 X2680.000000 Y241.141090 Z0.000000
G01 X2680.000000 Y292.123090 Z0.000000
G01 X2700.000000 Y298.456390 Z0.000000
G01 X2700.000000 Y247.474390 Z0.000000
G01 X2720.000000 Y253.807690 Z0.000000
G01 X2720.000000 Y304.789690 Z0.000000
M300 S145 (G00 Z5.000000)

(End cutting path id: path5962)


(Start cutting path id: path5960)
(Change tool to Cylindrical cutter)

M300 S145 (G00 Z5.000000)
G00 X2644.000000 Y226.908790

M300 S125 (G01 Z0.000000 F100.0(Penetrate)
G01 X2716.000000 Y249.708690 Z0.000000 F200.000000
G01 X2742.666700 Y241.264290 Z0.000000
G01 X2670.666700 Y218.464390 Z0.000000
G01 X2697.333300 Y210.019970 Z0.000000
G01 X2769.333300 Y232.819890 Z0.000000
G01 X2796.000000 Y224.375490 Z0.000000
G01 X2724.000000 Y201.575560 Z0.000000
M300 S145 (G00 Z5.000000)

(End cutting path id: path5960)


(Start cutting path id: path6014)
(Change tool to Cylindrical cutter)

M300 S145 (G00 Z5.000000)
G00 X2720.000000 Y146.494480

M300 S125 (G01 Z0.000000 F100.0(Penetrate)
G01 X2720.000000 Y197.476570 Z0.000000 F200.000000
G01 X2740.000000 Y203.809870 Z0.000000
G01 X2740.000000 Y152.827780 Z0.000000
G01 X2760.000000 Y159.161080 Z0.000000
G01 X2760.000000 Y210.143170 Z0.000000
G01 X2780.000000 Y216.476490 Z0.000000
G01 X2780.000000 Y165.494380 Z0.000000
G01 X2800.000000 Y171.827680 Z0.000000
G01 X2800.000000 Y222.809790 Z0.000000
M300 S145 (G00 Z5.000000)

(End cutting path id: path6014)


(Start cutting path id: path6012)
(Change tool to Cylindrical cutter)

M300 S145 (G00 Z5.000000)
G00 X2724.000000 Y144.928800

M300 S125 (G01 Z0.000000 F100.0(Penetrate)
G01 X2796.000000 Y167.728680 Z0.000000 F200.000000
G01 X2822.666700 Y159.284290 Z0.000000
G01 X2750.666700 Y136.484410 Z0.000000
G01 X2777.333300 Y128.040010 Z0.000000
G01 X2849.333300 Y150.839890 Z0.000000
G01 X2876.000000 Y142.395480 Z0.000000
G01 X2804.000000 Y119.595600 Z0.000000
M300 S145 (G00 Z5.000000)

(End cutting path id: path6012)


(Start cutting path id: path6066)
(Change tool to Cylindrical cutter)

M300 S145 (G00 Z5.000000)
G00 X2800.000000 Y64.514530

M300 S125 (G01 Z0.000000 F100.0(Penetrate)
G01 X2800.000000 Y115.496610 Z0.000000 F200.000000
G01 X2820.000000 Y121.829910 Z0.000000
G01 X2820.000000 Y70.847830 Z0.000000
G01 X2840.000000 Y77.181130 Z0.000000
G01 X2840.000000 Y128.163210 Z0.000000
G01 X2860.000000 Y134.496510 Z0.000000
G01 X2860.000000 Y83.514430 Z0.000000
G01 X2880.000000 Y89.847730 Z0.000000
G01 X2880.000000 Y140.829810 Z0.000000
M300 S145 (G00 Z5.000000)

(End cutting path id: path6066)


(Start cutting path id: path6064)
(Change tool to Cylindrical cutter)

M300 S145 (G00 Z5.000000)
G00 X2804.000000 Y62.948850

M300 S125 (G01 Z0.000000 F100.0(Penetrate)
G01 X2876.000000 Y85.748730 Z0.000000 F200.000000
G01 X2902.666700 Y77.304330 Z0.000000
G01 X2830.666700 Y54.504450 Z0.000000
G01 X2857.333300 Y46.060050 Z0.000000
G01 X2929.333300 Y68.859930 Z0.000000
G01 X2956.000000 Y60.415530 Z0.000000
G01 X2884.000000 Y37.615650 Z0.000000
M300 S145 (G00 Z5.000000)

(End cutting path id: path6064)


(Start cutting path id: path6118)
(Change tool to Cylindrical cutter)

M300 S145 (G00 Z5.000000)
G00 X2880.000000 Y-17.465430

M300 S125 (G01 Z0.000000 F100.0(Penetrate)
G01 X2880.000000 Y33.516650 Z0.000000 F200.000000
G01 X2900.000000 Y39.849950 Z0.000000
G01 X2900.000000 Y-11.132130 Z0.000000
G01 X2920.000000 Y-4.798830 Z0.000000
G01 X2920.000000 Y46.183250 Z0.000000
G01 X2940.000000 Y52.516550 Z0.000000
G01 X2940.000000 Y1.534470 Z0.000000
G01 X2960.000000 Y7.867770 Z0.000000
G01 X2960.000000 Y58.849850 Z0.000000
M300 S145 (G00 Z5.000000)

(End cutting path id: path6118)


(Start cutting path id: path6116)
(Change tool to Cylindrical cutter)

M300 S145 (G00 Z5.000000)
G00 X2884.000000 Y-19.031110

M300 S125 (G01 Z0.000000 F100.0(Penetrate)
G01 X2956.000000 Y3.768770 Z0.000000 F200.000000
G01 X2982.666700 Y-4.675630 Z0.000000
G01 X2910.666700 Y-27.475510 Z0.000000
G01 X2937.333300 Y-35.919910 Z0.000000
G01 X3009.333300 Y-13.120030 Z0.000000
G01 X3036.000000 Y-21.564430 Z0.000000
G01 X2964.000000 Y-44.364310 Z0.000000
M300 S145 (G00 Z5.000000)

(End cutting path id: path6116)


(Start cutting path id: path6170)
(Change tool to Cylindrical cutter)

M300 S145 (G00 Z5.000000)
G00 X2960.000000 Y-99.445390

M300 S125 (G01 Z0.000000 F100.0(Penetrate)
G01 X2960.000000 Y-48.463310 Z0.000000 F200.000000
G01 X2980.000000 Y-42.130010 Z0.000000
G01 X2980.000000 Y-93.112090 Z0.000000
G01 X3000.000000 Y-86.778790 Z0.000000
G01 X3000.000000 Y-35.796710 Z0.000000
G01 X3020.000000 Y-29.463410 Z0.000000
G01 X3020.000000 Y-80.445490 Z0.000000
G01 X3040.000000 Y-74.112190 Z0.000000
G01 X3040.000000 Y-23.130110 Z0.000000
M300 S145 (G00 Z5.000000)

(End cutting path id: path6170)


(Start cutting path id: path6168)
(Change tool to Cylindrical cutter)

M300 S145 (G00 Z5.000000)
G00 X2964.000000 Y-101.011060

M300 S125 (G01 Z0.000000 F100.0(Penetrate)
G01 X3036.000000 Y-78.211180 Z0.000000 F200.000000
G01 X3062.666700 Y-86.655590 Z0.000000
G01 X2990.666700 Y-109.455470 Z0.000000
G01 X3017.333300 Y-117.899870 Z0.000000
G01 X3089.333300 Y-95.099990 Z0.000000
G01 X3116.000000 Y-103.544380 Z0.000000
G01 X3044.000000 Y-126.344260 Z0.000000
M300 S145 (G00 Z5.000000)

(End cutting path id: path6168)


(Start cutting path id: path6222)
(Change tool to Cylindrical cutter)

M300 S145 (G00 Z5.000000)
G00 X3040.000000 Y-181.425350

M300 S125 (G01 Z0.000000 F100.0(Penetrate)
G01 X3040.000000 Y-130.443260 Z0.000000 F200.000000
G01 X3060.000000 Y-124.109960 Z0.000000
G01 X3060.000000 Y-175.092050 Z0.000000
G01 X3080.000000 Y-168.758750 Z0.000000
G01 X3080.000000 Y-117.776660 Z0.000000
G01 X3100.000000 Y-111.443360 Z0.000000
G01 X3100.000000 Y-162.425450 Z0.000000
G01 X3120.000000 Y-156.092150 Z0.000000
G01 X3120.000000 Y-105.110060 Z0.000000
M300 S145 (G00 Z5.000000)

(End cutting path id: path6222)


(Start cutting path id: path6220)
(Change tool to Cylindrical cutter)

M300 S145 (G00 Z5.000000)
G00 X3044.000000 Y-182.991020

M300 S125 (G01 Z0.000000 F100.0(Penetrate)
G01 X3116.000000 Y-160.191140 Z0.000000 F200.000000
G01 X3142.666700 Y-168.635550 Z0.000000
G01 X3070.666700 Y-191.435430 Z0.000000
G01 X3097.333300 Y-199.879820 Z0.000000
G01 X3169.333300 Y-177.079940 Z0.000000
G01 X3196.000000 Y-185.524340 Z0.000000
G01 X3124.000000 Y-208.324200 Z0.000000
M300 S145 (G00 Z5.000000)

(End cutting path id: path6220)


(Start cutting path id: path6274)
(Change tool to Cylindrical cutter)

M300 S145 (G00 Z5.000000)
G00 X3120.000000 Y-263.405300

M300 S125 (G01 Z0.000000 F100.0(Penetrate)
G01 X3120.000000 Y-212.423200 Z0.000000 F200.000000
G01 X3140.000000 Y-206.089900 Z0.000000
G01 X3140.000000 Y-257.072000 Z0.000000
G01 X3160.000000 Y-250.738700 Z0.000000
G01 X3160.000000 Y-199.756620 Z0.000000
G01 X3180.000000 Y-193.423320 Z0.000000
G01 X3180.000000 Y-244.405400 Z0.000000
G01 X3200.000000 Y-238.072100 Z0.000000
G01 X3200.000000 Y-187.090020 Z0.000000
M300 S145 (G00 Z5.000000)

(End cutting path id: path6274)


(Start cutting path id: path6272)
(Change tool to Cylindrical cutter)

M300 S145 (G00 Z5.000000)
G00 X3124.000000 Y-264.971000

M300 S125 (G01 Z0.000000 F100.0(Penetrate)
G01 X3196.000000 Y-242.171100 Z0.000000 F200.000000
G01 X3222.666700 Y-250.615500 Z0.000000
G01 X3150.666700 Y-273.415400 Z0.000000
G01 X3177.333300 Y-281.859800 Z0.000000
G01 X3249.333300 Y-259.059900 Z0.000000
G01 X3276.000000 Y-267.504300 Z0.000000
G01 X3204.000000 Y-290.304200 Z0.000000
M300 S145 (G00 Z5.000000)

(End cutting path id: path6272)


(Start cutting path id: path6270)
(Change tool to Cylindrical cutter)

M300 S145 (G00 Z5.000000)
G00 X3196.000000 Y-346.950900

M300 S125 (G01 Z0.000000 F100.0(Penetrate)
G01 X3124.000000 Y-324.151100 Z0.000000 F200.000000
G01 X3124.000000 Y-312.821700 Z0.000000
G01 X3196.000000 Y-335.621600 Z0.000000
G01 X3196.000000 Y-324.292200 Z0.000000
G01 X3124.000000 Y-301.492400 Z0.000000
G01 X3124.000000 Y-290.163000 Z0.000000
G01 X3196.000000 Y-312.962900 Z0.000000
G01 X3196.000000 Y-301.633500 Z0.000000
G01 X3124.000000 Y-278.833700 Z0.000000
G01 X3124.000000 Y-267.504300 Z0.000000
G01 X3196.000000 Y-290.304200 Z0.000000
M300 S145 (G00 Z5.000000)

(End cutting path id: path6270)


(Start cutting path id: path6218)
(Change tool to Cylindrical cutter)

M300 S145 (G00 Z5.000000)
G00 X3116.000000 Y-264.971000

M300 S125 (G01 Z0.000000 F100.0(Penetrate)
G01 X3044.000000 Y-242.171100 Z0.000000 F200.000000
G01 X3044.000000 Y-230.841800 Z0.000000
G01 X3116.000000 Y-253.641600 Z0.000000
G01 X3116.000000 Y-242.312300 Z0.000000
G01 X3044.000000 Y-219.512400 Z0.000000
G01 X3044.000000 Y-208.183100 Z0.000000
G01 X3116.000000 Y-230.982900 Z0.000000
G01 X3116.000000 Y-219.653600 Z0.000000
G01 X3044.000000 Y-196.853700 Z0.000000
G01 X3044.000000 Y-185.524340 Z0.000000
G01 X3116.000000 Y-208.324200 Z0.000000
M300 S145 (G00 Z5.000000)

(End cutting path id: path6218)


(Start cutting path id: path6166)
(Change tool to Cylindrical cutter)

M300 S145 (G00 Z5.000000)
G00 X3036.000000 Y-182.991020

M300 S125 (G01 Z0.000000 F100.0(Penetrate)
G01 X2964.000000 Y-160.191140 Z0.000000 F200.000000
G01 X2964.000000 Y-148.861790 Z0.000000
G01 X3036.000000 Y-171.661670 Z0.000000
G01 X3036.000000 Y-160.332320 Z0.000000
G01 X2964.000000 Y-137.532440 Z0.000000
G01 X2964.000000 Y-126.203090 Z0.000000
G01 X3036.000000 Y-149.002970 Z0.000000
G01 X3036.000000 Y-137.673620 Z0.000000
G01 X2964.000000 Y-114.873740 Z0.000000
G01 X2964.000000 Y-103.544380 Z0.000000
G01 X3036.000000 Y-126.344260 Z0.000000
M300 S145 (G00 Z5.000000)

(End cutting path id: path6166)


(Start cutting path id: path6114)
(Change tool to Cylindrical cutter)

M300 S145 (G00 Z5.000000)
G00 X2956.000000 Y-101.011060

M300 S125 (G01 Z0.000000 F100.0(Penetrate)
G01 X2884.000000 Y-78.211180 Z0.000000 F200.000000
G01 X2884.000000 Y-66.881830 Z0.000000
G01 X2956.000000 Y-89.681710 Z0.000000
G01 X2956.000000 Y-78.352360 Z0.000000
G01 X2884.000000 Y-55.552480 Z0.000000
G01 X2884.000000 Y-44.223130 Z0.000000
G01 X2956.000000 Y-67.023010 Z0.000000
G01 X2956.000000 Y-55.693660 Z0.000000
G01 X2884.000000 Y-32.893780 Z0.000000
G01 X2884.000000 Y-21.564430 Z0.000000
G01 X2956.000000 Y-44.364310 Z0.000000
M300 S145 (G00 Z5.000000)

(End cutting path id: path6114)


(Start cutting path id: path6062)
(Change tool to Cylindrical cutter)

M300 S145 (G00 Z5.000000)
G00 X2876.000000 Y-19.031110

M300 S125 (G01 Z0.000000 F100.0(Penetrate)
G01 X2804.000000 Y3.768770 Z0.000000 F200.000000
G01 X2804.000000 Y15.098120 Z0.000000
G01 X2876.000000 Y-7.701760 Z0.000000
G01 X2876.000000 Y3.627590 Z0.000000
G01 X2804.000000 Y26.427470 Z0.000000
G01 X2804.000000 Y37.756830 Z0.000000
G01 X2876.000000 Y14.956950 Z0.000000
G01 X2876.000000 Y26.286300 Z0.000000
G01 X2804.000000 Y49.086180 Z0.000000
G01 X2804.000000 Y60.415530 Z0.000000
G01 X2876.000000 Y37.615650 Z0.000000
M300 S145 (G00 Z5.000000)

(End cutting path id: path6062)


(Start cutting path id: path6010)
(Change tool to Cylindrical cutter)

M300 S145 (G00 Z5.000000)
G00 X2796.000000 Y62.948850

M300 S125 (G01 Z0.000000 F100.0(Penetrate)
G01 X2724.000000 Y85.748730 Z0.000000 F200.000000
G01 X2724.000000 Y97.078080 Z0.000000
G01 X2796.000000 Y74.278200 Z0.000000
G01 X2796.000000 Y85.607550 Z0.000000
G01 X2724.000000 Y108.407430 Z0.000000
G01 X2724.000000 Y119.736790 Z0.000000
G01 X2796.000000 Y96.936910 Z0.000000
G01 X2796.000000 Y108.266260 Z0.000000
G01 X2724.000000 Y131.066140 Z0.000000
G01 X2724.000000 Y142.395480 Z0.000000
G01 X2796.000000 Y119.595600 Z0.000000
M300 S145 (G00 Z5.000000)

(End cutting path id: path6010)


(Start cutting path id: path5958)
(Change tool to Cylindrical cutter)

M300 S145 (G00 Z5.000000)
G00 X2716.000000 Y144.928800

M300 S125 (G01 Z0.000000 F100.0(Penetrate)
G01 X2644.000000 Y167.728680 Z0.000000 F200.000000
G01 X2644.000000 Y179.058040 Z0.000000
G01 X2716.000000 Y156.258160 Z0.000000
G01 X2716.000000 Y167.587510 Z0.000000
G01 X2644.000000 Y190.387390 Z0.000000
G01 X2644.000000 Y201.716740 Z0.000000
G01 X2716.000000 Y178.916860 Z0.000000
G01 X2716.000000 Y190.246210 Z0.000000
G01 X2644.000000 Y213.046090 Z0.000000
G01 X2644.000000 Y224.375390 Z0.000000
G01 X2716.000000 Y201.575560 Z0.000000
M300 S145 (G00 Z5.000000)

(End cutting path id: path5958)


(Start cutting path id: path5906)
(Change tool to Cylindrical cutter)

M300 S145 (G00 Z5.000000)
G00 X2636.000000 Y226.908790

M300 S125 (G01 Z0.000000 F100.0(Penetrate)
G01 X2564.000000 Y249.708690 Z0.000000 F200.000000
G01 X2564.000000 Y261.037990 Z0.000000
G01 X2636.000000 Y238.238090 Z0.000000
G01 X2636.000000 Y249.567490 Z0.000000
G01 X2564.000000 Y272.367390 Z0.000000
G01 X2564.000000 Y283.696690 Z0.000000
G01 X2636.000000 Y260.896790 Z0.000000
G01 X2636.000000 Y272.226190 Z0.000000
G01 X2564.000000 Y295.026090 Z0.000000
G01 X2564.000000 Y306.355390 Z0.000000
G01 X2636.000000 Y283.555490 Z0.000000
M300 S145 (G00 Z5.000000)

(End cutting path id: path5906)


(Start cutting path id: path5910)
(Change tool to Cylindrical cutter)

M300 S145 (G00 Z5.000000)
G00 X2560.000000 Y310.454390

M300 S125 (G01 Z0.000000 F100.0(Penetrate)
G01 X2560.000000 Y361.436490 Z0.000000 F200.000000
G01 X2580.000000 Y367.769790 Z0.000000
G01 X2580.000000 Y316.787690 Z0.000000
G01 X2600.000000 Y323.120990 Z0.000000
G01 X2600.000000 Y374.103090 Z0.000000
G01 X2620.000000 Y380.436390 Z0.000000
G01 X2620.000000 Y329.454290 Z0.000000
G01 X2640.000000 Y335.787590 Z0.000000
G01 X2640.000000 Y386.769690 Z0.000000
M300 S145 (G00 Z5.000000)

(End cutting path id: path5910)


(Start cutting path id: path5854)
(Change tool to Cylindrical cutter)

M300 S145 (G00 Z5.000000)
G00 X2556.000000 Y308.888790

M300 S125 (G01 Z0.000000 F100.0(Penetrate)
G01 X2484.000000 Y331.688590 Z0.000000 F200.000000
G01 X2484.000000 Y343.017990 Z0.000000
G01 X2556.000000 Y320.218090 Z0.000000
G01 X2556.000000 Y331.547390 Z0.000000
G01 X2484.000000 Y354.347290 Z0.000000
G01 X2484.000000 Y365.676690 Z0.000000
G01 X2556.000000 Y342.876790 Z0.000000
G01 X2556.000000 Y354.206090 Z0.000000
G01 X2484.000000 Y377.005990 Z0.000000
G01 X2484.000000 Y388.335390 Z0.000000
G01 X2556.000000 Y365.535490 Z0.000000
M300 S145 (G00 Z5.000000)

(End cutting path id: path5854)


(Start cutting path id: path5856)
(Change tool to Cylindrical cutter)

M300 S145 (G00 Z5.000000)
G00 X2400.000000 Y364.268890

M300 S125 (G01 Z0.000000 F100.0(Penetrate)
G01 X2480.000000 Y389.602090 Z0.000000 F200.000000
M300 S145 (G00 Z5.000000)

(End cutting path id: path5856)


(Start cutting path id: path5850)
(Change tool to Cylindrical cutter)

M300 S145 (G00 Z5.000000)
G00 X2404.000000 Y308.888790

M300 S125 (G01 Z0.000000 F100.0(Penetrate)
G01 X2476.000000 Y331.688590 Z0.000000 F200.000000
G01 X2502.666700 Y323.244190 Z0.000000
G01 X2430.666700 Y300.444290 Z0.000000
G01 X2457.333300 Y291.999890 Z0.000000
G01 X2529.333300 Y314.799790 Z0.000000
G01 X2556.000000 Y306.355390 Z0.000000
G01 X2484.000000 Y283.555490 Z0.000000
M300 S145 (G00 Z5.000000)

(End cutting path id: path5850)


(Start cutting path id: path5904)
(Change tool to Cylindrical cutter)

M300 S145 (G00 Z5.000000)
G00 X2480.000000 Y228.474490

M300 S125 (G01 Z0.000000 F100.0(Penetrate)
G01 X2480.000000 Y279.456490 Z0.000000 F200.000000
G01 X2500.000000 Y285.789790 Z0.000000
G01 X2500.000000 Y234.807790 Z0.000000
G01 X2520.000000 Y241.141090 Z0.000000
G01 X2520.000000 Y292.123090 Z0.000000
G01 X2540.000000 Y298.456390 Z0.000000
G01 X2540.000000 Y247.474390 Z0.000000
G01 X2560.000000 Y253.807690 Z0.000000
G01 X2560.000000 Y304.789690 Z0.000000
M300 S145 (G00 Z5.000000)

(End cutting path id: path5904)


(Start cutting path id: path5902)
(Change tool to Cylindrical cutter)

M300 S145 (G00 Z5.000000)
G00 X2484.000000 Y226.908790

M300 S125 (G01 Z0.000000 F100.0(Penetrate)
G01 X2556.000000 Y249.708690 Z0.000000 F200.000000
G01 X2582.666700 Y241.264290 Z0.000000
G01 X2510.666700 Y218.464390 Z0.000000
G01 X2537.333300 Y210.019970 Z0.000000
G01 X2609.333300 Y232.819890 Z0.000000
G01 X2636.000000 Y224.375490 Z0.000000
G01 X2564.000000 Y201.575560 Z0.000000
M300 S145 (G00 Z5.000000)

(End cutting path id: path5902)


(Start cutting path id: path5956)
(Change tool to Cylindrical cutter)

M300 S145 (G00 Z5.000000)
G00 X2560.000000 Y146.494480

M300 S125 (G01 Z0.000000 F100.0(Penetrate)
G01 X2560.000000 Y197.476570 Z0.000000 F200.000000
G01 X2580.000000 Y203.809870 Z0.000000
G01 X2580.000000 Y152.827780 Z0.000000
G01 X2600.000000 Y159.161080 Z0.000000
G01 X2600.000000 Y210.143170 Z0.000000
G01 X2620.000000 Y216.476490 Z0.000000
G01 X2620.000000 Y165.494380 Z0.000000
G01 X2640.000000 Y171.827680 Z0.000000
G01 X2640.000000 Y222.809790 Z0.000000
M300 S145 (G00 Z5.000000)

(End cutting path id: path5956)


(Start cutting path id: path5954)
(Change tool to Cylindrical cutter)

M300 S145 (G00 Z5.000000)
G00 X2564.000000 Y144.928800

M300 S125 (G01 Z0.000000 F100.0(Penetrate)
G01 X2636.000000 Y167.728680 Z0.000000 F200.000000
G01 X2662.666700 Y159.284290 Z0.000000
G01 X2590.666700 Y136.484410 Z0.000000
G01 X2617.333300 Y128.040010 Z0.000000
G01 X2689.333300 Y150.839890 Z0.000000
G01 X2716.000000 Y142.395480 Z0.000000
G01 X2644.000000 Y119.595600 Z0.000000
M300 S145 (G00 Z5.000000)

(End cutting path id: path5954)


(Start cutting path id: path6008)
(Change tool to Cylindrical cutter)

M300 S145 (G00 Z5.000000)
G00 X2640.000000 Y64.514530

M300 S125 (G01 Z0.000000 F100.0(Penetrate)
G01 X2640.000000 Y115.496610 Z0.000000 F200.000000
G01 X2660.000000 Y121.829910 Z0.000000
G01 X2660.000000 Y70.847830 Z0.000000
G01 X2680.000000 Y77.181130 Z0.000000
G01 X2680.000000 Y128.163210 Z0.000000
G01 X2700.000000 Y134.496510 Z0.000000
G01 X2700.000000 Y83.514430 Z0.000000
G01 X2720.000000 Y89.847730 Z0.000000
G01 X2720.000000 Y140.829810 Z0.000000
M300 S145 (G00 Z5.000000)

(End cutting path id: path6008)


(Start cutting path id: path6006)
(Change tool to Cylindrical cutter)

M300 S145 (G00 Z5.000000)
G00 X2644.000000 Y62.948850

M300 S125 (G01 Z0.000000 F100.0(Penetrate)
G01 X2716.000000 Y85.748730 Z0.000000 F200.000000
G01 X2742.666700 Y77.304330 Z0.000000
G01 X2670.666700 Y54.504450 Z0.000000
G01 X2697.333300 Y46.060050 Z0.000000
G01 X2769.333300 Y68.859930 Z0.000000
G01 X2796.000000 Y60.415530 Z0.000000
G01 X2724.000000 Y37.615650 Z0.000000
M300 S145 (G00 Z5.000000)

(End cutting path id: path6006)


(Start cutting path id: path6060)
(Change tool to Cylindrical cutter)

M300 S145 (G00 Z5.000000)
G00 X2720.000000 Y-17.465430

M300 S125 (G01 Z0.000000 F100.0(Penetrate)
G01 X2720.000000 Y33.516650 Z0.000000 F200.000000
G01 X2740.000000 Y39.849950 Z0.000000
G01 X2740.000000 Y-11.132130 Z0.000000
G01 X2760.000000 Y-4.798830 Z0.000000
G01 X2760.000000 Y46.183250 Z0.000000
G01 X2780.000000 Y52.516550 Z0.000000
G01 X2780.000000 Y1.534470 Z0.000000
G01 X2800.000000 Y7.867770 Z0.000000
G01 X2800.000000 Y58.849850 Z0.000000
M300 S145 (G00 Z5.000000)

(End cutting path id: path6060)


(Start cutting path id: path6058)
(Change tool to Cylindrical cutter)

M300 S145 (G00 Z5.000000)
G00 X2724.000000 Y-19.031110

M300 S125 (G01 Z0.000000 F100.0(Penetrate)
G01 X2796.000000 Y3.768770 Z0.000000 F200.000000
G01 X2822.666700 Y-4.675630 Z0.000000
G01 X2750.666700 Y-27.475510 Z0.000000
G01 X2777.333300 Y-35.919910 Z0.000000
G01 X2849.333300 Y-13.120030 Z0.000000
G01 X2876.000000 Y-21.564430 Z0.000000
G01 X2804.000000 Y-44.364310 Z0.000000
M300 S145 (G00 Z5.000000)

(End cutting path id: path6058)


(Start cutting path id: path6112)
(Change tool to Cylindrical cutter)

M300 S145 (G00 Z5.000000)
G00 X2800.000000 Y-99.445390

M300 S125 (G01 Z0.000000 F100.0(Penetrate)
G01 X2800.000000 Y-48.463310 Z0.000000 F200.000000
G01 X2820.000000 Y-42.130010 Z0.000000
G01 X2820.000000 Y-93.112090 Z0.000000
G01 X2840.000000 Y-86.778790 Z0.000000
G01 X2840.000000 Y-35.796710 Z0.000000
G01 X2860.000000 Y-29.463410 Z0.000000
G01 X2860.000000 Y-80.445490 Z0.000000
G01 X2880.000000 Y-74.112190 Z0.000000
G01 X2880.000000 Y-23.130110 Z0.000000
M300 S145 (G00 Z5.000000)

(End cutting path id: path6112)


(Start cutting path id: path6110)
(Change tool to Cylindrical cutter)

M300 S145 (G00 Z5.000000)
G00 X2804.000000 Y-101.011060

M300 S125 (G01 Z0.000000 F100.0(Penetrate)
G01 X2876.000000 Y-78.211180 Z0.000000 F200.000000
G01 X2902.666700 Y-86.655590 Z0.000000
G01 X2830.666700 Y-109.455470 Z0.000000
G01 X2857.333300 Y-117.899870 Z0.000000
G01 X2929.333300 Y-95.099990 Z0.000000
G01 X2956.000000 Y-103.544380 Z0.000000
G01 X2884.000000 Y-126.344260 Z0.000000
M300 S145 (G00 Z5.000000)

(End cutting path id: path6110)


(Start cutting path id: path6164)
(Change tool to Cylindrical cutter)

M300 S145 (G00 Z5.000000)
G00 X2880.000000 Y-181.425350

M300 S125 (G01 Z0.000000 F100.0(Penetrate)
G01 X2880.000000 Y-130.443260 Z0.000000 F200.000000
G01 X2900.000000 Y-124.109960 Z0.000000
G01 X2900.000000 Y-175.092050 Z0.000000
G01 X2920.000000 Y-168.758750 Z0.000000
G01 X2920.000000 Y-117.776660 Z0.000000
G01 X2940.000000 Y-111.443360 Z0.000000
G01 X2940.000000 Y-162.425450 Z0.000000
G01 X2960.000000 Y-156.092150 Z0.000000
G01 X2960.000000 Y-105.110060 Z0.000000
M300 S145 (G00 Z5.000000)

(End cutting path id: path6164)


(Start cutting path id: path6162)
(Change tool to Cylindrical cutter)

M300 S145 (G00 Z5.000000)
G00 X2884.000000 Y-182.991020

M300 S125 (G01 Z0.000000 F100.0(Penetrate)
G01 X2956.000000 Y-160.191140 Z0.000000 F200.000000
G01 X2982.666700 Y-168.635550 Z0.000000
G01 X2910.666700 Y-191.435430 Z0.000000
G01 X2937.333300 Y-199.879820 Z0.000000
G01 X3009.333300 Y-177.079940 Z0.000000
G01 X3036.000000 Y-185.524340 Z0.000000
G01 X2964.000000 Y-208.324200 Z0.000000
M300 S145 (G00 Z5.000000)

(End cutting path id: path6162)


(Start cutting path id: path6216)
(Change tool to Cylindrical cutter)

M300 S145 (G00 Z5.000000)
G00 X2960.000000 Y-263.405300

M300 S125 (G01 Z0.000000 F100.0(Penetrate)
G01 X2960.000000 Y-212.423200 Z0.000000 F200.000000
G01 X2980.000000 Y-206.089900 Z0.000000
G01 X2980.000000 Y-257.072000 Z0.000000
G01 X3000.000000 Y-250.738700 Z0.000000
G01 X3000.000000 Y-199.756620 Z0.000000
G01 X3020.000000 Y-193.423320 Z0.000000
G01 X3020.000000 Y-244.405400 Z0.000000
G01 X3040.000000 Y-238.072100 Z0.000000
G01 X3040.000000 Y-187.090020 Z0.000000
M300 S145 (G00 Z5.000000)

(End cutting path id: path6216)


(Start cutting path id: path6214)
(Change tool to Cylindrical cutter)

M300 S145 (G00 Z5.000000)
G00 X2964.000000 Y-264.971000

M300 S125 (G01 Z0.000000 F100.0(Penetrate)
G01 X3036.000000 Y-242.171100 Z0.000000 F200.000000
G01 X3062.666700 Y-250.615500 Z0.000000
G01 X2990.666700 Y-273.415400 Z0.000000
G01 X3017.333300 Y-281.859800 Z0.000000
G01 X3089.333300 Y-259.059900 Z0.000000
G01 X3116.000000 Y-267.504300 Z0.000000
G01 X3044.000000 Y-290.304200 Z0.000000
M300 S145 (G00 Z5.000000)

(End cutting path id: path6214)


(Start cutting path id: path6268)
(Change tool to Cylindrical cutter)

M300 S145 (G00 Z5.000000)
G00 X3040.000000 Y-345.385300

M300 S125 (G01 Z0.000000 F100.0(Penetrate)
G01 X3040.000000 Y-294.403200 Z0.000000 F200.000000
G01 X3060.000000 Y-288.069900 Z0.000000
G01 X3060.000000 Y-339.052000 Z0.000000
G01 X3080.000000 Y-332.718700 Z0.000000
G01 X3080.000000 Y-281.736600 Z0.000000
G01 X3100.000000 Y-275.403300 Z0.000000
G01 X3100.000000 Y-326.385400 Z0.000000
G01 X3120.000000 Y-320.052100 Z0.000000
G01 X3120.000000 Y-269.070000 Z0.000000
M300 S145 (G00 Z5.000000)

(End cutting path id: path6268)


(Start cutting path id: path6266)
(Change tool to Cylindrical cutter)

M300 S145 (G00 Z5.000000)
G00 X3044.000000 Y-346.950900

M300 S125 (G01 Z0.000000 F100.0(Penetrate)
G01 X3116.000000 Y-324.151100 Z0.000000 F200.000000
G01 X3142.666700 Y-332.595500 Z0.000000
G01 X3070.666700 Y-355.395300 Z0.000000
G01 X3097.333300 Y-363.839700 Z0.000000
G01 X3169.333300 Y-341.039900 Z0.000000
G01 X3196.000000 Y-349.484300 Z0.000000
G01 X3124.000000 Y-372.284100 Z0.000000
M300 S145 (G00 Z5.000000)

(End cutting path id: path6266)


(Start cutting path id: path6264)
(Change tool to Cylindrical cutter)

M300 S145 (G00 Z5.000000)
G00 X3040.000000 Y-348.217600

M300 S125 (G01 Z0.000000 F100.0(Penetrate)
G01 X3120.000000 Y-373.550800 Z0.000000 F200.000000
M300 S145 (G00 Z5.000000)

(End cutting path id: path6264)


(Start cutting path id: path6212)
(Change tool to Cylindrical cutter)

M300 S145 (G00 Z5.000000)
G00 X3036.000000 Y-346.950900

M300 S125 (G01 Z0.000000 F100.0(Penetrate)
G01 X2964.000000 Y-324.151100 Z0.000000 F200.000000
G01 X2964.000000 Y-312.821700 Z0.000000
G01 X3036.000000 Y-335.621600 Z0.000000
G01 X3036.000000 Y-324.292200 Z0.000000
G01 X2964.000000 Y-301.492400 Z0.000000
G01 X2964.000000 Y-290.163000 Z0.000000
G01 X3036.000000 Y-312.962900 Z0.000000
G01 X3036.000000 Y-301.633500 Z0.000000
G01 X2964.000000 Y-278.833700 Z0.000000
G01 X2964.000000 Y-267.504300 Z0.000000
G01 X3036.000000 Y-290.304200 Z0.000000
M300 S145 (G00 Z5.000000)

(End cutting path id: path6212)


(Start cutting path id: path6160)
(Change tool to Cylindrical cutter)

M300 S145 (G00 Z5.000000)
G00 X2956.000000 Y-264.971000

M300 S125 (G01 Z0.000000 F100.0(Penetrate)
G01 X2884.000000 Y-242.171100 Z0.000000 F200.000000
G01 X2884.000000 Y-230.841800 Z0.000000
G01 X2956.000000 Y-253.641600 Z0.000000
G01 X2956.000000 Y-242.312300 Z0.000000
G01 X2884.000000 Y-219.512400 Z0.000000
G01 X2884.000000 Y-208.183100 Z0.000000
G01 X2956.000000 Y-230.982900 Z0.000000
G01 X2956.000000 Y-219.653600 Z0.000000
G01 X2884.000000 Y-196.853700 Z0.000000
G01 X2884.000000 Y-185.524340 Z0.000000
G01 X2956.000000 Y-208.324200 Z0.000000
M300 S145 (G00 Z5.000000)

(End cutting path id: path6160)


(Start cutting path id: path6108)
(Change tool to Cylindrical cutter)

M300 S145 (G00 Z5.000000)
G00 X2876.000000 Y-182.991020

M300 S125 (G01 Z0.000000 F100.0(Penetrate)
G01 X2804.000000 Y-160.191140 Z0.000000 F200.000000
G01 X2804.000000 Y-148.861790 Z0.000000
G01 X2876.000000 Y-171.661670 Z0.000000
G01 X2876.000000 Y-160.332320 Z0.000000
G01 X2804.000000 Y-137.532440 Z0.000000
G01 X2804.000000 Y-126.203090 Z0.000000
G01 X2876.000000 Y-149.002970 Z0.000000
G01 X2876.000000 Y-137.673620 Z0.000000
G01 X2804.000000 Y-114.873740 Z0.000000
G01 X2804.000000 Y-103.544380 Z0.000000
G01 X2876.000000 Y-126.344260 Z0.000000
M300 S145 (G00 Z5.000000)

(End cutting path id: path6108)


(Start cutting path id: path6056)
(Change tool to Cylindrical cutter)

M300 S145 (G00 Z5.000000)
G00 X2796.000000 Y-101.011060

M300 S125 (G01 Z0.000000 F100.0(Penetrate)
G01 X2724.000000 Y-78.211180 Z0.000000 F200.000000
G01 X2724.000000 Y-66.881830 Z0.000000
G01 X2796.000000 Y-89.681710 Z0.000000
G01 X2796.000000 Y-78.352360 Z0.000000
G01 X2724.000000 Y-55.552480 Z0.000000
G01 X2724.000000 Y-44.223130 Z0.000000
G01 X2796.000000 Y-67.023010 Z0.000000
G01 X2796.000000 Y-55.693660 Z0.000000
G01 X2724.000000 Y-32.893780 Z0.000000
G01 X2724.000000 Y-21.564430 Z0.000000
G01 X2796.000000 Y-44.364310 Z0.000000
M300 S145 (G00 Z5.000000)

(End cutting path id: path6056)


(Start cutting path id: path6004)
(Change tool to Cylindrical cutter)

M300 S145 (G00 Z5.000000)
G00 X2716.000000 Y-19.031110

M300 S125 (G01 Z0.000000 F100.0(Penetrate)
G01 X2644.000000 Y3.768770 Z0.000000 F200.000000
G01 X2644.000000 Y15.098120 Z0.000000
G01 X2716.000000 Y-7.701760 Z0.000000
G01 X2716.000000 Y3.627590 Z0.000000
G01 X2644.000000 Y26.427470 Z0.000000
G01 X2644.000000 Y37.756830 Z0.000000
G01 X2716.000000 Y14.956950 Z0.000000
G01 X2716.000000 Y26.286300 Z0.000000
G01 X2644.000000 Y49.086180 Z0.000000
G01 X2644.000000 Y60.415530 Z0.000000
G01 X2716.000000 Y37.615650 Z0.000000
M300 S145 (G00 Z5.000000)

(End cutting path id: path6004)


(Start cutting path id: path5952)
(Change tool to Cylindrical cutter)

M300 S145 (G00 Z5.000000)
G00 X2636.000000 Y62.948850

M300 S125 (G01 Z0.000000 F100.0(Penetrate)
G01 X2564.000000 Y85.748730 Z0.000000 F200.000000
G01 X2564.000000 Y97.078080 Z0.000000
G01 X2636.000000 Y74.278200 Z0.000000
G01 X2636.000000 Y85.607550 Z0.000000
G01 X2564.000000 Y108.407430 Z0.000000
G01 X2564.000000 Y119.736790 Z0.000000
G01 X2636.000000 Y96.936910 Z0.000000
G01 X2636.000000 Y108.266260 Z0.000000
G01 X2564.000000 Y131.066140 Z0.000000
G01 X2564.000000 Y142.395480 Z0.000000
G01 X2636.000000 Y119.595600 Z0.000000
M300 S145 (G00 Z5.000000)

(End cutting path id: path5952)


(Start cutting path id: path5900)
(Change tool to Cylindrical cutter)

M300 S145 (G00 Z5.000000)
G00 X2556.000000 Y144.928800

M300 S125 (G01 Z0.000000 F100.0(Penetrate)
G01 X2484.000000 Y167.728680 Z0.000000 F200.000000
G01 X2484.000000 Y179.058040 Z0.000000
G01 X2556.000000 Y156.258160 Z0.000000
G01 X2556.000000 Y167.587510 Z0.000000
G01 X2484.000000 Y190.387390 Z0.000000
G01 X2484.000000 Y201.716740 Z0.000000
G01 X2556.000000 Y178.916860 Z0.000000
G01 X2556.000000 Y190.246210 Z0.000000
G01 X2484.000000 Y213.046090 Z0.000000
G01 X2484.000000 Y224.375390 Z0.000000
G01 X2556.000000 Y201.575560 Z0.000000
M300 S145 (G00 Z5.000000)

(End cutting path id: path5900)


(Start cutting path id: path5848)
(Change tool to Cylindrical cutter)

M300 S145 (G00 Z5.000000)
G00 X2476.000000 Y226.908790

M300 S125 (G01 Z0.000000 F100.0(Penetrate)
G01 X2404.000000 Y249.708690 Z0.000000 F200.000000
G01 X2404.000000 Y261.037990 Z0.000000
G01 X2476.000000 Y238.238090 Z0.000000
G01 X2476.000000 Y249.567490 Z0.000000
G01 X2404.000000 Y272.367390 Z0.000000
G01 X2404.000000 Y283.696690 Z0.000000
G01 X2476.000000 Y260.896790 Z0.000000
G01 X2476.000000 Y272.226190 Z0.000000
G01 X2404.000000 Y295.026090 Z0.000000
G01 X2404.000000 Y306.355390 Z0.000000
G01 X2476.000000 Y283.555490 Z0.000000
M300 S145 (G00 Z5.000000)

(End cutting path id: path5848)


(Start cutting path id: path5852)
(Change tool to Cylindrical cutter)

M300 S145 (G00 Z5.000000)
G00 X2400.000000 Y310.454390

M300 S125 (G01 Z0.000000 F100.0(Penetrate)
G01 X2400.000000 Y361.436490 Z0.000000 F200.000000
G01 X2420.000000 Y367.769790 Z0.000000
G01 X2420.000000 Y316.787690 Z0.000000
G01 X2440.000000 Y323.120990 Z0.000000
G01 X2440.000000 Y374.103090 Z0.000000
G01 X2460.000000 Y380.436390 Z0.000000
G01 X2460.000000 Y329.454290 Z0.000000
G01 X2480.000000 Y335.787590 Z0.000000
G01 X2480.000000 Y386.769690 Z0.000000
M300 S145 (G00 Z5.000000)

(End cutting path id: path5852)


(Start cutting path id: path5796)
(Change tool to Cylindrical cutter)

M300 S145 (G00 Z5.000000)
G00 X2396.000000 Y308.888790

M300 S125 (G01 Z0.000000 F100.0(Penetrate)
G01 X2324.000000 Y331.688590 Z0.000000 F200.000000
G01 X2324.000000 Y343.017990 Z0.000000
G01 X2396.000000 Y320.218090 Z0.000000
G01 X2396.000000 Y331.547390 Z0.000000
G01 X2324.000000 Y354.347290 Z0.000000
G01 X2324.000000 Y365.676690 Z0.000000
G01 X2396.000000 Y342.876790 Z0.000000
G01 X2396.000000 Y354.206090 Z0.000000
G01 X2324.000000 Y377.005990 Z0.000000
G01 X2324.000000 Y388.335390 Z0.000000
G01 X2396.000000 Y365.535490 Z0.000000
M300 S145 (G00 Z5.000000)

(End cutting path id: path5796)


(Start cutting path id: path5798)
(Change tool to Cylindrical cutter)

M300 S145 (G00 Z5.000000)
G00 X2240.000000 Y364.268890

M300 S125 (G01 Z0.000000 F100.0(Penetrate)
G01 X2320.000000 Y389.602090 Z0.000000 F200.000000
M300 S145 (G00 Z5.000000)

(End cutting path id: path5798)


(Start cutting path id: path5792)
(Change tool to Cylindrical cutter)

M300 S145 (G00 Z5.000000)
G00 X2244.000000 Y308.888790

M300 S125 (G01 Z0.000000 F100.0(Penetrate)
G01 X2316.000000 Y331.688590 Z0.000000 F200.000000
G01 X2342.666700 Y323.244190 Z0.000000
G01 X2270.666700 Y300.444290 Z0.000000
G01 X2297.333300 Y291.999890 Z0.000000
G01 X2369.333300 Y314.799790 Z0.000000
G01 X2396.000000 Y306.355390 Z0.000000
G01 X2324.000000 Y283.555490 Z0.000000
M300 S145 (G00 Z5.000000)

(End cutting path id: path5792)


(Start cutting path id: path5846)
(Change tool to Cylindrical cutter)

M300 S145 (G00 Z5.000000)
G00 X2320.000000 Y228.474490

M300 S125 (G01 Z0.000000 F100.0(Penetrate)
G01 X2320.000000 Y279.456490 Z0.000000 F200.000000
G01 X2340.000000 Y285.789790 Z0.000000
G01 X2340.000000 Y234.807790 Z0.000000
G01 X2360.000000 Y241.141090 Z0.000000
G01 X2360.000000 Y292.123090 Z0.000000
G01 X2380.000000 Y298.456390 Z0.000000
G01 X2380.000000 Y247.474390 Z0.000000
G01 X2400.000000 Y253.807690 Z0.000000
G01 X2400.000000 Y304.789690 Z0.000000
M300 S145 (G00 Z5.000000)

(End cutting path id: path5846)


(Start cutting path id: path5844)
(Change tool to Cylindrical cutter)

M300 S145 (G00 Z5.000000)
G00 X2324.000000 Y226.908790

M300 S125 (G01 Z0.000000 F100.0(Penetrate)
G01 X2396.000000 Y249.708690 Z0.000000 F200.000000
G01 X2422.666700 Y241.264290 Z0.000000
G01 X2350.666700 Y218.464390 Z0.000000
G01 X2377.333300 Y210.019970 Z0.000000
G01 X2449.333300 Y232.819890 Z0.000000
G01 X2476.000000 Y224.375490 Z0.000000
G01 X2404.000000 Y201.575560 Z0.000000
M300 S145 (G00 Z5.000000)

(End cutting path id: path5844)


(Start cutting path id: path5898)
(Change tool to Cylindrical cutter)

M300 S145 (G00 Z5.000000)
G00 X2400.000000 Y146.494480

M300 S125 (G01 Z0.000000 F100.0(Penetrate)
G01 X2400.000000 Y197.476570 Z0.000000 F200.000000
G01 X2420.000000 Y203.809870 Z0.000000
G01 X2420.000000 Y152.827780 Z0.000000
G01 X2440.000000 Y159.161080 Z0.000000
G01 X2440.000000 Y210.143170 Z0.000000
G01 X2460.000000 Y216.476490 Z0.000000
G01 X2460.000000 Y165.494380 Z0.000000
G01 X2480.000000 Y171.827680 Z0.000000
G01 X2480.000000 Y222.809790 Z0.000000
M300 S145 (G00 Z5.000000)

(End cutting path id: path5898)


(Start cutting path id: path5896)
(Change tool to Cylindrical cutter)

M300 S145 (G00 Z5.000000)
G00 X2404.000000 Y144.928800

M300 S125 (G01 Z0.000000 F100.0(Penetrate)
G01 X2476.000000 Y167.728680 Z0.000000 F200.000000
G01 X2502.666700 Y159.284290 Z0.000000
G01 X2430.666700 Y136.484410 Z0.000000
G01 X2457.333300 Y128.040010 Z0.000000
G01 X2529.333300 Y150.839890 Z0.000000
G01 X2556.000000 Y142.395480 Z0.000000
G01 X2484.000000 Y119.595600 Z0.000000
M300 S145 (G00 Z5.000000)

(End cutting path id: path5896)


(Start cutting path id: path5950)
(Change tool to Cylindrical cutter)

M300 S145 (G00 Z5.000000)
G00 X2480.000000 Y64.514530

M300 S125 (G01 Z0.000000 F100.0(Penetrate)
G01 X2480.000000 Y115.496610 Z0.000000 F200.000000
G01 X2500.000000 Y121.829910 Z0.000000
G01 X2500.000000 Y70.847830 Z0.000000
G01 X2520.000000 Y77.181130 Z0.000000
G01 X2520.000000 Y128.163210 Z0.000000
G01 X2540.000000 Y134.496510 Z0.000000
G01 X2540.000000 Y83.514430 Z0.000000
G01 X2560.000000 Y89.847730 Z0.000000
G01 X2560.000000 Y140.829810 Z0.000000
M300 S145 (G00 Z5.000000)

(End cutting path id: path5950)


(Start cutting path id: path5948)
(Change tool to Cylindrical cutter)

M300 S145 (G00 Z5.000000)
G00 X2484.000000 Y62.948850

M300 S125 (G01 Z0.000000 F100.0(Penetrate)
G01 X2556.000000 Y85.748730 Z0.000000 F200.000000
G01 X2582.666700 Y77.304330 Z0.000000
G01 X2510.666700 Y54.504450 Z0.000000
G01 X2537.333300 Y46.060050 Z0.000000
G01 X2609.333300 Y68.859930 Z0.000000
G01 X2636.000000 Y60.415530 Z0.000000
G01 X2564.000000 Y37.615650 Z0.000000
M300 S145 (G00 Z5.000000)

(End cutting path id: path5948)


(Start cutting path id: path6002)
(Change tool to Cylindrical cutter)

M300 S145 (G00 Z5.000000)
G00 X2560.000000 Y-17.465430

M300 S125 (G01 Z0.000000 F100.0(Penetrate)
G01 X2560.000000 Y33.516650 Z0.000000 F200.000000
G01 X2580.000000 Y39.849950 Z0.000000
G01 X2580.000000 Y-11.132130 Z0.000000
G01 X2600.000000 Y-4.798830 Z0.000000
G01 X2600.000000 Y46.183250 Z0.000000
G01 X2620.000000 Y52.516550 Z0.000000
G01 X2620.000000 Y1.534470 Z0.000000
G01 X2640.000000 Y7.867770 Z0.000000
G01 X2640.000000 Y58.849850 Z0.000000
M300 S145 (G00 Z5.000000)

(End cutting path id: path6002)


(Start cutting path id: path6000)
(Change tool to Cylindrical cutter)

M300 S145 (G00 Z5.000000)
G00 X2564.000000 Y-19.031110

M300 S125 (G01 Z0.000000 F100.0(Penetrate)
G01 X2636.000000 Y3.768770 Z0.000000 F200.000000
G01 X2662.666700 Y-4.675630 Z0.000000
G01 X2590.666700 Y-27.475510 Z0.000000
G01 X2617.333300 Y-35.919910 Z0.000000
G01 X2689.333300 Y-13.120030 Z0.000000
G01 X2716.000000 Y-21.564430 Z0.000000
G01 X2644.000000 Y-44.364310 Z0.000000
M300 S145 (G00 Z5.000000)

(End cutting path id: path6000)


(Start cutting path id: path6054)
(Change tool to Cylindrical cutter)

M300 S145 (G00 Z5.000000)
G00 X2640.000000 Y-99.445390

M300 S125 (G01 Z0.000000 F100.0(Penetrate)
G01 X2640.000000 Y-48.463310 Z0.000000 F200.000000
G01 X2660.000000 Y-42.130010 Z0.000000
G01 X2660.000000 Y-93.112090 Z0.000000
G01 X2680.000000 Y-86.778790 Z0.000000
G01 X2680.000000 Y-35.796710 Z0.000000
G01 X2700.000000 Y-29.463410 Z0.000000
G01 X2700.000000 Y-80.445490 Z0.000000
G01 X2720.000000 Y-74.112190 Z0.000000
G01 X2720.000000 Y-23.130110 Z0.000000
M300 S145 (G00 Z5.000000)

(End cutting path id: path6054)


(Start cutting path id: path6052)
(Change tool to Cylindrical cutter)

M300 S145 (G00 Z5.000000)
G00 X2644.000000 Y-101.011060

M300 S125 (G01 Z0.000000 F100.0(Penetrate)
G01 X2716.000000 Y-78.211180 Z0.000000 F200.000000
G01 X2742.666700 Y-86.655590 Z0.000000
G01 X2670.666700 Y-109.455470 Z0.000000
G01 X2697.333300 Y-117.899870 Z0.000000
G01 X2769.333300 Y-95.099990 Z0.000000
G01 X2796.000000 Y-103.544380 Z0.000000
G01 X2724.000000 Y-126.344260 Z0.000000
M300 S145 (G00 Z5.000000)

(End cutting path id: path6052)


(Start cutting path id: path6106)
(Change tool to Cylindrical cutter)

M300 S145 (G00 Z5.000000)
G00 X2720.000000 Y-181.425350

M300 S125 (G01 Z0.000000 F100.0(Penetrate)
G01 X2720.000000 Y-130.443260 Z0.000000 F200.000000
G01 X2740.000000 Y-124.109960 Z0.000000
G01 X2740.000000 Y-175.092050 Z0.000000
G01 X2760.000000 Y-168.758750 Z0.000000
G01 X2760.000000 Y-117.776660 Z0.000000
G01 X2780.000000 Y-111.443360 Z0.000000
G01 X2780.000000 Y-162.425450 Z0.000000
G01 X2800.000000 Y-156.092150 Z0.000000
G01 X2800.000000 Y-105.110060 Z0.000000
M300 S145 (G00 Z5.000000)

(End cutting path id: path6106)


(Start cutting path id: path6104)
(Change tool to Cylindrical cutter)

M300 S145 (G00 Z5.000000)
G00 X2724.000000 Y-182.991020

M300 S125 (G01 Z0.000000 F100.0(Penetrate)
G01 X2796.000000 Y-160.191140 Z0.000000 F200.000000
G01 X2822.666700 Y-168.635550 Z0.000000
G01 X2750.666700 Y-191.435430 Z0.000000
G01 X2777.333300 Y-199.879820 Z0.000000
G01 X2849.333300 Y-177.079940 Z0.000000
G01 X2876.000000 Y-185.524340 Z0.000000
G01 X2804.000000 Y-208.324200 Z0.000000
M300 S145 (G00 Z5.000000)

(End cutting path id: path6104)


(Start cutting path id: path6158)
(Change tool to Cylindrical cutter)

M300 S145 (G00 Z5.000000)
G00 X2800.000000 Y-263.405300

M300 S125 (G01 Z0.000000 F100.0(Penetrate)
G01 X2800.000000 Y-212.423200 Z0.000000 F200.000000
G01 X2820.000000 Y-206.089900 Z0.000000
G01 X2820.000000 Y-257.072000 Z0.000000
G01 X2840.000000 Y-250.738700 Z0.000000
G01 X2840.000000 Y-199.756620 Z0.000000
G01 X2860.000000 Y-193.423320 Z0.000000
G01 X2860.000000 Y-244.405400 Z0.000000
G01 X2880.000000 Y-238.072100 Z0.000000
G01 X2880.000000 Y-187.090020 Z0.000000
M300 S145 (G00 Z5.000000)

(End cutting path id: path6158)


(Start cutting path id: path6156)
(Change tool to Cylindrical cutter)

M300 S145 (G00 Z5.000000)
G00 X2804.000000 Y-264.971000

M300 S125 (G01 Z0.000000 F100.0(Penetrate)
G01 X2876.000000 Y-242.171100 Z0.000000 F200.000000
G01 X2902.666700 Y-250.615500 Z0.000000
G01 X2830.666700 Y-273.415400 Z0.000000
G01 X2857.333300 Y-281.859800 Z0.000000
G01 X2929.333300 Y-259.059900 Z0.000000
G01 X2956.000000 Y-267.504300 Z0.000000
G01 X2884.000000 Y-290.304200 Z0.000000
M300 S145 (G00 Z5.000000)

(End cutting path id: path6156)


(Start cutting path id: path6210)
(Change tool to Cylindrical cutter)

M300 S145 (G00 Z5.000000)
G00 X2880.000000 Y-345.385300

M300 S125 (G01 Z0.000000 F100.0(Penetrate)
G01 X2880.000000 Y-294.403200 Z0.000000 F200.000000
G01 X2900.000000 Y-288.069900 Z0.000000
G01 X2900.000000 Y-339.052000 Z0.000000
G01 X2920.000000 Y-332.718700 Z0.000000
G01 X2920.000000 Y-281.736600 Z0.000000
G01 X2940.000000 Y-275.403300 Z0.000000
G01 X2940.000000 Y-326.385400 Z0.000000
G01 X2960.000000 Y-320.052100 Z0.000000
G01 X2960.000000 Y-269.070000 Z0.000000
M300 S145 (G00 Z5.000000)

(End cutting path id: path6210)


(Start cutting path id: path6208)
(Change tool to Cylindrical cutter)

M300 S145 (G00 Z5.000000)
G00 X2884.000000 Y-346.950900

M300 S125 (G01 Z0.000000 F100.0(Penetrate)
G01 X2956.000000 Y-324.151100 Z0.000000 F200.000000
G01 X2982.666700 Y-332.595500 Z0.000000
G01 X2910.666700 Y-355.395300 Z0.000000
G01 X2937.333300 Y-363.839700 Z0.000000
G01 X3009.333300 Y-341.039900 Z0.000000
G01 X3036.000000 Y-349.484300 Z0.000000
G01 X2964.000000 Y-372.284100 Z0.000000
M300 S145 (G00 Z5.000000)

(End cutting path id: path6208)


(Start cutting path id: path6206)
(Change tool to Cylindrical cutter)

M300 S145 (G00 Z5.000000)
G00 X2880.000000 Y-348.217600

M300 S125 (G01 Z0.000000 F100.0(Penetrate)
G01 X2960.000000 Y-373.550800 Z0.000000 F200.000000
M300 S145 (G00 Z5.000000)

(End cutting path id: path6206)


(Start cutting path id: path6154)
(Change tool to Cylindrical cutter)

M300 S145 (G00 Z5.000000)
G00 X2876.000000 Y-346.950900

M300 S125 (G01 Z0.000000 F100.0(Penetrate)
G01 X2804.000000 Y-324.151100 Z0.000000 F200.000000
G01 X2804.000000 Y-312.821700 Z0.000000
G01 X2876.000000 Y-335.621600 Z0.000000
G01 X2876.000000 Y-324.292200 Z0.000000
G01 X2804.000000 Y-301.492400 Z0.000000
G01 X2804.000000 Y-290.163000 Z0.000000
G01 X2876.000000 Y-312.962900 Z0.000000
G01 X2876.000000 Y-301.633500 Z0.000000
G01 X2804.000000 Y-278.833700 Z0.000000
G01 X2804.000000 Y-267.504300 Z0.000000
G01 X2876.000000 Y-290.304200 Z0.000000
M300 S145 (G00 Z5.000000)

(End cutting path id: path6154)


(Start cutting path id: path6102)
(Change tool to Cylindrical cutter)

M300 S145 (G00 Z5.000000)
