%
(Header)
(Generated by gcodetools from Inkscape.)
(Using default header. To add your own header create file "header" in the output dir.)
M3
(Header end.)
G21 (All units in mm)

(Start cutting path id: path3192)
(Change tool to Cylindrical cutter)

M300 S145 (G00 Z5.000000)
G00 X-36.017700 Y-139.998893

M300 S125 (G01 Z0.000000 F100.0(Penetrate)
G02 X-15.429802 Y-127.130717 Z0.000000 I26.160449 J-18.950853 F200.000000
G02 X9.337982 Y-127.695622 Z0.000000 I10.962637 J-62.596196
G02 X30.884246 Y-138.050132 Z0.000000 I-11.438240 J-51.395963
G02 X33.569099 Y-149.462948 Z0.000000 I-5.968403 J-7.426274
G02 X49.523502 Y-153.814836 Z0.000000 I-10.180375 J-68.743212
G02 X57.489561 Y-158.675614 Z0.000000 I-10.858480 J-26.753312
G02 X62.669456 Y-165.941512 Z0.000000 I-12.174311 J-14.158463
G02 X63.392012 Y-172.768183 Z0.000000 I-11.847782 J-4.705580
G02 X56.195626 Y-184.015402 Z0.000000 I-16.824198 J2.838877
G02 X28.598614 Y-193.944006 Z0.000000 I-32.904251 J48.140994
G02 X17.681939 Y-210.500237 Z0.000000 I-24.241539 J4.106956
G02 X-2.674025 Y-218.077344 Z0.000000 I-27.409942 J42.505255
G02 X-27.474922 Y-217.569317 Z0.000000 I-10.830511 J76.895278
G02 X-42.645014 Y-210.979304 Z0.000000 I6.556175 J35.847845
G03 X-39.423785 Y-222.569000 Z0.000000 I16.637901 J-1.618178
G03 X-20.899139 Y-240.317873 Z0.000000 I61.704588 J45.859989
G03 X2.400055 Y-252.516388 Z0.000000 I64.890338 J95.590693
G03 X36.882757 Y-261.138793 Z0.000000 I52.049510 J134.893510
G03 X87.665675 Y-260.700300 Z0.000000 I23.467602 J223.025518
G03 X134.635641 Y-247.179313 Z0.000000 I-18.897332 J153.990570
G03 X153.907020 Y-235.133622 Z0.000000 I-40.240706 J85.817929
G03 X165.960056 Y-220.946136 Z0.000000 I-31.311792 J38.814654
G03 X171.067834 Y-204.034447 Z0.000000 I-34.704322 J19.708811
G03 X167.772212 Y-180.694328 Z0.000000 I-56.288870 J3.954749
G02 X155.445622 Y-188.153831 Z0.000000 I-14.320265 J9.749380
G02 X126.558601 Y-190.276684 Z0.000000 I-39.712101 J342.784541
G03 X97.007241 Y-192.178227 Z0.000000 I14.127396 J-450.125393
G03 X71.676156 Y-200.568845 Z0.000000 I5.858508 J-60.119000
G03 X57.884852 Y-212.024199 Z0.000000 I25.660388 J-44.922472
G03 X50.965799 Y-227.186497 Z0.000000 I23.368528 J-19.823669
G03 X53.901551 Y-240.276761 Z0.000000 I18.177716 J-2.797618
G03 X74.989811 Y-257.353173 Z0.000000 I38.523110 J26.014018
G02 X79.607010 Y-241.506587 Z0.000000 I39.354286 J-2.870660
G02 X92.179408 Y-226.476694 Z0.000000 I42.911417 J-23.121787
G02 X109.394179 Y-217.042608 Z0.000000 I36.005336 J-45.277143
G02 X137.949299 Y-211.925708 Z0.000000 I30.812152 J-89.713678
G03 X102.477706 Y-231.833495 Z0.000000 I46.909287 J-125.138168
G03 X90.315477 Y-248.007418 Z0.000000 I24.095504 J-30.778733
G03 X89.980714 Y-266.593100 Z0.000000 I24.158037 J-9.730987
G03 X104.812727 Y-287.638149 Z0.000000 I45.882124 J16.587413
G03 X129.118263 Y-302.481844 Z0.000000 I51.051588 J56.272310
G03 X165.286969 Y-311.061684 Z0.000000 I51.731182 J137.549829
G03 X202.729287 Y-310.936587 Z0.000000 I18.151907 J170.444098
G03 X240.672667 Y-301.834231 Z0.000000 I-17.944817 J158.438483
G03 X257.578560 Y-289.704822 Z0.000000 I-12.950216 J35.896296
G03 X258.897781 Y-282.314617 Z0.000000 I-6.174271 J4.915015
G03 X252.874125 Y-275.014093 Z0.000000 I-12.399918 J-4.095842
G03 X237.359009 Y-270.602847 Z0.000000 I-17.047774 J-30.469680
G03 X226.263397 Y-271.414452 Z0.000000 I-2.516332 J-41.849712
G03 X220.997828 Y-273.575154 Z0.000000 I3.194804 J-15.282019
G03 X216.902808 Y-277.664152 Z0.000000 I7.453062 J-11.559062
G03 X214.577617 Y-282.314618 Z0.000000 I19.789031 J-12.800856
G03 X211.240812 Y-291.999194 Z0.000000 I225.616681 J-83.153007
G02 X204.222438 Y-298.995015 Z0.000000 I-10.285861 J3.300610
G02 X186.193896 Y-302.024838 Z0.000000 I-19.858520 J63.012288
G02 X176.651776 Y-300.621648 Z0.000000 I-0.772832 J27.890771
G02 X168.832570 Y-295.526531 Z0.000000 I5.752555 J17.375558
G02 X166.322486 Y-290.004161 Z0.000000 I7.398347 J6.694412
G02 X167.524349 Y-284.084182 Z0.000000 I9.592081 J1.134622
G02 X173.700550 Y-277.967066 Z0.000000 I14.059536 J-8.018849
G02 X182.236569 Y-275.115804 Z0.000000 I11.829739 J-21.212442
G02 X199.251952 Y-275.334875 Z0.000000 I7.777526 J-56.822096
G02 X185.774400 Y-267.133263 Z0.000000 I17.137785 J43.336703
G02 X183.201426 Y-262.454888 Z0.000000 I5.097758 J5.850343
G02 X184.716190 Y-257.315617 Z0.000000 I6.240666 J0.953476
G02 X191.382018 Y-252.502844 Z0.000000 I14.064409 J-12.457038
G02 X209.864573 Y-249.458381 Z0.000000 I15.421452 J-35.996840
G02 X230.731696 Y-260.192389 Z0.000000 I-2.372813 J-30.262849
G02 X243.161997 Y-246.000113 Z0.000000 I16.436762 J-1.856458
G02 X264.075367 Y-245.878006 Z0.000000 I10.707469 J-42.891046
G02 X273.898541 Y-249.810209 Z0.000000 I-8.294038 J-34.955536
G02 X278.028969 Y-254.469593 Z0.000000 I-5.037523 J-8.626093
G02 X277.702886 Y-259.291115 Z0.000000 I-4.840650 J-2.094410
G02 X268.838753 Y-267.763632 Z0.000000 I-20.068152 J12.122557
G02 X301.241035 Y-268.110111 Z0.000000 I15.724653 J-44.733700
G02 X310.880777 Y-277.700890 Z0.000000 I-5.819849 J-15.489429
G02 X310.812806 Y-283.905230 Z0.000000 I-7.904403 J-3.015947
G02 X304.952437 Y-290.388638 Z0.000000 I-11.850895 J4.821750
G02 X295.581726 Y-293.310236 Z0.000000 I-12.489267 J23.569409
G02 X272.152408 Y-293.316580 Z0.000000 I-11.741668 J99.741198
G02 X282.408795 Y-303.182738 Z0.000000 I-16.083974 J-26.984235
G02 X283.154779 Y-308.503431 Z0.000000 I-5.322290 J-3.458850
G02 X279.306118 Y-313.662773 Z0.000000 I-9.143116 J2.805252
G02 X269.460057 Y-318.278025 Z0.000000 I-20.364606 J30.635037
G02 X258.322445 Y-320.383594 Z0.000000 I-15.739980 J52.748631
G02 X246.756333 Y-320.067323 Z0.000000 I-4.364829 J52.023054
G02 X236.316142 Y-316.854408 Z0.000000 I4.723974 J33.919165
G02 X230.731696 Y-311.298285 Z0.000000 I5.475961 J11.088393
G03 X239.045090 Y-322.703590 Z0.000000 I11.980275 J0.000000
G03 X264.903785 Y-325.494366 Z0.000000 I19.689290 J61.240705
G03 X290.420125 Y-317.964794 Z0.000000 I-6.723819 J69.785680
G03 X300.318494 Y-302.780635 Z0.000000 I-8.457661 J16.331839
G03 X320.932642 Y-295.819734 Z0.000000 I-18.024501 J87.382132
G03 X328.406908 Y-290.122462 Z0.000000 I-10.073742 J20.967159
G03 X331.673958 Y-282.019570 Z0.000000 I-10.086200 J8.776788
G03 X329.934296 Y-274.625073 Z0.000000 I-13.655803 J0.689165
G03 X316.490952 Y-262.258334 Z0.000000 I-25.727661 J-14.477214
G03 X293.691181 Y-259.245985 Z0.000000 I-16.306959 J-35.634317
G03 X292.129016 Y-245.459697 Z0.000000 I-9.666725 J5.886286
G03 X273.187923 Y-234.284538 Z0.000000 I-30.047807 J-29.289404
G03 X247.099276 Y-231.836946 Z0.000000 I-19.992728 J-72.838559
G03 X224.104380 Y-241.264279 Z0.000000 I3.305181 J-40.819839
G02 X250.771591 Y-211.827947 Z0.000000 I75.125274 J-41.260664
G02 X286.442561 Y-195.008711 Z0.000000 I69.852012 J-101.909304
G02 X327.360854 Y-188.790099 Z0.000000 I44.336734 J-154.004541
G02 X364.934805 Y-192.051194 Z0.000000 I3.734953 J-175.058134
G02 X407.303285 Y-206.386310 Z0.000000 I-32.447828 J-165.681038
G02 X430.586648 Y-223.992379 Z0.000000 I-34.547991 J-69.887137
G02 X438.541419 Y-235.796957 Z0.000000 I-37.290301 J-33.711415
G02 X441.589024 Y-247.149738 Z0.000000 I-28.207850 J-13.657726
G02 X440.119540 Y-258.561828 Z0.000000 I-28.643660 J-2.112337
G02 X432.864779 Y-271.549255 Z0.000000 I-39.376614 J13.475765
G03 X424.208856 Y-264.916495 Z0.000000 I-13.187105 J-8.245032
G03 X406.976828 Y-261.730298 Z0.000000 I-22.679240 J-74.465553
G03 X388.269504 Y-261.296212 Z0.000000 I-13.984502 J-199.353573
G02 X369.905305 Y-261.138793 Z0.000000 I-6.739048 J285.079231
G02 X335.060723 Y-249.181842 Z0.000000 I3.739473 J67.647441
G02 X321.028853 Y-231.445321 Z0.000000 I22.107000 J31.908250
G02 X318.941254 Y-220.109480 Z0.000000 I28.175499 J11.048922
G02 X321.443064 Y-209.633633 Z0.000000 I24.142121 J-0.228887
G02 X328.071631 Y-201.336497 Z0.000000 I22.339351 J-11.050526
G02 X341.739223 Y-193.944006 Z0.000000 I26.452853 J-32.576405
G03 X343.641446 Y-206.628834 Z0.000000 I26.786504 J-2.468125
G03 X354.786727 Y-222.099569 Z0.000000 I37.922414 J15.569751
G03 X371.286192 Y-232.012103 Z0.000000 I36.984760 J42.873332
G03 X406.355506 Y-240.317875 Z0.000000 I47.516565 J122.439194
G02 X381.569284 Y-229.234095 Z0.000000 I47.182713 J138.768968
G02 X367.808366 Y-219.038538 Z0.000000 I33.887449 J60.122124
G02 X358.022568 Y-205.595543 Z0.000000 I32.148783 J33.685905
G02 X355.200943 Y-193.589103 Z0.000000 I25.572667 J12.344590
G02 X363.603477 Y-172.009340 Z0.000000 I30.965238 J0.368767
G02 X399.728197 Y-147.570137 Z0.000000 I72.331618 J-67.998308
G02 X434.972670 Y-139.643073 Z0.000000 I43.980330 J-113.227033
G02 X479.048869 Y-141.063599 Z0.000000 I15.246343 J-211.445416
G02 X517.155883 Y-152.887204 Z0.000000 I-16.573166 J-120.735165
G02 X527.303990 Y-169.337462 Z0.000000 I-8.259023 J-16.450258
G02 X522.814547 Y-176.265839 Z0.000000 I-9.796439 J1.429165
G02 X509.700197 Y-181.522432 Z0.000000 I-20.637971 J32.501012
G02 X495.812892 Y-181.748820 Z0.000000 I-7.564343 J37.961972
G02 X485.883289 Y-175.962301 Z0.000000 I2.639627 J15.942377
G02 X480.091958 Y-166.348629 Z0.000000 I19.253800 J18.149800
G03 X478.013359 Y-160.819814 Z0.000000 I-89.819463 J-30.613156
G03 X474.821521 Y-156.779155 Z0.000000 I-8.679582 J-3.575269
G03 X462.687706 Y-151.355759 Z0.000000 I-19.170329 J-26.604710
G03 X442.856441 Y-152.786845 Z0.000000 I-7.956847 J-27.859393
G03 X432.657678 Y-162.357722 Z0.000000 I8.809438 J-19.606730
G03 X432.124706 Y-167.387368 Z0.000000 I6.026084 J-3.181621
G03 X436.359657 Y-172.782970 Z0.000000 I8.665192 J2.441432
G03 X444.044802 Y-175.480957 Z0.000000 I11.389156 J20.147256
G03 X466.001361 Y-176.908708 Z0.000000 I18.407088 J113.529471
G03 X451.364556 Y-183.266836 Z0.000000 I9.296702 J-41.428065
G03 X448.319892 Y-187.792370 Z0.000000 I4.147405 J-6.077222
G03 X449.517615 Y-193.411243 Z0.000000 I6.847793 J-1.477410
G03 X456.267489 Y-199.385836 Z0.000000 I17.138844 J12.562656
G03 X474.752963 Y-203.947830 Z0.000000 I17.521024 J31.263119
G03 X497.481098 Y-192.051194 Z0.000000 I-0.784983 J29.158681
G03 X507.035638 Y-205.611525 Z0.000000 I13.263658 J-0.800700
G03 X528.546628 Y-206.602179 Z0.000000 I12.807332 J44.058147
G03 X538.993822 Y-203.044657 Z0.000000 I-7.644987 J39.569284
G03 X544.079401 Y-198.306343 Z0.000000 I-5.558726 J11.064422
G03 X544.525812 Y-192.959445 Z0.000000 I-5.270033 J3.132078
G03 X537.244989 Y-183.533544 Z0.000000 I-19.546218 J-7.573128
G03 X557.001805 Y-186.697853 Z0.000000 I21.456272 J70.705893
G03 X566.653694 Y-185.130603 Z0.000000 I0.614688 J26.718604
G03 X574.146520 Y-179.633789 Z0.000000 I-5.531966 J15.395965
G03 X576.180458 Y-173.596287 Z0.000000 I-7.943834 J6.037502
G03 X570.587254 Y-163.593081 Z0.000000 I-11.741754 J0.000000
G03 X540.558644 Y-157.980597 Z0.000000 I-22.328401 J-36.326544
G03 X548.671153 Y-148.111383 Z0.000000 I-16.261421 J21.635768
G03 X548.962631 Y-142.529789 Z0.000000 I-6.499909 J3.137841
G03 X544.959201 Y-137.390264 Z0.000000 I-9.851626 J-3.544922
G03 X535.718530 Y-133.036901 Z0.000000 I-18.793411 J-27.907812
G03 X512.836581 Y-130.930460 Z0.000000 I-16.743267 J-56.544774
G03 X496.867307 Y-140.140882 Z0.000000 I2.359068 J-22.539402
G02 X517.035229 Y-127.367806 Z0.000000 I25.546678 J-18.028166
G02 X541.685912 Y-127.961851 Z0.000000 I10.837001 J-62.057680
G02 X563.155133 Y-138.315748 Z0.000000 I-11.547284 J-51.379351
G02 X565.840299 Y-149.746926 Z0.000000 I-5.985020 J-7.436831
G02 X581.794710 Y-154.098814 Z0.000000 I-10.180379 J-68.743269
G02 X589.760771 Y-158.959591 Z0.000000 I-10.858481 J-26.753326
G02 X594.940669 Y-166.225490 Z0.000000 I-12.174310 J-14.158469
G02 X595.663226 Y-173.052160 Z0.000000 I-11.847779 J-4.705582
G02 X588.466840 Y-184.299380 Z0.000000 I-16.824197 J2.838875
G02 X560.869834 Y-194.227983 Z0.000000 I-32.904246 J48.140982
G02 X549.953152 Y-210.784215 Z0.000000 I-24.241552 J4.106970
G02 X529.597185 Y-218.361321 Z0.000000 I-27.409947 J42.505276
G02 X504.796290 Y-217.853294 Z0.000000 I-10.830510 J76.895266
G02 X489.626206 Y-211.263281 Z0.000000 I6.556169 J35.847802
G03 X492.847430 Y-222.852976 Z0.000000 I16.637874 J-1.618192
G03 X511.372080 Y-240.601850 Z0.000000 I61.704580 J45.859990
G03 X534.671283 Y-252.800366 Z0.000000 I64.890362 J95.590758
G03 X569.153988 Y-261.422770 Z0.000000 I52.049520 J134.893573
G03 X619.936897 Y-260.984277 Z0.000000 I23.467598 J223.025442
G03 X666.906858 Y-247.463290 Z0.000000 I-18.897332 J153.990546
G03 X686.178236 Y-235.417599 Z0.000000 I-40.240710 J85.817929
G03 X698.231272 Y-221.230113 Z0.000000 I-31.311801 J38.814664
G03 X703.339053 Y-204.318424 Z0.000000 I-34.704333 J19.708820
G03 X700.043436 Y-180.978305 Z0.000000 I-56.288874 J3.954759
G02 X687.716840 Y-188.437809 Z0.000000 I-14.320271 J9.749390
G02 X658.829814 Y-190.560661 Z0.000000 I-39.712113 J342.784801
G03 X629.278451 Y-192.462205 Z0.000000 I14.127395 J-450.125392
G03 X603.947380 Y-200.852822 Z0.000000 I5.858502 J-60.118929
G03 X590.156064 Y-212.308179 Z0.000000 I25.660361 J-44.922472
G03 X583.237012 Y-227.470475 Z0.000000 I23.368508 J-19.823658
G03 X586.172767 Y-240.560738 Z0.000000 I18.177715 J-2.797615
G03 X607.261035 Y-257.637150 Z0.000000 I38.523125 J26.014043
G02 X611.878223 Y-241.790564 Z0.000000 I39.354229 J-2.870619
G02 X624.450616 Y-226.760671 Z0.000000 I42.911388 J-23.121752
G02 X641.665386 Y-217.326585 Z0.000000 I36.005328 J-45.277127
G02 X670.220509 Y-212.209685 Z0.000000 I30.812155 J-89.713695
G03 X634.748921 Y-232.117472 Z0.000000 I46.909276 J-125.138132
G03 X622.586692 Y-248.291395 Z0.000000 I24.095510 J-30.778735
G03 X622.251926 Y-266.877080 Z0.000000 I24.158050 J-9.730992
G03 X637.083927 Y-287.922126 Z0.000000 I45.882120 J16.587397
G03 X661.389483 Y-302.765823 Z0.000000 I51.051651 J56.272442
G03 X697.558190 Y-311.345661 Z0.000000 I51.731190 J137.549892
G03 X735.000507 Y-311.220564 Z0.000000 I18.151905 J170.444075
G03 X772.943874 Y-302.118208 Z0.000000 I-17.944808 J158.438367
G03 X789.849766 Y-289.988800 Z0.000000 I-12.950218 J35.896299
G03 X791.168988 Y-282.598594 Z0.000000 I-6.174272 J4.915016
G03 X785.145334 Y-275.298070 Z0.000000 I-12.399915 J-4.095839
G03 X769.630219 Y-270.886825 Z0.000000 I-17.047773 J-30.469672
G03 X758.534608 Y-271.698429 Z0.000000 I-2.516332 J-41.849705
G03 X753.269039 Y-273.859131 Z0.000000 I3.194805 J-15.282022
G03 X749.174018 Y-277.948129 Z0.000000 I7.453064 J-11.559067
G03 X746.848826 Y-282.598595 Z0.000000 I19.789042 J-12.800868
G03 X743.512016 Y-292.283170 Z0.000000 I225.617737 J-83.153469
G02 X736.493637 Y-299.278992 Z0.000000 I-10.285867 J3.300617
G02 X718.465102 Y-302.308815 Z0.000000 I-19.858513 J63.012243
G02 X708.922985 Y-300.905626 Z0.000000 I-0.772832 J27.890750
G02 X701.103784 Y-295.810509 Z0.000000 I5.752553 J17.375546
G02 X698.593701 Y-290.288138 Z0.000000 I7.398348 J6.694410
G02 X699.795566 Y-284.368160 Z0.000000 I9.592084 J1.134620
G02 X705.971769 Y-278.251043 Z0.000000 I14.059539 J-8.018854
G02 X714.507788 Y-275.399781 Z0.000000 I11.829740 J-21.212448
G02 X731.523173 Y-275.618852 Z0.000000 I7.777526 J-56.822105
G02 X718.045620 Y-267.417240 Z0.000000 I17.137784 J43.336704
G02 X715.472646 Y-262.738866 Z0.000000 I5.097758 J5.850342
G02 X716.987411 Y-257.599594 Z0.000000 I6.240666 J0.953475
G02 X723.653239 Y-252.786821 Z0.000000 I14.064411 J-12.457042
G02 X742.135795 Y-249.742358 Z0.000000 I15.421453 J-35.996844
G02 X763.002910 Y-260.476366 Z0.000000 I-2.372811 J-30.262827
G02 X775.433208 Y-246.284090 Z0.000000 I16.436760 J-1.856456
G02 X796.346575 Y-246.161983 Z0.000000 I10.707467 J-42.891033
G02 X806.169748 Y-250.094186 Z0.000000 I-8.294037 J-34.955526
G02 X810.300175 Y-254.753570 Z0.000000 I-5.037522 J-8.626090
G02 X809.974091 Y-259.575092 Z0.000000 I-4.840651 J-2.094410
G02 X801.109956 Y-268.047609 Z0.000000 I-20.068157 J12.122564
G02 X833.512240 Y-268.394088 Z0.000000 I15.724655 J-44.733706
G02 X843.151983 Y-277.984867 Z0.000000 I-5.819849 J-15.489428
G02 X843.084012 Y-284.189207 Z0.000000 I-7.904403 J-3.015947
G02 X837.223642 Y-290.672615 Z0.000000 I-11.850895 J4.821750
G02 X827.852931 Y-293.594213 Z0.000000 I-12.489268 J23.569412
G02 X804.423611 Y-293.600557 Z0.000000 I-11.741669 J99.741210
G02 X814.679999 Y-303.466716 Z0.000000 I-16.083977 J-26.984241
G02 X815.425985 Y-308.787408 Z0.000000 I-5.322290 J-3.458851
G02 X811.577324 Y-313.946750 Z0.000000 I-9.143115 J2.805251
G02 X801.731264 Y-318.562002 Z0.000000 I-20.364603 J30.635030
G02 X790.593653 Y-320.667571 Z0.000000 I-15.739979 J52.748622
G02 X779.027542 Y-320.351300 Z0.000000 I-4.364829 J52.023041
G02 X768.587353 Y-317.138385 Z0.000000 I4.723973 J33.919151
G02 X763.002910 Y-311.582263 Z0.000000 I5.475959 J11.088387
G03 X771.316304 Y-322.987567 Z0.000000 I11.980275 J0.000000
G03 X797.174998 Y-325.778343 Z0.000000 I19.689289 J61.240704
G03 X822.691333 Y-318.248771 Z0.000000 I-6.723816 J69.785648
G03 X832.589693 Y-303.064612 Z0.000000 I-8.457657 J16.331826
G03 X853.203844 Y-296.103711 Z0.000000 I-18.024503 J87.382155
G03 X860.678111 Y-290.406439 Z0.000000 I-10.073743 J20.967164
G03 X863.945163 Y-282.303547 Z0.000000 I-10.086200 J8.776789
G03 X862.205501 Y-274.909050 Z0.000000 I-13.655800 J0.689166
G03 X848.762158 Y-262.542312 Z0.000000 I-25.727658 J-14.477212
G03 X825.962384 Y-259.529962 Z0.000000 I-16.306961 J-35.634324
G03 X824.400221 Y-245.743673 Z0.000000 I-9.666725 J5.886287
G03 X805.459134 Y-234.568516 Z0.000000 I-30.047797 J-29.289382
G03 X779.370494 Y-232.120923 Z0.000000 I-19.992724 J-72.838527
G03 X756.375600 Y-241.548257 Z0.000000 I3.305181 J-40.819831
G02 X783.042799 Y-212.111925 Z0.000000 I75.125232 J-41.260609
G02 X818.713766 Y-195.292688 Z0.000000 I69.852000 J-101.909267
G02 X859.632059 Y-189.074076 Z0.000000 I44.336734 J-154.004534
G02 X897.206012 Y-192.335172 Z0.000000 I3.734953 J-175.058140
G02 X939.574491 Y-206.670288 Z0.000000 I-32.447828 J-165.681038
G02 X962.857854 Y-224.276356 Z0.000000 I-34.547991 J-69.887137
G02 X970.812625 Y-236.080934 Z0.000000 I-37.290301 J-33.711415
G02 X973.860231 Y-247.433716 Z0.000000 I-28.207850 J-13.657726
G02 X972.390746 Y-258.845805 Z0.000000 I-28.643660 J-2.112337
G02 X965.135985 Y-271.833232 Z0.000000 I-39.376614 J13.475765
G03 X956.480062 Y-265.200472 Z0.000000 I-13.187105 J-8.245032
G03 X939.248034 Y-262.014275 Z0.000000 I-22.679240 J-74.465553
G03 X920.540710 Y-261.580190 Z0.000000 I-13.984502 J-199.353573
G02 X902.176511 Y-261.422770 Z0.000000 I-6.739048 J285.079231
G02 X867.331928 Y-249.465819 Z0.000000 I3.739473 J67.647447
G02 X853.300057 Y-231.729299 Z0.000000 I22.107001 J31.908253
G02 X851.212457 Y-220.393457 Z0.000000 I28.175497 J11.048923
G02 X853.714267 Y-209.917610 Z0.000000 I24.142118 J-0.228887
G02 X860.342836 Y-201.620475 Z0.000000 I22.339350 J-11.050526
G02 X874.010429 Y-194.227983 Z0.000000 I26.452856 J-32.576413
G03 X875.912653 Y-206.912811 Z0.000000 I26.786504 J-2.468125
G03 X887.057933 Y-222.383546 Z0.000000 I37.922414 J15.569751
G03 X903.557398 Y-232.296080 Z0.000000 I36.984760 J42.873332
G03 X938.626713 Y-240.601852 Z0.000000 I47.516565 J122.439194
G02 X913.840490 Y-229.518072 Z0.000000 I47.182713 J138.768968
G02 X900.079572 Y-219.322515 Z0.000000 I33.887449 J60.122124
G02 X890.293775 Y-205.879520 Z0.000000 I32.148783 J33.685905
G02 X887.472149 Y-193.873080 Z0.000000 I25.572667 J12.344590
G02 X895.874683 Y-172.293317 Z0.000000 I30.965237 J0.368767
G02 X931.999404 Y-147.854115 Z0.000000 I72.331617 J-67.998307
G02 X967.243877 Y-139.927051 Z0.000000 I43.980331 J-113.227033
G02 X1011.320076 Y-141.347577 Z0.000000 I15.246343 J-211.445419
G02 X1049.427089 Y-153.171182 Z0.000000 I-16.573166 J-120.735167
G02 X1059.575196 Y-169.621439 Z0.000000 I-8.259022 J-16.450257
G02 X1055.085753 Y-176.549817 Z0.000000 I-9.796439 J1.429165
G02 X1041.971404 Y-181.806410 Z0.000000 I-20.637971 J32.501012
G02 X1028.084099 Y-182.032797 Z0.000000 I-7.564343 J37.961972
G02 X1018.154495 Y-176.246278 Z0.000000 I2.639627 J15.942377
G02 X1012.363165 Y-166.632607 Z0.000000 I19.253801 J18.149800
G03 X1010.284565 Y-161.103791 Z0.000000 I-89.819451 J-30.613153
G03 X1007.092728 Y-157.063133 Z0.000000 I-8.679582 J-3.575269
G03 X994.958912 Y-151.639737 Z0.000000 I-19.170329 J-26.604712
G03 X975.127648 Y-153.070823 Z0.000000 I-7.956847 J-27.859393
G03 X964.928884 Y-162.641700 Z0.000000 I8.809437 J-19.606730
G03 X964.395913 Y-167.671346 Z0.000000 I6.026084 J-3.181621
G03 X968.630863 Y-173.066948 Z0.000000 I8.665192 J2.441432
G03 X976.316009 Y-175.764934 Z0.000000 I11.389156 J20.147257
G03 X998.272567 Y-177.192685 Z0.000000 I18.407088 J113.529473
G03 X983.635762 Y-183.550813 Z0.000000 I9.296702 J-41.428065
G03 X980.591098 Y-188.076347 Z0.000000 I4.147405 J-6.077222
G03 X981.788821 Y-193.695220 Z0.000000 I6.847793 J-1.477410
G03 X988.538696 Y-199.669814 Z0.000000 I17.138844 J12.562656
G03 X1007.024169 Y-204.231808 Z0.000000 I17.521024 J31.263119
G03 X1029.752304 Y-192.335172 Z0.000000 I-0.784983 J29.158681
G03 X1039.306844 Y-205.895502 Z0.000000 I13.263658 J-0.800700
G03 X1060.817834 Y-206.886156 Z0.000000 I12.807332 J44.058147
G03 X1071.265028 Y-203.328635 Z0.000000 I-7.644987 J39.569284
G03 X1076.350608 Y-198.590320 Z0.000000 I-5.558726 J11.064422
G03 X1076.797018 Y-193.243422 Z0.000000 I-5.270033 J3.132078
G03 X1069.516195 Y-183.817521 Z0.000000 I-19.546218 J-7.573128
G03 X1089.273011 Y-186.981830 Z0.000000 I21.456273 J70.705894
G03 X1098.924900 Y-185.414581 Z0.000000 I0.614688 J26.718604
G03 X1106.417727 Y-179.917766 Z0.000000 I-5.531966 J15.395965
G03 X1108.451664 Y-173.880265 Z0.000000 I-7.943833 J6.037501
G03 X1102.858460 Y-163.877059 Z0.000000 I-11.741754 J0.000000
G03 X1072.829850 Y-158.264575 Z0.000000 I-22.328401 J-36.326545
G03 X1080.943834 Y-148.395377 Z0.000000 I-16.268622 J21.645349
G03 X1081.243926 Y-142.805133 Z0.000000 I-6.529766 J3.153704
G03 X1077.252687 Y-137.641347 Z0.000000 I-9.910038 J-3.535389
G03 X1068.070444 Y-133.251811 Z0.000000 I-18.966077 J-27.875461
G03 X1045.199435 Y-130.976462 Z0.000000 I-17.187700 J-56.681365
G03 X1029.784171 Y-139.872318 Z0.000000 I2.060476 J-21.374683
G02 X1050.463872 Y-126.763874 Z0.000000 I26.505132 J-18.947904
G02 X1075.167758 Y-127.209814 Z0.000000 I11.239506 J-61.849068
G02 X1096.715682 Y-137.516729 Z0.000000 I-11.206565 J-51.106559
G02 X1099.402857 Y-148.925821 Z0.000000 I-5.960851 J-7.424955
G02 X1115.357255 Y-153.277709 Z0.000000 I-10.180375 J-68.743191
G02 X1123.323313 Y-158.138486 Z0.000000 I-10.858483 J-26.753317
G02 X1128.503209 Y-165.404384 Z0.000000 I-12.174314 J-14.158467
G02 X1129.225766 Y-172.231055 Z0.000000 I-11.847781 J-4.705582
G02 X1122.029382 Y-183.478271 Z0.000000 I-16.824190 J2.838874
G02 X1094.432357 Y-193.406878 Z0.000000 I-32.904264 J48.141024
G02 X1083.515694 Y-209.963108 Z0.000000 I-24.241521 J4.106936
G02 X1063.159734 Y-217.540216 Z0.000000 I-27.409933 J42.505219
G02 X1038.358839 Y-217.032190 Z0.000000 I-10.830513 J76.895291
G02 X1023.188729 Y-210.442175 Z0.000000 I6.556187 J35.847925
G03 X1026.409966 Y-222.031871 Z0.000000 I16.637924 J-1.618162
G03 X1044.934616 Y-239.780745 Z0.000000 I61.704622 J45.860034
G03 X1068.233810 Y-251.979260 Z0.000000 I64.890345 J95.590705
G03 X1102.716511 Y-260.601664 Z0.000000 I52.049506 J134.893493
G03 X1153.499423 Y-260.163172 Z0.000000 I23.467602 J223.025482
G03 X1200.469394 Y-246.642184 Z0.000000 I-18.897334 J153.990594
G03 X1219.740775 Y-234.596493 Z0.000000 I-40.240706 J85.817934
G03 X1231.793810 Y-220.409008 Z0.000000 I-31.311785 J38.814647
G03 X1236.901586 Y-203.497319 Z0.000000 I-34.704312 J19.708803
G03 X1233.605959 Y-180.157200 Z0.000000 I-56.288863 J3.954739
G02 X1221.279365 Y-187.616703 Z0.000000 I-14.320270 J9.749390
G02 X1192.392350 Y-189.739555 Z0.000000 I-39.712091 J342.784361
G03 X1162.840997 Y-191.641099 Z0.000000 I14.127393 J-450.125240
G03 X1137.509903 Y-200.031717 Z0.000000 I5.858514 J-60.119048
G03 X1123.718605 Y-211.487069 Z0.000000 I25.660419 J-44.922494
G03 X1116.799548 Y-226.649369 Z0.000000 I23.368540 J-19.823681
G03 X1119.735298 Y-239.739632 Z0.000000 I18.177711 J-2.797621
G03 X1140.823558 Y-256.816045 Z0.000000 I38.523102 J26.014007
G02 X1145.440765 Y-240.969459 Z0.000000 I39.354314 J-2.870686
G02 X1158.013170 Y-225.939565 Z0.000000 I42.911439 J-23.121818
G02 X1175.227945 Y-216.505479 Z0.000000 I36.005346 J-45.277170
G02 X1203.783067 Y-211.388579 Z0.000000 I30.812154 J-89.713698
G03 X1168.311472 Y-231.296366 Z0.000000 I46.909312 J-125.138227
G03 X1156.149237 Y-247.470290 Z0.000000 I24.095513 J-30.778752
G03 X1155.814470 Y-266.055971 Z0.000000 I24.158029 J-9.730992
G03 X1170.646485 Y-287.101020 Z0.000000 I45.882103 J16.587399
G03 X1194.952017 Y-301.944715 Z0.000000 I51.051583 J56.272296
G03 X1231.120722 Y-310.524555 Z0.000000 I51.731178 J137.549805
G03 X1268.563039 Y-310.399459 Z0.000000 I18.151908 J170.444105
G03 X1306.506432 Y-301.297102 Z0.000000 I-17.944828 J158.438600
G03 X1323.412324 Y-289.167694 Z0.000000 I-12.950218 J35.896299
G03 X1324.731546 Y-281.777489 Z0.000000 I-6.174272 J4.915016
G03 X1318.707892 Y-274.476965 Z0.000000 I-12.399915 J-4.095839
G03 X1303.192777 Y-270.065719 Z0.000000 I-17.047773 J-30.469672
G03 X1292.097166 Y-270.877323 Z0.000000 I-2.516332 J-41.849705
G03 X1286.831597 Y-273.038025 Z0.000000 I3.194805 J-15.282022
G03 X1282.736576 Y-277.127023 Z0.000000 I7.453064 J-11.559067
G03 X1280.411384 Y-281.777490 Z0.000000 I19.789042 J-12.800868
G03 X1277.074574 Y-291.462064 Z0.000000 I225.617737 J-83.153469
G02 X1270.056195 Y-298.457887 Z0.000000 I-10.285867 J3.300617
G02 X1252.027647 Y-301.487710 Z0.000000 I-19.858527 J63.012334
G02 X1242.485523 Y-300.084520 Z0.000000 I-0.772833 J27.890791
G02 X1234.666314 Y-294.989402 Z0.000000 I5.752556 J17.375569
G02 X1232.156228 Y-289.467033 Z0.000000 I7.398345 J6.694414
G02 X1233.358091 Y-283.547054 Z0.000000 I9.592079 J1.134624
G02 X1239.534292 Y-277.429937 Z0.000000 I14.059535 J-8.018847
G02 X1248.070311 Y-274.578676 Z0.000000 I11.829739 J-21.212444
G02 X1265.085696 Y-274.797746 Z0.000000 I7.777526 J-56.822105
G02 X1251.608143 Y-266.596135 Z0.000000 I17.137783 J43.336703
G02 X1249.035169 Y-261.917760 Z0.000000 I5.097757 J5.850341
G02 X1250.549935 Y-256.778489 Z0.000000 I6.240666 J0.953475
G02 X1257.215766 Y-251.965715 Z0.000000 I14.064415 J-12.457050
G02 X1275.698330 Y-248.921252 Z0.000000 I15.421459 J-35.996873
G02 X1296.565468 Y-259.655260 Z0.000000 I-2.372814 J-30.262884
G02 X1308.995766 Y-245.462985 Z0.000000 I16.436760 J-1.856456
G02 X1329.909133 Y-245.340878 Z0.000000 I10.707467 J-42.891033
G02 X1339.732305 Y-249.273081 Z0.000000 I-8.294037 J-34.955526
G02 X1343.862733 Y-253.932464 Z0.000000 I-5.037522 J-8.626090
G02 X1343.536648 Y-258.753986 Z0.000000 I-4.840651 J-2.094410
G02 X1334.672514 Y-267.226503 Z0.000000 I-20.068157 J12.122564
G02 X1367.074798 Y-267.572983 Z0.000000 I15.724655 J-44.733706
G02 X1376.714541 Y-277.163761 Z0.000000 I-5.819849 J-15.489428
G02 X1376.646570 Y-283.368102 Z0.000000 I-7.904403 J-3.015947
G02 X1370.786200 Y-289.851510 Z0.000000 I-11.850895 J4.821750
G02 X1361.415489 Y-292.773107 Z0.000000 I-12.489268 J23.569412
G02 X1337.986169 Y-292.779452 Z0.000000 I-11.741669 J99.741210
G02 X1348.242557 Y-302.645610 Z0.000000 I-16.083977 J-26.984241
G02 X1348.988542 Y-307.966303 Z0.000000 I-5.322290 J-3.458851
G02 X1345.139882 Y-313.125645 Z0.000000 I-9.143115 J2.805251
G02 X1335.293822 Y-317.740897 Z0.000000 I-20.364603 J30.635030
G02 X1324.156211 Y-319.846466 Z0.000000 I-15.739979 J52.748622
G02 X1312.590100 Y-319.530195 Z0.000000 I-4.364829 J52.023041
G02 X1302.149911 Y-316.317279 Z0.000000 I4.723973 J33.919151
G02 X1296.565468 Y-310.761157 Z0.000000 I5.475959 J11.088387
G03 X1304.878860 Y-322.166461 Z0.000000 I11.980275 J0.000000
G03 X1330.737543 Y-324.957237 Z0.000000 I19.689282 J61.240648
G03 X1356.253875 Y-317.427667 Z0.000000 I-6.723818 J69.785657
G03 X1366.152251 Y-302.243506 Z0.000000 I-8.457670 J16.331853
G03 X1386.766402 Y-295.282606 Z0.000000 I-18.024503 J87.382155
G03 X1394.240669 Y-289.585334 Z0.000000 I-10.073743 J20.967164
G03 X1397.507721 Y-281.482442 Z0.000000 I-10.086200 J8.776789
G03 X1395.768059 Y-274.087945 Z0.000000 I-13.655800 J0.689166
G03 X1382.324716 Y-261.721206 Z0.000000 I-25.727658 J-14.477212
G03 X1359.524942 Y-258.708856 Z0.000000 I-16.306961 J-35.634324
G03 X1357.962776 Y-244.922569 Z0.000000 I-9.666721 J5.886285
G03 X1339.021675 Y-233.747410 Z0.000000 I-30.047818 J-29.289428
G03 X1312.933019 Y-231.299817 Z0.000000 I-19.992736 J-72.838611
G03 X1289.938123 Y-240.727151 Z0.000000 I3.305180 J-40.819832
G02 X1316.605344 Y-211.290818 Z0.000000 I75.125294 J-41.260697
G02 X1352.276320 Y-194.471583 Z0.000000 I69.852027 J-101.909351
G02 X1393.194618 Y-188.252970 Z0.000000 I44.336740 J-154.004582
G02 X1430.768570 Y-191.514066 Z0.000000 I3.734953 J-175.058135
G02 X1473.137049 Y-205.849182 Z0.000000 I-32.447828 J-165.681038
G02 X1496.420412 Y-223.455251 Z0.000000 I-34.547991 J-69.887137
G02 X1504.375183 Y-235.259829 Z0.000000 I-37.290301 J-33.711415
G02 X1507.422789 Y-246.612610 Z0.000000 I-28.207850 J-13.657726
G02 X1505.953304 Y-258.024700 Z0.000000 I-28.643660 J-2.112337
G02 X1498.698543 Y-271.012127 Z0.000000 I-39.376614 J13.475765
G03 X1490.042620 Y-264.379367 Z0.000000 I-13.187105 J-8.245032
G03 X1472.810592 Y-261.193169 Z0.000000 I-22.679240 J-74.465553
G03 X1454.103268 Y-260.759084 Z0.000000 I-13.984502 J-199.353573
G02 X1435.739069 Y-260.601664 Z0.000000 I-6.739048 J285.079231
G02 X1400.894486 Y-248.644713 Z0.000000 I3.739473 J67.647447
G02 X1386.862615 Y-230.908193 Z0.000000 I22.107001 J31.908253
G02 X1384.775015 Y-219.572352 Z0.000000 I28.175497 J11.048923
G02 X1387.276825 Y-209.096505 Z0.000000 I24.142118 J-0.228887
G02 X1393.905393 Y-200.799369 Z0.000000 I22.339350 J-11.050526
G02 X1407.572987 Y-193.406878 Z0.000000 I26.452856 J-32.576413
G03 X1409.475211 Y-206.091706 Z0.000000 I26.786504 J-2.468125
G03 X1420.620491 Y-221.562440 Z0.000000 I37.922414 J15.569751
G03 X1437.119956 Y-231.474975 Z0.000000 I36.984760 J42.873332
G03 X1472.189271 Y-239.780747 Z0.000000 I47.516565 J122.439194
G02 X1447.403048 Y-228.696967 Z0.000000 I47.182713 J138.768968
G02 X1433.642130 Y-218.501410 Z0.000000 I33.887449 J60.122124
G02 X1423.856333 Y-205.058415 Z0.000000 I32.148783 J33.685905
G02 X1421.034707 Y-193.051975 Z0.000000 I25.572666 J12.344590
G02 X1429.437241 Y-171.472212 Z0.000000 I30.965237 J0.368767
G02 X1465.561962 Y-147.033010 Z0.000000 I72.331615 J-67.998307
G02 X1500.806435 Y-139.105946 Z0.000000 I43.980331 J-113.227034
G02 X1544.882634 Y-140.526472 Z0.000000 I15.246344 J-211.445421
G02 X1582.989647 Y-152.350077 Z0.000000 I-16.573166 J-120.735169
G02 X1593.137754 Y-168.800333 Z0.000000 I-8.259022 J-16.450257
G02 X1588.648311 Y-175.728711 Z0.000000 I-9.796439 J1.429165
G02 X1575.533962 Y-180.985304 Z0.000000 I-20.637971 J32.501012
G02 X1561.646657 Y-181.211691 Z0.000000 I-7.564343 J37.961972
G02 X1551.717053 Y-175.425172 Z0.000000 I2.639627 J15.942377
G02 X1545.925723 Y-165.811501 Z0.000000 I19.253801 J18.149801
G03 X1543.847123 Y-160.282686 Z0.000000 I-89.819440 J-30.613150
G03 X1540.655286 Y-156.242028 Z0.000000 I-8.679581 J-3.575269
G03 X1528.521470 Y-150.818632 Z0.000000 I-19.170330 J-26.604713
G03 X1508.690206 Y-152.249718 Z0.000000 I-7.956847 J-27.859394
G03 X1498.491442 Y-161.820595 Z0.000000 I8.809437 J-19.606730
G03 X1497.958471 Y-166.850240 Z0.000000 I6.026084 J-3.181621
G03 X1502.193421 Y-172.245842 Z0.000000 I8.665192 J2.441432
G03 X1509.878567 Y-174.943829 Z0.000000 I11.389156 J20.147257
G03 X1531.835125 Y-176.371580 Z0.000000 I18.407088 J113.529476
G03 X1517.198320 Y-182.729708 Z0.000000 I9.296702 J-41.428065
G03 X1514.153656 Y-187.255242 Z0.000000 I4.147405 J-6.077222
G03 X1515.351379 Y-192.874115 Z0.000000 I6.847793 J-1.477410
G03 X1522.101254 Y-198.848708 Z0.000000 I17.138844 J12.562656
G03 X1540.586727 Y-203.410702 Z0.000000 I17.521024 J31.263119
G03 X1563.314862 Y-191.514066 Z0.000000 I-0.784983 J29.158681
G03 X1572.869402 Y-205.074397 Z0.000000 I13.263658 J-0.800700
G03 X1594.380392 Y-206.065050 Z0.000000 I12.807332 J44.058147
G03 X1604.827586 Y-202.507529 Z0.000000 I-7.644987 J39.569284
G03 X1609.913166 Y-197.769214 Z0.000000 I-5.558726 J11.064422
G03 X1610.359576 Y-192.422316 Z0.000000 I-5.270033 J3.132078
G03 X1603.078753 Y-182.996415 Z0.000000 I-19.546218 J-7.573128
G03 X1622.835569 Y-186.160725 Z0.000000 I21.456273 J70.705895
G03 X1632.487458 Y-184.593475 Z0.000000 I0.614688 J26.718605
G03 X1639.980285 Y-179.096661 Z0.000000 I-5.531966 J15.395965
G03 X1642.014222 Y-173.059159 Z0.000000 I-7.943833 J6.037501
G03 X1636.421018 Y-163.055954 Z0.000000 I-11.741754 J-0.000000
G03 X1606.392408 Y-157.443470 Z0.000000 I-22.328401 J-36.326545
G03 X1614.508574 Y-147.573204 Z0.000000 I-16.276720 J21.656125
G03 X1614.809828 Y-141.988493 Z0.000000 I-6.524502 J3.152430
G03 X1610.822979 Y-136.832092 Z0.000000 I-9.882515 J-3.521522
G03 X1601.659754 Y-132.466425 Z0.000000 I-18.818291 J-27.698939
G03 X1578.895025 Y-130.282507 Z0.000000 I-16.858091 J-55.985950
G03 X1563.560749 Y-139.336959 Z0.000000 I2.147484 J-21.148898
G02 X1584.328965 Y-126.391078 Z0.000000 I26.460655 J-19.317595
G02 X1609.131621 Y-126.924482 Z0.000000 I11.059066 J-62.680324
G02 X1630.708353 Y-137.271202 Z0.000000 I-11.356831 J-51.354272
G02 X1633.393489 Y-148.676207 Z0.000000 I-5.960623 J-7.421929
G02 X1649.347887 Y-153.028095 Z0.000000 I-10.180371 J-68.743160
G02 X1657.313941 Y-157.888873 Z0.000000 I-10.858475 J-26.753290
G02 X1662.493832 Y-165.154770 Z0.000000 I-12.174308 J-14.158452
G02 X1663.216386 Y-171.981442 Z0.000000 I-11.847788 J-4.705577
G02 X1656.019996 Y-183.228663 Z0.000000 I-16.824208 J2.838884
G02 X1628.422990 Y-193.157266 Z0.000000 I-32.904246 J48.140984
G02 X1617.506307 Y-209.713498 Z0.000000 I-24.241552 J4.106970
G02 X1597.150341 Y-217.290604 Z0.000000 I-27.409947 J42.505276
G02 X1572.349445 Y-216.782577 Z0.000000 I-10.830510 J76.895266
G02 X1557.179361 Y-210.192564 Z0.000000 I6.556169 J35.847802
G03 X1560.400585 Y-221.782259 Z0.000000 I16.637874 J-1.618192
G03 X1578.925236 Y-239.531133 Z0.000000 I61.704580 J45.859990
G03 X1602.224438 Y-251.729649 Z0.000000 I64.890362 J95.590758
G03 X1636.707144 Y-260.352053 Z0.000000 I52.049520 J134.893573
G03 X1687.490052 Y-259.913560 Z0.000000 I23.467598 J223.025442
G03 X1734.460014 Y-246.392573 Z0.000000 I-18.897332 J153.990546
G03 X1753.731391 Y-234.346882 Z0.000000 I-40.240710 J85.817929
G03 X1765.784428 Y-220.159396 Z0.000000 I-31.311801 J38.814664
G03 X1770.892208 Y-203.247707 Z0.000000 I-34.704333 J19.708820
G03 X1767.596591 Y-179.907588 Z0.000000 I-56.288874 J3.954759
G02 X1755.269996 Y-187.367091 Z0.000000 I-14.320271 J9.749390
G02 X1726.382970 Y-189.489944 Z0.000000 I-39.712113 J342.784801
G03 X1696.831606 Y-191.391488 Z0.000000 I14.127395 J-450.125392
G03 X1671.500535 Y-199.782105 Z0.000000 I5.858502 J-60.118929
G03 X1657.709219 Y-211.237462 Z0.000000 I25.660361 J-44.922472
G03 X1650.790167 Y-226.399757 Z0.000000 I23.368508 J-19.823658
G03 X1653.725922 Y-239.490021 Z0.000000 I18.177715 J-2.797615
G03 X1674.814190 Y-256.566433 Z0.000000 I38.523125 J26.014043
G02 X1679.431378 Y-240.719847 Z0.000000 I39.354229 J-2.870619
G02 X1692.003772 Y-225.689953 Z0.000000 I42.911388 J-23.121752
G02 X1709.218541 Y-216.255868 Z0.000000 I36.005328 J-45.277127
G02 X1737.773664 Y-211.138968 Z0.000000 I30.812155 J-89.713695
G03 X1702.302076 Y-231.046755 Z0.000000 I46.909273 J-125.138123
G03 X1690.139852 Y-247.220678 Z0.000000 I24.095495 J-30.778715
G03 X1689.805095 Y-265.806358 Z0.000000 I24.158036 J-9.730979
G03 X1704.637117 Y-286.851409 Z0.000000 I45.882143 J16.587437
G03 X1728.942650 Y-301.695104 Z0.000000 I51.051586 J56.272300
G03 X1765.111350 Y-310.274943 Z0.000000 I51.731174 J137.549790
G03 X1802.553661 Y-310.149847 Z0.000000 I18.151903 J170.444033
G03 X1840.497029 Y-301.047491 Z0.000000 I-17.944809 J158.438373
G03 X1857.402921 Y-288.918083 Z0.000000 I-12.950218 J35.896299
G03 X1858.722143 Y-281.527877 Z0.000000 I-6.174272 J4.915016
G03 X1852.698490 Y-274.227353 Z0.000000 I-12.399915 J-4.095839
G03 X1837.183375 Y-269.816107 Z0.000000 I-17.047773 J-30.469672
G03 X1826.087764 Y-270.627712 Z0.000000 I-2.516332 J-41.849705
G03 X1820.822195 Y-272.788414 Z0.000000 I3.194804 J-15.282017
G03 X1816.727175 Y-276.877412 Z0.000000 I7.453060 J-11.559060
G03 X1814.401985 Y-281.527878 Z0.000000 I19.789014 J-12.800843
G03 X1811.065186 Y-291.212458 Z0.000000 I225.612747 J-83.151484
G02 X1804.046828 Y-298.208275 Z0.000000 I-10.285844 J3.300592
G02 X1786.018279 Y-301.238098 Z0.000000 I-19.858527 J63.012334
G02 X1776.476155 Y-299.834908 Z0.000000 I-0.772833 J27.890791
G02 X1768.656946 Y-294.739791 Z0.000000 I5.752556 J17.375569
G02 X1766.146861 Y-289.217421 Z0.000000 I7.398345 J6.694414
G02 X1767.348723 Y-283.297442 Z0.000000 I9.592079 J1.134624
G02 X1773.524925 Y-277.180326 Z0.000000 I14.059535 J-8.018847
G02 X1782.060944 Y-274.329064 Z0.000000 I11.829739 J-21.212444
G02 X1799.076328 Y-274.548135 Z0.000000 I7.777526 J-56.822105
G02 X1785.598775 Y-266.346523 Z0.000000 I17.137784 J43.336704
G02 X1783.025801 Y-261.668148 Z0.000000 I5.097758 J5.850342
G02 X1784.540566 Y-256.528877 Z0.000000 I6.240666 J0.953475
G02 X1791.206394 Y-251.716104 Z0.000000 I14.064411 J-12.457042
G02 X1809.688951 Y-248.671641 Z0.000000 I15.421453 J-35.996844
G02 X1830.556065 Y-259.405649 Z0.000000 I-2.372811 J-30.262827
G02 X1842.986364 Y-245.213373 Z0.000000 I16.436760 J-1.856456
G02 X1863.899731 Y-245.091266 Z0.000000 I10.707467 J-42.891033
G02 X1873.722903 Y-249.023469 Z0.000000 I-8.294037 J-34.955526
G02 X1877.853330 Y-253.682853 Z0.000000 I-5.037522 J-8.626090
G02 X1877.527246 Y-258.504375 Z0.000000 I-4.840651 J-2.094410
G02 X1868.663112 Y-266.976892 Z0.000000 I-20.068157 J12.122564
G02 X1901.065396 Y-267.323371 Z0.000000 I15.724655 J-44.733706
G02 X1910.705138 Y-276.914150 Z0.000000 I-5.819849 J-15.489428
G02 X1910.637167 Y-283.118490 Z0.000000 I-7.904403 J-3.015947
G02 X1904.776797 Y-289.601898 Z0.000000 I-11.850895 J4.821750
G02 X1895.406086 Y-292.523496 Z0.000000 I-12.489268 J23.569412
G02 X1871.976766 Y-292.529840 Z0.000000 I-11.741669 J99.741210
G02 X1882.233154 Y-302.395998 Z0.000000 I-16.083977 J-26.984241
G02 X1882.979140 Y-307.716691 Z0.000000 I-5.322290 J-3.458851
G02 X1879.130479 Y-312.876033 Z0.000000 I-9.143115 J2.805251
G02 X1869.284420 Y-317.491285 Z0.000000 I-20.364603 J30.635030
G02 X1858.146808 Y-319.596854 Z0.000000 I-15.739979 J52.748622
G02 X1846.580697 Y-319.280583 Z0.000000 I-4.364829 J52.023041
G02 X1836.140509 Y-316.067668 Z0.000000 I4.723973 J33.919151
G02 X1830.556065 Y-310.511545 Z0.000000 I5.475959 J11.088387
G03 X1838.869459 Y-321.916849 Z0.000000 I11.980274 J0.000000
G03 X1864.728157 Y-324.707626 Z0.000000 I19.689294 J61.240720
G03 X1890.244506 Y-317.178054 Z0.000000 I-6.723822 J69.785727
G03 X1900.142883 Y-301.993895 Z0.000000 I-8.457665 J16.331852
G03 X1920.757021 Y-295.032994 Z0.000000 I-18.024490 J87.382041
G03 X1928.231281 Y-289.335722 Z0.000000 I-10.073737 J20.967136
G03 X1931.498327 Y-281.232832 Z0.000000 I-10.086199 J8.776779
G03 X1929.758661 Y-273.838333 Z0.000000 I-13.655812 J0.689158
G03 X1916.315313 Y-261.471594 Z0.000000 I-25.727672 J-14.477231
G03 X1893.515539 Y-258.459245 Z0.000000 I-16.306960 J-35.634324
G03 X1891.953377 Y-244.672956 Z0.000000 I-9.666725 J5.886287
G03 X1873.012290 Y-233.497798 Z0.000000 I-30.047797 J-29.289382
G03 X1846.923650 Y-231.050206 Z0.000000 I-19.992724 J-72.838527
G03 X1823.928756 Y-240.477539 Z0.000000 I3.305181 J-40.819831
G02 X1850.595973 Y-211.041205 Z0.000000 I75.125317 J-41.260709
G02 X1886.266935 Y-194.221971 Z0.000000 I69.852004 J-101.909283
G02 X1927.185218 Y-188.003359 Z0.000000 I44.336724 J-154.004473
G02 X1964.759167 Y-191.264454 Z0.000000 I3.734954 J-175.058120
G02 X2007.127647 Y-205.599570 Z0.000000 I-32.447828 J-165.681038
G02 X2030.411010 Y-223.205639 Z0.000000 I-34.547991 J-69.887137
G02 X2038.365781 Y-235.010217 Z0.000000 I-37.290301 J-33.711415
G02 X2041.413386 Y-246.362998 Z0.000000 I-28.207850 J-13.657726
G02 X2039.943902 Y-257.775088 Z0.000000 I-28.643660 J-2.112337
G02 X2032.689141 Y-270.762515 Z0.000000 I-39.376614 J13.475765
G03 X2024.033218 Y-264.129755 Z0.000000 I-13.187105 J-8.245032
G03 X2006.801190 Y-260.943557 Z0.000000 I-22.679240 J-74.465553
G03 X1988.093865 Y-260.509472 Z0.000000 I-13.984502 J-199.353573
G02 X1969.729667 Y-260.352053 Z0.000000 I-6.739048 J285.079231
G02 X1934.885090 Y-248.395100 Z0.000000 I3.739471 J67.647417
G02 X1920.853225 Y-230.658581 Z0.000000 I22.106998 J31.908237
G02 X1918.765628 Y-219.322740 Z0.000000 I28.175509 J11.048919
G02 X1921.267438 Y-208.846893 Z0.000000 I24.142133 J-0.228889
G02 X1927.896003 Y-200.549756 Z0.000000 I22.339358 J-11.050525
G02 X1941.563584 Y-193.157266 Z0.000000 I26.452841 J-32.576372
G03 X1943.465808 Y-205.842094 Z0.000000 I26.786504 J-2.468125
G03 X1954.611089 Y-221.312828 Z0.000000 I37.922414 J15.569751
G03 X1971.110553 Y-231.225363 Z0.000000 I36.984760 J42.873332
G03 X2006.179868 Y-239.531135 Z0.000000 I47.516565 J122.439194
G02 X1981.393646 Y-228.447355 Z0.000000 I47.182713 J138.768968
G02 X1967.632727 Y-218.251798 Z0.000000 I33.887449 J60.122123
G02 X1957.846930 Y-204.808803 Z0.000000 I32.148783 J33.685905
G02 X1955.025304 Y-192.802363 Z0.000000 I25.572667 J12.344590
G02 X1963.427839 Y-171.222600 Z0.000000 I30.965238 J0.368767
G02 X1999.552559 Y-146.783396 Z0.000000 I72.331620 J-67.998309
G02 X2034.797032 Y-138.856332 Z0.000000 I43.980330 J-113.227033
G02 X2078.873231 Y-140.276858 Z0.000000 I15.246343 J-211.445413
G02 X2116.980244 Y-152.100464 Z0.000000 I-16.573166 J-120.735163
G02 X2127.128352 Y-168.550722 Z0.000000 I-8.259023 J-16.450258
G02 X2122.638909 Y-175.479099 Z0.000000 I-9.796439 J1.429165
G02 X2109.524559 Y-180.735692 Z0.000000 I-20.637971 J32.501012
G02 X2095.637254 Y-180.962079 Z0.000000 I-7.564343 J37.961972
G02 X2085.707651 Y-175.175561 Z0.000000 I2.639627 J15.942377
G02 X2079.916320 Y-165.561889 Z0.000000 I19.253800 J18.149800
G03 X2077.837721 Y-160.033073 Z0.000000 I-89.819474 J-30.613159
G03 X2074.645883 Y-155.992414 Z0.000000 I-8.679583 J-3.575269
G03 X2062.512068 Y-150.569018 Z0.000000 I-19.170328 J-26.604708
G03 X2042.680803 Y-152.000105 Z0.000000 I-7.956847 J-27.859393
G03 X2032.482040 Y-161.570982 Z0.000000 I8.809438 J-19.606731
G03 X2031.949068 Y-166.600628 Z0.000000 I6.026085 J-3.181621
G03 X2036.184019 Y-171.996230 Z0.000000 I8.665192 J2.441432
G03 X2043.869164 Y-174.694217 Z0.000000 I11.389156 J20.147256
G03 X2065.825723 Y-176.121968 Z0.000000 I18.407089 J113.529468
G03 X2051.188918 Y-182.480096 Z0.000000 I9.296702 J-41.428065
G03 X2048.144254 Y-187.005630 Z0.000000 I4.147405 J-6.077222
G03 X2049.341977 Y-192.624503 Z0.000000 I6.847793 J-1.477410
G03 X2056.091851 Y-198.599096 Z0.000000 I17.138844 J12.562656
G03 X2074.577325 Y-203.161090 Z0.000000 I17.521024 J31.263119
G03 X2097.305460 Y-191.264454 Z0.000000 I-0.784983 J29.158681
G03 X2106.860000 Y-204.824785 Z0.000000 I13.263658 J-0.800700
G03 X2128.370990 Y-205.815439 Z0.000000 I12.807332 J44.058147
G03 X2138.818184 Y-202.257917 Z0.000000 I-7.644987 J39.569284
G03 X2143.903763 Y-197.519603 Z0.000000 I-5.558726 J11.064422
G03 X2144.350174 Y-192.172705 Z0.000000 I-5.270033 J3.132078
G03 X2137.069351 Y-182.746804 Z0.000000 I-19.546218 J-7.573128
G03 X2156.826167 Y-185.911113 Z0.000000 I21.456272 J70.705892
G03 X2166.478056 Y-184.343863 Z0.000000 I0.614688 J26.718604
G03 X2173.970882 Y-178.847048 Z0.000000 I-5.531966 J15.395965
G03 X2176.004820 Y-172.809547 Z0.000000 I-7.943834 J6.037502
G03 X2170.411616 Y-162.806341 Z0.000000 I-11.741755 J0.000000
G03 X2140.383005 Y-157.193856 Z0.000000 I-22.328401 J-36.326543
G03 X2148.498051 Y-147.323900 Z0.000000 I-16.272004 J21.649850
G03 X2148.796195 Y-141.740322 Z0.000000 I-6.516464 J3.147706
G03 X2144.804122 Y-136.589519 Z0.000000 I-9.871897 J-3.528697
G03 X2135.616506 Y-132.228350 Z0.000000 I-18.806665 J-27.761449
G03 X2112.816486 Y-130.071488 Z0.000000 I-16.813664 J-56.148891
G03 X2097.280581 Y-139.179655 Z0.000000 I2.216061 J-21.583930
G02 X2117.858082 Y-126.293041 Z0.000000 I26.164943 J-18.907989
G02 X2142.614485 Y-126.847948 Z0.000000 I10.983498 J-62.500154
G02 X2164.157400 Y-137.197913 Z0.000000 I-11.421063 J-51.367564
G02 X2166.842485 Y-148.611212 Z0.000000 I-5.968442 J-7.426627
G02 X2182.796884 Y-152.963100 Z0.000000 I-10.180375 J-68.743188
G02 X2190.762942 Y-157.823878 Z0.000000 I-10.858483 J-26.753317
G02 X2195.942838 Y-165.089776 Z0.000000 I-12.174315 J-14.158468
G02 X2196.665395 Y-171.916447 Z0.000000 I-11.847782 J-4.705582
G02 X2189.469011 Y-183.163663 Z0.000000 I-16.824191 J2.838874
G02 X2161.871986 Y-193.092270 Z0.000000 I-32.904263 J48.141021
G02 X2150.955323 Y-209.648500 Z0.000000 I-24.241521 J4.106936
G02 X2130.599363 Y-217.225609 Z0.000000 I-27.409933 J42.505219
G02 X2105.798468 Y-216.717582 Z0.000000 I-10.830513 J76.895291
G02 X2090.628358 Y-210.127568 Z0.000000 I6.556187 J35.847925
G03 X2093.849595 Y-221.717264 Z0.000000 I16.637924 J-1.618162
G03 X2112.374245 Y-239.466137 Z0.000000 I61.704622 J45.860034
G03 X2135.673439 Y-251.664652 Z0.000000 I64.890345 J95.590705
G03 X2170.156140 Y-260.287057 Z0.000000 I52.049506 J134.893493
G03 X2220.939052 Y-259.848565 Z0.000000 I23.467602 J223.025482
G03 X2267.909023 Y-246.327577 Z0.000000 I-18.897334 J153.990594
G03 X2287.180404 Y-234.281886 Z0.000000 I-40.240706 J85.817934
G03 X2299.233439 Y-220.094400 Z0.000000 I-31.311785 J38.814647
G03 X2304.341215 Y-203.182712 Z0.000000 I-34.704312 J19.708803
G03 X2301.045588 Y-179.842592 Z0.000000 I-56.288863 J3.954739
G02 X2288.718994 Y-187.302095 Z0.000000 I-14.320270 J9.749390
G02 X2259.831979 Y-189.424948 Z0.000000 I-39.712091 J342.784361
G03 X2230.280626 Y-191.326492 Z0.000000 I14.127393 J-450.125240
G03 X2204.949532 Y-199.717109 Z0.000000 I5.858514 J-60.119048
G03 X2191.158234 Y-211.172461 Z0.000000 I25.660419 J-44.922494
G03 X2184.239177 Y-226.334762 Z0.000000 I23.368540 J-19.823681
G03 X2187.174927 Y-239.425025 Z0.000000 I18.177711 J-2.797621
G03 X2208.263187 Y-256.501437 Z0.000000 I38.523102 J26.014007
G02 X2212.880393 Y-240.654852 Z0.000000 I39.354314 J-2.870686
G02 X2225.452799 Y-225.624958 Z0.000000 I42.911439 J-23.121818
G02 X2242.667574 Y-216.190872 Z0.000000 I36.005346 J-45.277170
G02 X2271.222695 Y-211.073972 Z0.000000 I30.812154 J-89.713698
G03 X2235.751101 Y-230.981758 Z0.000000 I46.909312 J-125.138227
G03 X2223.588866 Y-247.155682 Z0.000000 I24.095513 J-30.778752
G03 X2223.254099 Y-265.741363 Z0.000000 I24.158029 J-9.730992
G03 X2238.086114 Y-286.786413 Z0.000000 I45.882103 J16.587399
G03 X2262.391646 Y-301.630108 Z0.000000 I51.051583 J56.272296
G03 X2298.560351 Y-310.209948 Z0.000000 I51.731178 J137.549805
G03 X2336.002668 Y-310.084852 Z0.000000 I18.151908 J170.444105
G03 X2373.946061 Y-300.982495 Z0.000000 I-17.944828 J158.438600
G03 X2390.851953 Y-288.853087 Z0.000000 I-12.950218 J35.896299
G03 X2392.171174 Y-281.462881 Z0.000000 I-6.174272 J4.915016
G03 X2386.147521 Y-274.162358 Z0.000000 I-12.399915 J-4.095839
G03 X2370.632406 Y-269.751112 Z0.000000 I-17.047773 J-30.469672
G03 X2359.536795 Y-270.562716 Z0.000000 I-2.516332 J-41.849705
G03 X2354.271226 Y-272.723418 Z0.000000 I3.194805 J-15.282022
G03 X2350.176205 Y-276.812416 Z0.000000 I7.453064 J-11.559067
G03 X2347.851012 Y-281.462882 Z0.000000 I19.789042 J-12.800868
G03 X2344.514203 Y-291.147457 Z0.000000 I225.617737 J-83.153469
G02 X2337.495824 Y-298.143279 Z0.000000 I-10.285867 J3.300617
G02 X2319.467275 Y-301.173102 Z0.000000 I-19.858527 J63.012334
G02 X2309.925152 Y-299.769913 Z0.000000 I-0.772833 J27.890791
G02 X2302.105943 Y-294.674795 Z0.000000 I5.752556 J17.375569
G02 X2299.595857 Y-289.152425 Z0.000000 I7.398345 J6.694414
G02 X2300.797720 Y-283.232447 Z0.000000 I9.592079 J1.134624
G02 X2306.973921 Y-277.115330 Z0.000000 I14.059535 J-8.018847
G02 X2315.509940 Y-274.264069 Z0.000000 I11.829739 J-21.212444
G02 X2332.525325 Y-274.483139 Z0.000000 I7.777526 J-56.822105
G02 X2319.047772 Y-266.281528 Z0.000000 I17.137783 J43.336703
G02 X2316.474798 Y-261.603153 Z0.000000 I5.097757 J5.850341
G02 X2317.989564 Y-256.463882 Z0.000000 I6.240666 J0.953475
G02 X2324.655395 Y-251.651108 Z0.000000 I14.064415 J-12.457050
G02 X2343.137959 Y-248.606645 Z0.000000 I15.421459 J-35.996873
G02 X2364.005097 Y-259.340653 Z0.000000 I-2.372814 J-30.262884
G02 X2376.435395 Y-245.148377 Z0.000000 I16.436760 J-1.856456
G02 X2397.348762 Y-245.026271 Z0.000000 I10.707467 J-42.891033
G02 X2407.171934 Y-248.958473 Z0.000000 I-8.294037 J-34.955526
G02 X2411.302362 Y-253.617857 Z0.000000 I-5.037522 J-8.626090
G02 X2410.976277 Y-258.439379 Z0.000000 I-4.840651 J-2.094410
G02 X2402.112143 Y-266.911896 Z0.000000 I-20.068157 J12.122564
G02 X2434.514427 Y-267.258376 Z0.000000 I15.724655 J-44.733706
G02 X2444.154170 Y-276.849154 Z0.000000 I-5.819849 J-15.489428
G02 X2444.086199 Y-283.053494 Z0.000000 I-7.904403 J-3.015947
G02 X2438.225828 Y-289.536902 Z0.000000 I-11.850895 J4.821750
G02 X2428.855117 Y-292.458500 Z0.000000 I-12.489268 J23.569412
G02 X2405.425798 Y-292.464844 Z0.000000 I-11.741669 J99.741210
G02 X2415.682186 Y-302.331003 Z0.000000 I-16.083977 J-26.984241
G02 X2416.428171 Y-307.651695 Z0.000000 I-5.322290 J-3.458851
G02 X2412.579511 Y-312.811037 Z0.000000 I-9.143115 J2.805251
G02 X2402.733451 Y-317.426289 Z0.000000 I-20.364603 J30.635030
G02 X2391.595840 Y-319.531858 Z0.000000 I-15.739979 J52.748622
G02 X2380.029729 Y-319.215587 Z0.000000 I-4.364829 J52.023041
G02 X2369.589540 Y-316.002672 Z0.000000 I4.723973 J33.919151
G02 X2364.005097 Y-310.446550 Z0.000000 I5.475959 J11.088387
G03 X2372.318489 Y-321.851854 Z0.000000 I11.980275 J-0.000000
G03 X2398.177171 Y-324.642630 Z0.000000 I19.689282 J61.240648
G03 X2423.693504 Y-317.113059 Z0.000000 I-6.723818 J69.785657
G03 X2433.591880 Y-301.928899 Z0.000000 I-8.457670 J16.331853
G03 X2454.206031 Y-294.967998 Z0.000000 I-18.024503 J87.382155
G03 X2461.680298 Y-289.270726 Z0.000000 I-10.073743 J20.967164
G03 X2464.947350 Y-281.167835 Z0.000000 I-10.086200 J8.776789
G03 X2463.207688 Y-273.773337 Z0.000000 I-13.655800 J0.689166
G03 X2449.764345 Y-261.406599 Z0.000000 I-25.727658 J-14.477212
G03 X2426.964571 Y-258.394249 Z0.000000 I-16.306961 J-35.634324
G03 X2425.402405 Y-244.607962 Z0.000000 I-9.666721 J5.886285
G03 X2406.461304 Y-233.432803 Z0.000000 I-30.047818 J-29.289428
G03 X2380.372648 Y-230.985210 Z0.000000 I-19.992736 J-72.838611
G03 X2357.377752 Y-240.412544 Z0.000000 I3.305180 J-40.819832
G02 X2384.044972 Y-210.976211 Z0.000000 I75.125294 J-41.260697
G02 X2419.715949 Y-194.156975 Z0.000000 I69.852027 J-101.909351
G02 X2460.634247 Y-187.938363 Z0.000000 I44.336740 J-154.004582
G02 X2498.208199 Y-191.199459 Z0.000000 I3.734953 J-175.058135
G02 X2540.576678 Y-205.534575 Z0.000000 I-32.447828 J-165.681038
G02 X2563.860041 Y-223.140644 Z0.000000 I-34.547991 J-69.887137
G02 X2571.814812 Y-234.945221 Z0.000000 I-37.290301 J-33.711415
G02 X2574.862418 Y-246.298003 Z0.000000 I-28.207850 J-13.657726
G02 X2573.392933 Y-257.710093 Z0.000000 I-28.643660 J-2.112337
G02 X2566.138172 Y-270.697519 Z0.000000 I-39.376614 J13.475765
G03 X2557.482249 Y-264.064760 Z0.000000 I-13.187105 J-8.245032
G03 X2540.250221 Y-260.878562 Z0.000000 I-22.679240 J-74.465553
G03 X2521.542897 Y-260.444477 Z0.000000 I-13.984502 J-199.353573
G02 X2503.178698 Y-260.287057 Z0.000000 I-6.739048 J285.079231
G02 X2468.334115 Y-248.330106 Z0.000000 I3.739473 J67.647447
G02 X2454.302244 Y-230.593586 Z0.000000 I22.107001 J31.908253
G02 X2452.214644 Y-219.257744 Z0.000000 I28.175497 J11.048923
G02 X2454.716454 Y-208.781897 Z0.000000 I24.142118 J-0.228887
G02 X2461.345022 Y-200.484762 Z0.000000 I22.339350 J-11.050526
G02 X2475.012616 Y-193.092270 Z0.000000 I26.452856 J-32.576413
G03 X2476.914840 Y-205.777098 Z0.000000 I26.786504 J-2.468125
G03 X2488.060120 Y-221.247833 Z0.000000 I37.922414 J15.569751
G03 X2504.559585 Y-231.160368 Z0.000000 I36.984760 J42.873332
G03 X2539.628900 Y-239.466140 Z0.000000 I47.516565 J122.439194
G02 X2514.842677 Y-228.382359 Z0.000000 I47.182713 J138.768968
G02 X2501.081759 Y-218.186802 Z0.000000 I33.887449 J60.122124
G02 X2491.295961 Y-204.743808 Z0.000000 I32.148783 J33.685905
G02 X2488.474336 Y-192.737367 Z0.000000 I25.572667 J12.344590
G02 X2496.876870 Y-171.157604 Z0.000000 I30.965238 J0.368767
G02 X2533.001590 Y-146.718401 Z0.000000 I72.331619 J-67.998308
G02 X2568.246064 Y-138.791337 Z0.000000 I43.980330 J-113.227033
G02 X2612.322263 Y-140.211863 Z0.000000 I15.246343 J-211.445414
G02 X2650.429276 Y-152.035468 Z0.000000 I-16.573166 J-120.735164
G02 X2660.577383 Y-168.485726 Z0.000000 I-8.259023 J-16.450258
G02 X2656.087940 Y-175.414104 Z0.000000 I-9.796439 J1.429165
G02 X2642.973590 Y-180.670697 Z0.000000 I-20.637971 J32.501012
G02 X2629.086286 Y-180.897084 Z0.000000 I-7.564343 J37.961972
G02 X2619.156682 Y-175.110565 Z0.000000 I2.639627 J15.942377
G02 X2613.365352 Y-165.496894 Z0.000000 I19.253800 J18.149800
G03 X2611.286752 Y-159.968078 Z0.000000 I-89.819468 J-30.613157
G03 X2608.094914 Y-155.927419 Z0.000000 I-8.679582 J-3.575269
G03 X2595.961099 Y-150.504023 Z0.000000 I-19.170329 J-26.604709
G03 X2576.129835 Y-151.935109 Z0.000000 I-7.956847 J-27.859393
G03 X2565.931071 Y-161.505986 Z0.000000 I8.809438 J-19.606731
G03 X2565.398100 Y-166.535632 Z0.000000 I6.026084 J-3.181621
G03 X2569.633050 Y-171.931235 Z0.000000 I8.665192 J2.441432
G03 X2577.318196 Y-174.629221 Z0.000000 I11.389156 J20.147256
G03 X2599.274754 Y-176.056973 Z0.000000 I18.407089 J113.529470
G03 X2584.637949 Y-182.415100 Z0.000000 I9.296702 J-41.428065
G03 X2581.593285 Y-186.940634 Z0.000000 I4.147405 J-6.077222
G03 X2582.791008 Y-192.559508 Z0.000000 I6.847793 J-1.477410
G03 X2589.540882 Y-198.534101 Z0.000000 I17.138844 J12.562656
G03 X2608.026356 Y-203.096095 Z0.000000 I17.521024 J31.263119
G03 X2630.754491 Y-191.199459 Z0.000000 I-0.784983 J29.158681
G03 X2640.309031 Y-204.759790 Z0.000000 I13.263658 J-0.800700
G03 X2661.820021 Y-205.750443 Z0.000000 I12.807332 J44.058147
G03 X2672.267215 Y-202.192922 Z0.000000 I-7.644987 J39.569284
G03 X2677.352794 Y-197.454607 Z0.000000 I-5.558726 J11.064422
G03 X2677.799205 Y-192.107709 Z0.000000 I-5.270033 J3.132078
G03 X2670.518382 Y-182.681808 Z0.000000 I-19.546218 J-7.573128
G03 X2690.275198 Y-185.846117 Z0.000000 I21.456272 J70.705892
G03 X2699.927087 Y-184.278868 Z0.000000 I0.614688 J26.718604
G03 X2707.419913 Y-178.782053 Z0.000000 I-5.531966 J15.395965
G03 X2709.453851 Y-172.744551 Z0.000000 I-7.943834 J6.037502
G03 X2703.860647 Y-162.741345 Z0.000000 I-11.741755 J0.000000
G03 X2673.832037 Y-157.128861 Z0.000000 I-22.328401 J-36.326544
G03 X2681.947229 Y-147.258664 Z0.000000 I-16.272147 J21.650040
G03 X2682.243655 Y-141.678292 Z0.000000 I-6.508452 J3.143784
G03 X2678.249765 Y-136.534691 Z0.000000 I-9.852437 J-3.527811
G03 X2669.052967 Y-132.187080 Z0.000000 I-18.734890 J-27.730078
G03 X2646.273616 Y-130.088868 Z0.000000 I-16.641453 J-55.967098
G03 X2630.629049 Y-139.304462 Z0.000000 I2.304287 J-21.798855
G02 X2651.108635 Y-126.530393 Z0.000000 I25.935953 J-18.777293
G02 X2675.874960 Y-127.138832 Z0.000000 I10.849379 J-62.736378
G02 X2697.406225 Y-137.508386 Z0.000000 I-11.532979 J-51.485451
G02 X2700.090391 Y-148.925821 Z0.000000 I-5.973921 J-7.428663
G02 X2716.044802 Y-153.277709 Z0.000000 I-10.180379 J-68.743271
G02 X2724.010863 Y-158.138486 Z0.000000 I-10.858480 J-26.753326
G02 X2729.190761 Y-165.404385 Z0.000000 I-12.174310 J-14.158468
G02 X2729.913318 Y-172.231055 Z0.000000 I-11.847778 J-4.705582
G02 X2722.716933 Y-183.478274 Z0.000000 I-16.824197 J2.838875
G02 X2695.119926 Y-193.406878 Z0.000000 I-32.904246 J48.140983
G02 X2684.203244 Y-209.963109 Z0.000000 I-24.241552 J4.106970
G02 X2663.847277 Y-217.540216 Z0.000000 I-27.409947 J42.505276
G02 X2639.046382 Y-217.032188 Z0.000000 I-10.830510 J76.895266
G02 X2623.876298 Y-210.442175 Z0.000000 I6.556169 J35.847802
G03 X2627.097522 Y-222.031871 Z0.000000 I16.637874 J-1.618192
G03 X2645.622172 Y-239.780745 Z0.000000 I61.704580 J45.859990
G03 X2668.921375 Y-251.979261 Z0.000000 I64.890362 J95.590758
G03 X2703.404080 Y-260.601664 Z0.000000 I52.049520 J134.893573
G03 X2754.186989 Y-260.163171 Z0.000000 I23.467598 J223.025442
G03 X2801.156950 Y-246.642184 Z0.000000 I-18.897332 J153.990546
G03 X2820.428328 Y-234.596494 Z0.000000 I-40.240710 J85.817929
G03 X2832.481364 Y-220.409008 Z0.000000 I-31.311801 J38.814664
G03 X2837.589145 Y-203.497318 Z0.000000 I-34.704333 J19.708820
G03 X2834.293528 Y-180.157200 Z0.000000 I-56.288874 J3.954759
G02 X2821.966932 Y-187.616703 Z0.000000 I-14.320271 J9.749390
G02 X2793.079906 Y-189.739555 Z0.000000 I-39.712113 J342.784801
G03 X2763.528543 Y-191.641099 Z0.000000 I14.127395 J-450.125392
G03 X2738.197472 Y-200.031717 Z0.000000 I5.858502 J-60.118929
G03 X2724.406156 Y-211.487074 Z0.000000 I25.660361 J-44.922472
G03 X2717.487104 Y-226.649369 Z0.000000 I23.368508 J-19.823658
G03 X2720.422859 Y-239.739632 Z0.000000 I18.177715 J-2.797615
G03 X2741.511127 Y-256.816045 Z0.000000 I38.523125 J26.014043
G02 X2746.128315 Y-240.969459 Z0.000000 I39.354229 J-2.870619
G02 X2758.700708 Y-225.939565 Z0.000000 I42.911388 J-23.121752
G02 X2775.915478 Y-216.505480 Z0.000000 I36.005328 J-45.277127
G02 X2804.470601 Y-211.388579 Z0.000000 I30.812155 J-89.713695
G03 X2768.999013 Y-231.296367 Z0.000000 I46.909276 J-125.138132
G03 X2756.836784 Y-247.470290 Z0.000000 I24.095510 J-30.778735
G03 X2756.502018 Y-266.055974 Z0.000000 I24.158050 J-9.730992
G03 X2771.334019 Y-287.101020 Z0.000000 I45.882120 J16.587397
G03 X2795.639575 Y-301.944717 Z0.000000 I51.051651 J56.272442
G03 X2831.808282 Y-310.524555 Z0.000000 I51.731190 J137.549892
G03 X2869.250599 Y-310.399458 Z0.000000 I18.151905 J170.444075
G03 X2907.193966 Y-301.297102 Z0.000000 I-17.944808 J158.438367
G03 X2924.099858 Y-289.167694 Z0.000000 I-12.950218 J35.896299
G03 X2925.419080 Y-281.777489 Z0.000000 I-6.174272 J4.915016
G03 X2919.395426 Y-274.476965 Z0.000000 I-12.399915 J-4.095839
G03 X2903.880311 Y-270.065719 Z0.000000 I-17.047773 J-30.469672
G03 X2892.784700 Y-270.877323 Z0.000000 I-2.516332 J-41.849705
G03 X2887.519131 Y-273.038025 Z0.000000 I3.194805 J-15.282022
G03 X2883.424110 Y-277.127023 Z0.000000 I7.453064 J-11.559067
G03 X2881.098918 Y-281.777490 Z0.000000 I19.789042 J-12.800868
G03 X2877.762108 Y-291.462064 Z0.000000 I225.617737 J-83.153469
G02 X2870.743729 Y-298.457887 Z0.000000 I-10.285867 J3.300617
G02 X2852.715194 Y-301.487710 Z0.000000 I-19.858513 J63.012243
G02 X2843.173077 Y-300.084520 Z0.000000 I-0.772832 J27.890750
G02 X2835.353876 Y-294.989403 Z0.000000 I5.752553 J17.375546
G02 X2832.843793 Y-289.467033 Z0.000000 I7.398348 J6.694410
G02 X2834.045658 Y-283.547054 Z0.000000 I9.592084 J1.134620
G02 X2840.221861 Y-277.429937 Z0.000000 I14.059539 J-8.018854
G02 X2848.757880 Y-274.578676 Z0.000000 I11.829740 J-21.212448
G02 X2865.773265 Y-274.797746 Z0.000000 I7.777526 J-56.822105
G02 X2852.295712 Y-266.596135 Z0.000000 I17.137784 J43.336704
G02 X2849.722738 Y-261.917760 Z0.000000 I5.097758 J5.850342
G02 X2851.237503 Y-256.778489 Z0.000000 I6.240666 J0.953475
G02 X2857.903331 Y-251.965715 Z0.000000 I14.064411 J-12.457042
G02 X2876.385887 Y-248.921253 Z0.000000 I15.421453 J-35.996844
G02 X2897.253002 Y-259.655260 Z0.000000 I-2.372811 J-30.262827
G02 X2909.683301 Y-245.462985 Z0.000000 I16.436760 J-1.856456
G02 X2930.596667 Y-245.340878 Z0.000000 I10.707467 J-42.891033
G02 X2940.419840 Y-249.273081 Z0.000000 I-8.294037 J-34.955526
G02 X2944.550267 Y-253.932464 Z0.000000 I-5.037522 J-8.626090
G02 X2944.224183 Y-258.753986 Z0.000000 I-4.840651 J-2.094410
G02 X2935.360048 Y-267.226503 Z0.000000 I-20.068157 J12.122564
G02 X2967.762332 Y-267.572983 Z0.000000 I15.724655 J-44.733706
G02 X2977.402075 Y-277.163761 Z0.000000 I-5.819849 J-15.489428
G02 X2977.334104 Y-283.368102 Z0.000000 I-7.904403 J-3.015947
G02 X2971.473734 Y-289.851510 Z0.000000 I-11.850895 J4.821750
G02 X2962.103023 Y-292.773107 Z0.000000 I-12.489268 J23.569412
G02 X2938.673703 Y-292.779452 Z0.000000 I-11.741669 J99.741210
G02 X2948.930091 Y-302.645610 Z0.000000 I-16.083977 J-26.984241
G02 X2949.676077 Y-307.966303 Z0.000000 I-5.322290 J-3.458851
G02 X2945.827416 Y-313.125645 Z0.000000 I-9.143115 J2.805251
G02 X2935.981356 Y-317.740897 Z0.000000 I-20.364603 J30.635030
G02 X2924.843745 Y-319.846466 Z0.000000 I-15.739979 J52.748622
G02 X2913.277634 Y-319.530195 Z0.000000 I-4.364829 J52.023041
G02 X2902.837445 Y-316.317279 Z0.000000 I4.723973 J33.919151
G02 X2897.253002 Y-310.761157 Z0.000000 I5.475959 J11.088387
G03 X2905.566396 Y-322.166462 Z0.000000 I11.980275 J0.000000
G03 X2931.425090 Y-324.957237 Z0.000000 I19.689289 J61.240704
G03 X2956.941425 Y-317.427665 Z0.000000 I-6.723816 J69.785648
G03 X2966.839785 Y-302.243506 Z0.000000 I-8.457657 J16.331826
G03 X2987.453936 Y-295.282606 Z0.000000 I-18.024503 J87.382155
G03 X2994.928203 Y-289.585334 Z0.000000 I-10.073743 J20.967164
G03 X2998.195255 Y-281.482442 Z0.000000 I-10.086200 J8.776789
G03 X2996.455594 Y-274.087945 Z0.000000 I-13.655800 J0.689166
G03 X2983.012250 Y-261.721206 Z0.000000 I-25.727658 J-14.477212
G03 X2960.212476 Y-258.708856 Z0.000000 I-16.306961 J-35.634324
G03 X2958.650313 Y-244.922568 Z0.000000 I-9.666725 J5.886287
G03 X2939.709226 Y-233.747410 Z0.000000 I-30.047797 J-29.289382
G03 X2913.620586 Y-231.299817 Z0.000000 I-19.992724 J-72.838527
G03 X2890.625692 Y-240.727151 Z0.000000 I3.305181 J-40.819831
G02 X2917.292891 Y-211.290819 Z0.000000 I75.125232 J-41.260609
G02 X2952.963858 Y-194.471583 Z0.000000 I69.852000 J-101.909267
G02 X2993.882151 Y-188.252970 Z0.000000 I44.336734 J-154.004534
G02 X3031.456104 Y-191.514066 Z0.000000 I3.734953 J-175.058140
G02 X3073.824583 Y-205.849182 Z0.000000 I-32.447828 J-165.681038
G02 X3097.107946 Y-223.455251 Z0.000000 I-34.547991 J-69.887137
G02 X3105.062717 Y-235.259829 Z0.000000 I-37.290301 J-33.711415
G02 X3108.110323 Y-246.612610 Z0.000000 I-28.207850 J-13.657726
G02 X3106.640838 Y-258.024700 Z0.000000 I-28.643660 J-2.112337
G02 X3099.386077 Y-271.012127 Z0.000000 I-39.376614 J13.475765
G03 X3090.730155 Y-264.379367 Z0.000000 I-13.187105 J-8.245032
G03 X3073.498126 Y-261.193169 Z0.000000 I-22.679240 J-74.465553
G03 X3054.790802 Y-260.759084 Z0.000000 I-13.984502 J-199.353573
G02 X3036.426603 Y-260.601664 Z0.000000 I-6.739048 J285.079231
G02 X3001.582020 Y-248.644713 Z0.000000 I3.739473 J67.647447
G02 X2987.550149 Y-230.908193 Z0.000000 I22.107001 J31.908253
G02 X2985.462549 Y-219.572352 Z0.000000 I28.175497 J11.048923
G02 X2987.964359 Y-209.096505 Z0.000000 I24.142118 J-0.228887
G02 X2994.592928 Y-200.799369 Z0.000000 I22.339350 J-11.050526
G02 X3008.260521 Y-193.406878 Z0.000000 I26.452856 J-32.576413
G03 X3010.162745 Y-206.091706 Z0.000000 I26.786504 J-2.468125
G03 X3021.308026 Y-221.562440 Z0.000000 I37.922414 J15.569751
G03 X3037.807490 Y-231.474975 Z0.000000 I36.984760 J42.873332
G03 X3072.876805 Y-239.780747 Z0.000000 I47.516565 J122.439194
G02 X3048.090582 Y-228.696967 Z0.000000 I47.182713 J138.768968
G02 X3034.329664 Y-218.501410 Z0.000000 I33.887449 J60.122124
G02 X3024.543867 Y-205.058415 Z0.000000 I32.148783 J33.685905
G02 X3021.722241 Y-193.051975 Z0.000000 I25.572666 J12.344590
G02 X3030.124775 Y-171.472212 Z0.000000 I30.965237 J0.368767
G02 X3066.249496 Y-147.033010 Z0.000000 I72.331615 J-67.998307
G02 X3101.493969 Y-139.105946 Z0.000000 I43.980331 J-113.227034
G02 X3145.570168 Y-140.526472 Z0.000000 I15.246344 J-211.445421
G02 X3183.677181 Y-152.350077 Z0.000000 I-16.573166 J-120.735169
G02 X3193.825288 Y-168.800333 Z0.000000 I-8.259022 J-16.450257
G02 X3189.335845 Y-175.728711 Z0.000000 I-9.796439 J1.429165
G02 X3176.221496 Y-180.985304 Z0.000000 I-20.637971 J32.501012
G02 X3162.334191 Y-181.211691 Z0.000000 I-7.564343 J37.961972
G02 X3152.404587 Y-175.425172 Z0.000000 I2.639627 J15.942377
G02 X3146.613257 Y-165.811501 Z0.000000 I19.253801 J18.149801
G03 X3144.534657 Y-160.282686 Z0.000000 I-89.819440 J-30.613150
G03 X3141.342820 Y-156.242028 Z0.000000 I-8.679581 J-3.575269
G03 X3129.209005 Y-150.818632 Z0.000000 I-19.170330 J-26.604713
G03 X3109.377740 Y-152.249718 Z0.000000 I-7.956847 J-27.859394
G03 X3099.178976 Y-161.820595 Z0.000000 I8.809437 J-19.606730
G03 X3098.646005 Y-166.850240 Z0.000000 I6.026084 J-3.181621
G03 X3102.880956 Y-172.245842 Z0.000000 I8.665192 J2.441432
G03 X3110.566101 Y-174.943829 Z0.000000 I11.389156 J20.147257
G03 X3132.522659 Y-176.371580 Z0.000000 I18.407088 J113.529476
G03 X3117.885855 Y-182.729708 Z0.000000 I9.296702 J-41.428065
G03 X3114.841190 Y-187.255242 Z0.000000 I4.147405 J-6.077222
G03 X3116.038913 Y-192.874115 Z0.000000 I6.847793 J-1.477410
G03 X3122.788788 Y-198.848708 Z0.000000 I17.138844 J12.562656
G03 X3141.274262 Y-203.410702 Z0.000000 I17.521024 J31.263119
G03 X3164.002396 Y-191.514066 Z0.000000 I-0.784983 J29.158681
G03 X3173.556937 Y-205.074397 Z0.000000 I13.263658 J-0.800700
G03 X3195.067926 Y-206.065050 Z0.000000 I12.807332 J44.058147
G03 X3205.515120 Y-202.507529 Z0.000000 I-7.644987 J39.569284
G03 X3210.600700 Y-197.769214 Z0.000000 I-5.558726 J11.064422
G03 X3211.047110 Y-192.422316 Z0.000000 I-5.270033 J3.132078
G03 X3203.766287 Y-182.996415 Z0.000000 I-19.546218 J-7.573128
G03 X3223.523103 Y-186.160725 Z0.000000 I21.456273 J70.705895
G03 X3233.174992 Y-184.593475 Z0.000000 I0.614688 J26.718605
G03 X3240.667819 Y-179.096661 Z0.000000 I-5.531966 J15.395965
G03 X3242.701756 Y-173.059159 Z0.000000 I-7.943833 J6.037501
G03 X3237.108552 Y-163.055954 Z0.000000 I-11.741754 J-0.000000
G03 X3207.079942 Y-157.443470 Z0.000000 I-22.328401 J-36.326545
G03 X3215.195239 Y-147.573391 Z0.000000 I-16.272937 J21.651091
G03 X3215.493520 Y-141.990443 Z0.000000 I-6.515875 J3.147567
G03 X3211.501958 Y-136.840477 Z0.000000 I-9.868773 J-3.527102
G03 X3202.316553 Y-132.482026 Z0.000000 I-18.789887 J-27.741245
G03 X3179.528704 Y-130.335526 Z0.000000 I-16.776504 J-56.069727
G03 X3164.002396 Y-139.461766 Z0.000000 I2.226003 J-21.557494
M300 S145 (G00 Z5.000000)

(End cutting path id: path3192)


(Start cutting path id: path3080-7)
(Change tool to Cylindrical cutter)

M300 S145 (G00 Z5.000000)
G00 X-36.017700 Y91.638107

M01 (Change Pen #2)

M300 S125 (G01 Z0.000000 F100.0(Penetrate)
G02 X-15.429802 Y104.506283 Z0.000000 I26.160449 J-18.950853 F200.000000
G02 X9.337982 Y103.941378 Z0.000000 I10.962637 J-62.596196
G02 X30.884246 Y93.586868 Z0.000000 I-11.438240 J-51.395963
G02 X33.569099 Y82.174052 Z0.000000 I-5.968403 J-7.426274
G02 X49.523502 Y77.822164 Z0.000000 I-10.180375 J-68.743212
G02 X57.489561 Y72.961386 Z0.000000 I-10.858480 J-26.753312
G02 X62.669456 Y65.695488 Z0.000000 I-12.174311 J-14.158463
G02 X63.392012 Y58.868817 Z0.000000 I-11.847782 J-4.705580
G02 X56.195626 Y47.621598 Z0.000000 I-16.824198 J2.838877
G02 X28.598614 Y37.692994 Z0.000000 I-32.904251 J48.140994
G02 X17.681939 Y21.136763 Z0.000000 I-24.241539 J4.106956
G02 X-2.674025 Y13.559656 Z0.000000 I-27.409942 J42.505255
G02 X-27.474922 Y14.067683 Z0.000000 I-10.830511 J76.895278
G02 X-42.645014 Y20.657696 Z0.000000 I6.556175 J35.847845
G03 X-39.423785 Y9.068000 Z0.000000 I16.637901 J-1.618178
G03 X-20.899139 Y-8.680873 Z0.000000 I61.704588 J45.859989
G03 X2.400055 Y-20.879388 Z0.000000 I64.890338 J95.590693
G03 X36.882757 Y-29.501793 Z0.000000 I52.049510 J134.893510
G03 X87.665675 Y-29.063300 Z0.000000 I23.467602 J223.025518
G03 X134.635641 Y-15.542313 Z0.000000 I-18.897332 J153.990570
G03 X153.907020 Y-3.496622 Z0.000000 I-40.240706 J85.817929
G03 X165.960056 Y10.690864 Z0.000000 I-31.311792 J38.814654
G03 X171.067834 Y27.602553 Z0.000000 I-34.704322 J19.708811
G03 X167.772212 Y50.942672 Z0.000000 I-56.288870 J3.954749
G02 X155.445622 Y43.483169 Z0.000000 I-14.320265 J9.749380
G02 X126.558601 Y41.360316 Z0.000000 I-39.712101 J342.784541
G03 X97.007241 Y39.458773 Z0.000000 I14.127396 J-450.125393
G03 X71.676156 Y31.068155 Z0.000000 I5.858508 J-60.119000
G03 X57.884852 Y19.612801 Z0.000000 I25.660388 J-44.922472
G03 X50.965799 Y4.450503 Z0.000000 I23.368528 J-19.823669
G03 X53.901551 Y-8.639761 Z0.000000 I18.177716 J-2.797618
G03 X74.989811 Y-25.716173 Z0.000000 I38.523110 J26.014018
G02 X79.607010 Y-9.869587 Z0.000000 I39.354286 J-2.870660
G02 X92.179408 Y5.160306 Z0.000000 I42.911417 J-23.121787
G02 X109.394179 Y14.594392 Z0.000000 I36.005336 J-45.277143
G02 X137.949299 Y19.711292 Z0.000000 I30.812152 J-89.713678
G03 X102.477706 Y-0.196495 Z0.000000 I46.909287 J-125.138168
G03 X90.315477 Y-16.370418 Z0.000000 I24.095504 J-30.778733
G03 X89.980714 Y-34.956100 Z0.000000 I24.158037 J-9.730987
G03 X104.812727 Y-56.001149 Z0.000000 I45.882124 J16.587413
G03 X129.118263 Y-70.844844 Z0.000000 I51.051588 J56.272310
G03 X165.286969 Y-79.424684 Z0.000000 I51.731182 J137.549829
G03 X202.729287 Y-79.299587 Z0.000000 I18.151907 J170.444098
G03 X240.672667 Y-70.197231 Z0.000000 I-17.944817 J158.438483
G03 X257.578560 Y-58.067822 Z0.000000 I-12.950216 J35.896296
G03 X258.897781 Y-50.677617 Z0.000000 I-6.174271 J4.915015
G03 X252.874125 Y-43.377093 Z0.000000 I-12.399918 J-4.095842
G03 X237.359009 Y-38.965847 Z0.000000 I-17.047774 J-30.469680
G03 X226.263397 Y-39.777452 Z0.000000 I-2.516332 J-41.849712
G03 X220.997828 Y-41.938154 Z0.000000 I3.194804 J-15.282019
G03 X216.902808 Y-46.027152 Z0.000000 I7.453062 J-11.559062
G03 X214.577617 Y-50.677618 Z0.000000 I19.789031 J-12.800856
G03 X211.240812 Y-60.362194 Z0.000000 I225.616681 J-83.153007
G02 X204.222438 Y-67.358015 Z0.000000 I-10.285861 J3.300610
G02 X186.193896 Y-70.387838 Z0.000000 I-19.858520 J63.012288
G02 X176.651776 Y-68.984648 Z0.000000 I-0.772832 J27.890771
G02 X168.832570 Y-63.889531 Z0.000000 I5.752555 J17.375558
G02 X166.322486 Y-58.367161 Z0.000000 I7.398347 J6.694412
G02 X167.524349 Y-52.447182 Z0.000000 I9.592081 J1.134622
G02 X173.700550 Y-46.330066 Z0.000000 I14.059536 J-8.018849
G02 X182.236569 Y-43.478804 Z0.000000 I11.829739 J-21.212442
G02 X199.251952 Y-43.697875 Z0.000000 I7.777526 J-56.822096
G02 X185.774400 Y-35.496263 Z0.000000 I17.137785 J43.336703
G02 X183.201426 Y-30.817888 Z0.000000 I5.097758 J5.850343
G02 X184.716190 Y-25.678617 Z0.000000 I6.240666 J0.953476
G02 X191.382018 Y-20.865844 Z0.000000 I14.064409 J-12.457038
G02 X209.864573 Y-17.821381 Z0.000000 I15.421452 J-35.996840
G02 X230.731696 Y-28.555389 Z0.000000 I-2.372813 J-30.262849
G02 X243.161997 Y-14.363113 Z0.000000 I16.436762 J-1.856458
G02 X264.075367 Y-14.241006 Z0.000000 I10.707469 J-42.891046
G02 X273.898541 Y-18.173209 Z0.000000 I-8.294038 J-34.955536
G02 X278.028969 Y-22.832593 Z0.000000 I-5.037523 J-8.626093
G02 X277.702886 Y-27.654115 Z0.000000 I-4.840650 J-2.094410
G02 X268.838753 Y-36.126632 Z0.000000 I-20.068152 J12.122557
G02 X301.241035 Y-36.473111 Z0.000000 I15.724653 J-44.733700
G02 X310.880777 Y-46.063890 Z0.000000 I-5.819849 J-15.489429
G02 X310.812806 Y-52.268230 Z0.000000 I-7.904403 J-3.015947
G02 X304.952437 Y-58.751638 Z0.000000 I-11.850895 J4.821750
G02 X295.581726 Y-61.673236 Z0.000000 I-12.489267 J23.569409
G02 X272.152408 Y-61.679580 Z0.000000 I-11.741668 J99.741198
G02 X282.408795 Y-71.545738 Z0.000000 I-16.083974 J-26.984235
G02 X283.154779 Y-76.866431 Z0.000000 I-5.322290 J-3.458850
G02 X279.306118 Y-82.025773 Z0.000000 I-9.143116 J2.805252
G02 X269.460057 Y-86.641025 Z0.000000 I-20.364606 J30.635037
G02 X258.322445 Y-88.746594 Z0.000000 I-15.739980 J52.748631
G02 X246.756333 Y-88.430323 Z0.000000 I-4.364829 J52.023054
G02 X236.316142 Y-85.217408 Z0.000000 I4.723974 J33.919165
G02 X230.731696 Y-79.661285 Z0.000000 I5.475961 J11.088393
G03 X239.045090 Y-91.066590 Z0.000000 I11.980275 J-0.000000
G03 X264.903785 Y-93.857366 Z0.000000 I19.689290 J61.240705
G03 X290.420125 Y-86.327794 Z0.000000 I-6.723819 J69.785680
G03 X300.318494 Y-71.143635 Z0.000000 I-8.457661 J16.331839
G03 X320.932642 Y-64.182734 Z0.000000 I-18.024501 J87.382132
G03 X328.406908 Y-58.485462 Z0.000000 I-10.073742 J20.967159
G03 X331.673958 Y-50.382570 Z0.000000 I-10.086200 J8.776788
G03 X329.934296 Y-42.988073 Z0.000000 I-13.655803 J0.689165
G03 X316.490952 Y-30.621334 Z0.000000 I-25.727661 J-14.477214
G03 X293.691181 Y-27.608985 Z0.000000 I-16.306959 J-35.634317
G03 X292.129016 Y-13.822697 Z0.000000 I-9.666725 J5.886286
G03 X273.187923 Y-2.647538 Z0.000000 I-30.047807 J-29.289404
G03 X247.099276 Y-0.199946 Z0.000000 I-19.992728 J-72.838559
G03 X224.104380 Y-9.627279 Z0.000000 I3.305181 J-40.819839
G02 X250.771591 Y19.809053 Z0.000000 I75.125274 J-41.260664
G02 X286.442561 Y36.628289 Z0.000000 I69.852012 J-101.909304
G02 X327.360854 Y42.846901 Z0.000000 I44.336734 J-154.004541
G02 X364.934805 Y39.585806 Z0.000000 I3.734953 J-175.058134
G02 X407.303285 Y25.250690 Z0.000000 I-32.447828 J-165.681038
G02 X430.586648 Y7.644621 Z0.000000 I-34.547991 J-69.887137
G02 X438.541419 Y-4.159957 Z0.000000 I-37.290301 J-33.711415
G02 X441.589024 Y-15.512738 Z0.000000 I-28.207850 J-13.657726
G02 X440.119540 Y-26.924828 Z0.000000 I-28.643660 J-2.112337
G02 X432.864779 Y-39.912255 Z0.000000 I-39.376614 J13.475765
G03 X424.208856 Y-33.279495 Z0.000000 I-13.187105 J-8.245032
G03 X406.976828 Y-30.093298 Z0.000000 I-22.679240 J-74.465553
G03 X388.269504 Y-29.659212 Z0.000000 I-13.984502 J-199.353573
G02 X369.905305 Y-29.501793 Z0.000000 I-6.739048 J285.079231
G02 X335.060723 Y-17.544842 Z0.000000 I3.739473 J67.647441
G02 X321.028853 Y0.191679 Z0.000000 I22.107000 J31.908250
G02 X318.941254 Y11.527520 Z0.000000 I28.175499 J11.048922
G02 X321.443064 Y22.003367 Z0.000000 I24.142121 J-0.228887
G02 X328.071631 Y30.300503 Z0.000000 I22.339351 J-11.050526
G02 X341.739223 Y37.692994 Z0.000000 I26.452853 J-32.576405
G03 X343.641446 Y25.008166 Z0.000000 I26.786504 J-2.468125
G03 X354.786727 Y9.537431 Z0.000000 I37.922414 J15.569751
G03 X371.286192 Y-0.375103 Z0.000000 I36.984760 J42.873332
G03 X406.355506 Y-8.680875 Z0.000000 I47.516565 J122.439194
G02 X381.569284 Y2.402905 Z0.000000 I47.182713 J138.768968
G02 X367.808366 Y12.598462 Z0.000000 I33.887449 J60.122124
G02 X358.022568 Y26.041457 Z0.000000 I32.148783 J33.685905
G02 X355.200943 Y38.047897 Z0.000000 I25.572667 J12.344590
G02 X363.603477 Y59.627660 Z0.000000 I30.965238 J0.368767
G02 X399.728197 Y84.066863 Z0.000000 I72.331618 J-67.998308
G02 X434.972670 Y91.993927 Z0.000000 I43.980330 J-113.227033
G02 X479.048869 Y90.573401 Z0.000000 I15.246343 J-211.445416
G02 X517.155883 Y78.749796 Z0.000000 I-16.573166 J-120.735165
G02 X527.303990 Y62.299538 Z0.000000 I-8.259023 J-16.450258
G02 X522.814547 Y55.371161 Z0.000000 I-9.796439 J1.429165
G02 X509.700197 Y50.114568 Z0.000000 I-20.637971 J32.501012
G02 X495.812892 Y49.888180 Z0.000000 I-7.564343 J37.961972
G02 X485.883289 Y55.674699 Z0.000000 I2.639627 J15.942377
G02 X480.091958 Y65.288371 Z0.000000 I19.253800 J18.149800
G03 X478.013359 Y70.817186 Z0.000000 I-89.819463 J-30.613156
G03 X474.821521 Y74.857845 Z0.000000 I-8.679582 J-3.575269
G03 X462.687706 Y80.281241 Z0.000000 I-19.170329 J-26.604710
G03 X442.856441 Y78.850155 Z0.000000 I-7.956847 J-27.859393
G03 X432.657678 Y69.279278 Z0.000000 I8.809438 J-19.606730
G03 X432.124706 Y64.249632 Z0.000000 I6.026084 J-3.181621
G03 X436.359657 Y58.854030 Z0.000000 I8.665192 J2.441432
G03 X444.044802 Y56.156043 Z0.000000 I11.389156 J20.147256
G03 X466.001361 Y54.728292 Z0.000000 I18.407088 J113.529471
G03 X451.364556 Y48.370164 Z0.000000 I9.296702 J-41.428065
G03 X448.319892 Y43.844630 Z0.000000 I4.147405 J-6.077222
G03 X449.517615 Y38.225757 Z0.000000 I6.847793 J-1.477410
G03 X456.267489 Y32.251164 Z0.000000 I17.138844 J12.562656
G03 X474.752963 Y27.689170 Z0.000000 I17.521024 J31.263119
G03 X497.481098 Y39.585806 Z0.000000 I-0.784983 J29.158681
G03 X507.035638 Y26.025475 Z0.000000 I13.263658 J-0.800700
G03 X528.546628 Y25.034821 Z0.000000 I12.807332 J44.058147
G03 X538.993822 Y28.592343 Z0.000000 I-7.644987 J39.569284
G03 X544.079401 Y33.330657 Z0.000000 I-5.558726 J11.064422
G03 X544.525812 Y38.677555 Z0.000000 I-5.270033 J3.132078
G03 X537.244989 Y48.103456 Z0.000000 I-19.546218 J-7.573128
G03 X557.001805 Y44.939147 Z0.000000 I21.456272 J70.705893
G03 X566.653694 Y46.506397 Z0.000000 I0.614688 J26.718604
G03 X574.146520 Y52.003211 Z0.000000 I-5.531966 J15.395965
G03 X576.180458 Y58.040713 Z0.000000 I-7.943834 J6.037502
G03 X570.587254 Y68.043919 Z0.000000 I-11.741754 J0.000000
G03 X540.558644 Y73.656403 Z0.000000 I-22.328401 J-36.326544
G03 X548.671153 Y83.525617 Z0.000000 I-16.261421 J21.635768
G03 X548.962631 Y89.107211 Z0.000000 I-6.499909 J3.137841
G03 X544.959201 Y94.246736 Z0.000000 I-9.851626 J-3.544922
G03 X535.718530 Y98.600099 Z0.000000 I-18.793411 J-27.907812
G03 X512.836581 Y100.706540 Z0.000000 I-16.743267 J-56.544774
G03 X496.867307 Y91.496118 Z0.000000 I2.359068 J-22.539402
G02 X517.035229 Y104.269194 Z0.000000 I25.546678 J-18.028166
G02 X541.685912 Y103.675149 Z0.000000 I10.837001 J-62.057680
G02 X563.155133 Y93.321252 Z0.000000 I-11.547284 J-51.379351
G02 X565.840299 Y81.890074 Z0.000000 I-5.985020 J-7.436831
G02 X581.794710 Y77.538186 Z0.000000 I-10.180379 J-68.743269
G02 X589.760771 Y72.677409 Z0.000000 I-10.858481 J-26.753326
G02 X594.940669 Y65.411510 Z0.000000 I-12.174310 J-14.158469
G02 X595.663226 Y58.584840 Z0.000000 I-11.847779 J-4.705582
G02 X588.466840 Y47.337620 Z0.000000 I-16.824197 J2.838875
G02 X560.869834 Y37.409017 Z0.000000 I-32.904246 J48.140982
G02 X549.953152 Y20.852785 Z0.000000 I-24.241552 J4.106970
G02 X529.597185 Y13.275679 Z0.000000 I-27.409947 J42.505276
G02 X504.796290 Y13.783706 Z0.000000 I-10.830510 J76.895266
G02 X489.626206 Y20.373719 Z0.000000 I6.556169 J35.847802
G03 X492.847430 Y8.784024 Z0.000000 I16.637874 J-1.618192
G03 X511.372080 Y-8.964850 Z0.000000 I61.704580 J45.859990
G03 X534.671283 Y-21.163366 Z0.000000 I64.890362 J95.590758
G03 X569.153988 Y-29.785770 Z0.000000 I52.049520 J134.893573
G03 X619.936897 Y-29.347277 Z0.000000 I23.467598 J223.025442
G03 X666.906858 Y-15.826290 Z0.000000 I-18.897332 J153.990546
G03 X686.178236 Y-3.780599 Z0.000000 I-40.240710 J85.817929
G03 X698.231272 Y10.406887 Z0.000000 I-31.311801 J38.814664
G03 X703.339053 Y27.318576 Z0.000000 I-34.704333 J19.708820
G03 X700.043436 Y50.658695 Z0.000000 I-56.288874 J3.954759
G02 X687.716840 Y43.199191 Z0.000000 I-14.320271 J9.749390
G02 X658.829814 Y41.076339 Z0.000000 I-39.712113 J342.784801
G03 X629.278451 Y39.174795 Z0.000000 I14.127395 J-450.125392
G03 X603.947380 Y30.784178 Z0.000000 I5.858502 J-60.118929
G03 X590.156064 Y19.328821 Z0.000000 I25.660361 J-44.922472
G03 X583.237012 Y4.166525 Z0.000000 I23.368508 J-19.823658
G03 X586.172767 Y-8.923738 Z0.000000 I18.177715 J-2.797615
G03 X607.261035 Y-26.000150 Z0.000000 I38.523125 J26.014043
G02 X611.878223 Y-10.153564 Z0.000000 I39.354229 J-2.870619
G02 X624.450616 Y4.876329 Z0.000000 I42.911388 J-23.121752
G02 X641.665386 Y14.310415 Z0.000000 I36.005328 J-45.277127
G02 X670.220509 Y19.427315 Z0.000000 I30.812155 J-89.713695
G03 X634.748921 Y-0.480472 Z0.000000 I46.909276 J-125.138132
G03 X622.586692 Y-16.654395 Z0.000000 I24.095510 J-30.778735
G03 X622.251926 Y-35.240080 Z0.000000 I24.158050 J-9.730992
G03 X637.083927 Y-56.285126 Z0.000000 I45.882120 J16.587397
G03 X661.389483 Y-71.128823 Z0.000000 I51.051651 J56.272442
G03 X697.558190 Y-79.708661 Z0.000000 I51.731190 J137.549892
G03 X735.000507 Y-79.583564 Z0.000000 I18.151905 J170.444075
G03 X772.943874 Y-70.481208 Z0.000000 I-17.944808 J158.438367
G03 X789.849766 Y-58.351800 Z0.000000 I-12.950218 J35.896299
G03 X791.168988 Y-50.961594 Z0.000000 I-6.174272 J4.915016
G03 X785.145334 Y-43.661070 Z0.000000 I-12.399915 J-4.095839
G03 X769.630219 Y-39.249825 Z0.000000 I-17.047773 J-30.469672
G03 X758.534608 Y-40.061429 Z0.000000 I-2.516332 J-41.849705
G03 X753.269039 Y-42.222131 Z0.000000 I3.194805 J-15.282022
G03 X749.174018 Y-46.311129 Z0.000000 I7.453064 J-11.559067
G03 X746.848826 Y-50.961595 Z0.000000 I19.789042 J-12.800868
G03 X743.512016 Y-60.646170 Z0.000000 I225.617737 J-83.153469
G02 X736.493637 Y-67.641992 Z0.000000 I-10.285867 J3.300617
G02 X718.465102 Y-70.671815 Z0.000000 I-19.858513 J63.012243
G02 X708.922985 Y-69.268626 Z0.000000 I-0.772832 J27.890750
G02 X701.103784 Y-64.173509 Z0.000000 I5.752553 J17.375546
G02 X698.593701 Y-58.651138 Z0.000000 I7.398348 J6.694410
G02 X699.795566 Y-52.731160 Z0.000000 I9.592084 J1.134620
G02 X705.971769 Y-46.614043 Z0.000000 I14.059539 J-8.018854
G02 X714.507788 Y-43.762781 Z0.000000 I11.829740 J-21.212448
G02 X731.523173 Y-43.981852 Z0.000000 I7.777526 J-56.822105
G02 X718.045620 Y-35.780240 Z0.000000 I17.137784 J43.336704
G02 X715.472646 Y-31.101866 Z0.000000 I5.097758 J5.850342
G02 X716.987411 Y-25.962594 Z0.000000 I6.240666 J0.953475
G02 X723.653239 Y-21.149821 Z0.000000 I14.064411 J-12.457042
G02 X742.135795 Y-18.105358 Z0.000000 I15.421453 J-35.996844
G02 X763.002910 Y-28.839366 Z0.000000 I-2.372811 J-30.262827
G02 X775.433208 Y-14.647090 Z0.000000 I16.436760 J-1.856456
G02 X796.346575 Y-14.524983 Z0.000000 I10.707467 J-42.891033
G02 X806.169748 Y-18.457186 Z0.000000 I-8.294037 J-34.955526
G02 X810.300175 Y-23.116570 Z0.000000 I-5.037522 J-8.626090
G02 X809.974091 Y-27.938092 Z0.000000 I-4.840651 J-2.094410
G02 X801.109956 Y-36.410609 Z0.000000 I-20.068157 J12.122564
G02 X833.512240 Y-36.757088 Z0.000000 I15.724655 J-44.733706
G02 X843.151983 Y-46.347867 Z0.000000 I-5.819849 J-15.489428
G02 X843.084012 Y-52.552207 Z0.000000 I-7.904403 J-3.015947
G02 X837.223642 Y-59.035615 Z0.000000 I-11.850895 J4.821750
G02 X827.852931 Y-61.957213 Z0.000000 I-12.489268 J23.569412
G02 X804.423611 Y-61.963557 Z0.000000 I-11.741669 J99.741210
G02 X814.679999 Y-71.829716 Z0.000000 I-16.083977 J-26.984241
G02 X815.425985 Y-77.150408 Z0.000000 I-5.322290 J-3.458851
G02 X811.577324 Y-82.309750 Z0.000000 I-9.143115 J2.805251
G02 X801.731264 Y-86.925002 Z0.000000 I-20.364603 J30.635030
G02 X790.593653 Y-89.030571 Z0.000000 I-15.739979 J52.748622
G02 X779.027542 Y-88.714300 Z0.000000 I-4.364829 J52.023041
G02 X768.587353 Y-85.501385 Z0.000000 I4.723973 J33.919151
G02 X763.002910 Y-79.945263 Z0.000000 I5.475959 J11.088387
G03 X771.316304 Y-91.350567 Z0.000000 I11.980275 J0.000000
G03 X797.174998 Y-94.141343 Z0.000000 I19.689289 J61.240704
G03 X822.691333 Y-86.611771 Z0.000000 I-6.723816 J69.785648
G03 X832.589693 Y-71.427612 Z0.000000 I-8.457657 J16.331826
G03 X853.203844 Y-64.466711 Z0.000000 I-18.024503 J87.382155
G03 X860.678111 Y-58.769439 Z0.000000 I-10.073743 J20.967164
G03 X863.945163 Y-50.666547 Z0.000000 I-10.086200 J8.776789
G03 X862.205501 Y-43.272050 Z0.000000 I-13.655800 J0.689166
G03 X848.762158 Y-30.905312 Z0.000000 I-25.727658 J-14.477212
G03 X825.962384 Y-27.892962 Z0.000000 I-16.306961 J-35.634324
G03 X824.400221 Y-14.106673 Z0.000000 I-9.666725 J5.886287
G03 X805.459134 Y-2.931516 Z0.000000 I-30.047797 J-29.289382
G03 X779.370494 Y-0.483923 Z0.000000 I-19.992724 J-72.838527
G03 X756.375600 Y-9.911257 Z0.000000 I3.305181 J-40.819831
G02 X783.042799 Y19.525075 Z0.000000 I75.125232 J-41.260609
G02 X818.713766 Y36.344312 Z0.000000 I69.852000 J-101.909267
G02 X859.632059 Y42.562924 Z0.000000 I44.336734 J-154.004534
G02 X897.206012 Y39.301828 Z0.000000 I3.734953 J-175.058140
G02 X939.574491 Y24.966712 Z0.000000 I-32.447828 J-165.681038
G02 X962.857854 Y7.360644 Z0.000000 I-34.547991 J-69.887137
G02 X970.812625 Y-4.443934 Z0.000000 I-37.290301 J-33.711415
G02 X973.860231 Y-15.796716 Z0.000000 I-28.207850 J-13.657726
G02 X972.390746 Y-27.208805 Z0.000000 I-28.643660 J-2.112337
G02 X965.135985 Y-40.196232 Z0.000000 I-39.376614 J13.475765
G03 X956.480062 Y-33.563472 Z0.000000 I-13.187105 J-8.245032
G03 X939.248034 Y-30.377275 Z0.000000 I-22.679240 J-74.465553
G03 X920.540710 Y-29.943190 Z0.000000 I-13.984502 J-199.353573
G02 X902.176511 Y-29.785770 Z0.000000 I-6.739048 J285.079231
G02 X867.331928 Y-17.828819 Z0.000000 I3.739473 J67.647447
G02 X853.300057 Y-0.092299 Z0.000000 I22.107001 J31.908253
G02 X851.212457 Y11.243543 Z0.000000 I28.175497 J11.048923
G02 X853.714267 Y21.719390 Z0.000000 I24.142118 J-0.228887
G02 X860.342836 Y30.016525 Z0.000000 I22.339350 J-11.050526
G02 X874.010429 Y37.409017 Z0.000000 I26.452856 J-32.576413
G03 X875.912653 Y24.724189 Z0.000000 I26.786504 J-2.468125
G03 X887.057933 Y9.253454 Z0.000000 I37.922414 J15.569751
G03 X903.557398 Y-0.659080 Z0.000000 I36.984760 J42.873332
G03 X938.626713 Y-8.964852 Z0.000000 I47.516565 J122.439194
G02 X913.840490 Y2.118928 Z0.000000 I47.182713 J138.768968
G02 X900.079572 Y12.314485 Z0.000000 I33.887449 J60.122124
G02 X890.293775 Y25.757480 Z0.000000 I32.148783 J33.685905
G02 X887.472149 Y37.763920 Z0.000000 I25.572667 J12.344590
G02 X895.874683 Y59.343683 Z0.000000 I30.965237 J0.368767
G02 X931.999404 Y83.782885 Z0.000000 I72.331617 J-67.998307
G02 X967.243877 Y91.709949 Z0.000000 I43.980331 J-113.227033
G02 X1011.320076 Y90.289423 Z0.000000 I15.246343 J-211.445419
G02 X1049.427089 Y78.465818 Z0.000000 I-16.573166 J-120.735167
G02 X1059.575196 Y62.015561 Z0.000000 I-8.259022 J-16.450257
G02 X1055.085753 Y55.087183 Z0.000000 I-9.796439 J1.429165
G02 X1041.971404 Y49.830590 Z0.000000 I-20.637971 J32.501012
G02 X1028.084099 Y49.604203 Z0.000000 I-7.564343 J37.961972
G02 X1018.154495 Y55.390722 Z0.000000 I2.639627 J15.942377
G02 X1012.363165 Y65.004393 Z0.000000 I19.253801 J18.149800
G03 X1010.284565 Y70.533209 Z0.000000 I-89.819451 J-30.613153
G03 X1007.092728 Y74.573867 Z0.000000 I-8.679582 J-3.575269
G03 X994.958912 Y79.997263 Z0.000000 I-19.170329 J-26.604712
G03 X975.127648 Y78.566177 Z0.000000 I-7.956847 J-27.859393
G03 X964.928884 Y68.995300 Z0.000000 I8.809437 J-19.606730
G03 X964.395913 Y63.965654 Z0.000000 I6.026084 J-3.181621
G03 X968.630863 Y58.570052 Z0.000000 I8.665192 J2.441432
G03 X976.316009 Y55.872066 Z0.000000 I11.389156 J20.147257
G03 X998.272567 Y54.444315 Z0.000000 I18.407088 J113.529473
G03 X983.635762 Y48.086187 Z0.000000 I9.296702 J-41.428065
G03 X980.591098 Y43.560653 Z0.000000 I4.147405 J-6.077222
G03 X981.788821 Y37.941780 Z0.000000 I6.847793 J-1.477410
G03 X988.538696 Y31.967186 Z0.000000 I17.138844 J12.562656
G03 X1007.024169 Y27.405192 Z0.000000 I17.521024 J31.263119
G03 X1029.752304 Y39.301828 Z0.000000 I-0.784983 J29.158681
G03 X1039.306844 Y25.741498 Z0.000000 I13.263658 J-0.800700
G03 X1060.817834 Y24.750844 Z0.000000 I12.807332 J44.058147
G03 X1071.265028 Y28.308365 Z0.000000 I-7.644987 J39.569284
G03 X1076.350608 Y33.046680 Z0.000000 I-5.558726 J11.064422
G03 X1076.797018 Y38.393578 Z0.000000 I-5.270033 J3.132078
G03 X1069.516195 Y47.819479 Z0.000000 I-19.546218 J-7.573128
G03 X1089.273011 Y44.655170 Z0.000000 I21.456273 J70.705894
G03 X1098.924900 Y46.222419 Z0.000000 I0.614688 J26.718604
G03 X1106.417727 Y51.719234 Z0.000000 I-5.531966 J15.395965
G03 X1108.451664 Y57.756735 Z0.000000 I-7.943833 J6.037501
G03 X1102.858460 Y67.759941 Z0.000000 I-11.741754 J0.000000
G03 X1072.829850 Y73.372425 Z0.000000 I-22.328401 J-36.326545
G03 X1080.943834 Y83.241623 Z0.000000 I-16.268622 J21.645349
G03 X1081.243926 Y88.831867 Z0.000000 I-6.529766 J3.153704
G03 X1077.252687 Y93.995653 Z0.000000 I-9.910038 J-3.535389
G03 X1068.070444 Y98.385189 Z0.000000 I-18.966077 J-27.875461
G03 X1045.199435 Y100.660538 Z0.000000 I-17.187700 J-56.681365
G03 X1029.784171 Y91.764682 Z0.000000 I2.060476 J-21.374683
G02 X1050.463872 Y104.873126 Z0.000000 I26.505132 J-18.947904
G02 X1075.167758 Y104.427186 Z0.000000 I11.239506 J-61.849068
G02 X1096.715682 Y94.120271 Z0.000000 I-11.206565 J-51.106559
G02 X1099.402857 Y82.711179 Z0.000000 I-5.960851 J-7.424955
G02 X1115.357255 Y78.359291 Z0.000000 I-10.180375 J-68.743191
G02 X1123.323313 Y73.498514 Z0.000000 I-10.858483 J-26.753317
G02 X1128.503209 Y66.232616 Z0.000000 I-12.174314 J-14.158467
G02 X1129.225766 Y59.405945 Z0.000000 I-11.847781 J-4.705582
G02 X1122.029382 Y48.158729 Z0.000000 I-16.824190 J2.838874
G02 X1094.432357 Y38.230122 Z0.000000 I-32.904264 J48.141024
G02 X1083.515694 Y21.673892 Z0.000000 I-24.241521 J4.106936
G02 X1063.159734 Y14.096784 Z0.000000 I-27.409933 J42.505219
G02 X1038.358839 Y14.604810 Z0.000000 I-10.830513 J76.895291
G02 X1023.188729 Y21.194825 Z0.000000 I6.556187 J35.847925
G03 X1026.409966 Y9.605129 Z0.000000 I16.637924 J-1.618162
G03 X1044.934616 Y-8.143745 Z0.000000 I61.704622 J45.860034
G03 X1068.233810 Y-20.342260 Z0.000000 I64.890345 J95.590705
G03 X1102.716511 Y-28.964664 Z0.000000 I52.049506 J134.893493
G03 X1153.499423 Y-28.526172 Z0.000000 I23.467602 J223.025482
G03 X1200.469394 Y-15.005184 Z0.000000 I-18.897334 J153.990594
G03 X1219.740775 Y-2.959493 Z0.000000 I-40.240706 J85.817934
G03 X1231.793810 Y11.227992 Z0.000000 I-31.311785 J38.814647
G03 X1236.901586 Y28.139681 Z0.000000 I-34.704312 J19.708803
G03 X1233.605959 Y51.479800 Z0.000000 I-56.288863 J3.954739
G02 X1221.279365 Y44.020297 Z0.000000 I-14.320270 J9.749390
G02 X1192.392350 Y41.897445 Z0.000000 I-39.712091 J342.784361
G03 X1162.840997 Y39.995901 Z0.000000 I14.127393 J-450.125240
G03 X1137.509903 Y31.605283 Z0.000000 I5.858514 J-60.119048
G03 X1123.718605 Y20.149931 Z0.000000 I25.660419 J-44.922494
G03 X1116.799548 Y4.987631 Z0.000000 I23.368540 J-19.823681
G03 X1119.735298 Y-8.102632 Z0.000000 I18.177711 J-2.797621
G03 X1140.823558 Y-25.179045 Z0.000000 I38.523102 J26.014007
G02 X1145.440765 Y-9.332459 Z0.000000 I39.354314 J-2.870686
G02 X1158.013170 Y5.697435 Z0.000000 I42.911439 J-23.121818
G02 X1175.227945 Y15.131521 Z0.000000 I36.005346 J-45.277170
G02 X1203.783067 Y20.248421 Z0.000000 I30.812154 J-89.713698
G03 X1168.311472 Y0.340634 Z0.000000 I46.909312 J-125.138227
G03 X1156.149237 Y-15.833290 Z0.000000 I24.095513 J-30.778752
G03 X1155.814470 Y-34.418971 Z0.000000 I24.158029 J-9.730992
G03 X1170.646485 Y-55.464020 Z0.000000 I45.882103 J16.587399
G03 X1194.952017 Y-70.307715 Z0.000000 I51.051583 J56.272296
G03 X1231.120722 Y-78.887555 Z0.000000 I51.731178 J137.549805
G03 X1268.563039 Y-78.762459 Z0.000000 I18.151908 J170.444105
G03 X1306.506432 Y-69.660102 Z0.000000 I-17.944828 J158.438600
G03 X1323.412324 Y-57.530694 Z0.000000 I-12.950218 J35.896299
G03 X1324.731546 Y-50.140489 Z0.000000 I-6.174272 J4.915016
G03 X1318.707892 Y-42.839965 Z0.000000 I-12.399915 J-4.095839
G03 X1303.192777 Y-38.428719 Z0.000000 I-17.047773 J-30.469672
G03 X1292.097166 Y-39.240323 Z0.000000 I-2.516332 J-41.849705
G03 X1286.831597 Y-41.401025 Z0.000000 I3.194805 J-15.282022
G03 X1282.736576 Y-45.490023 Z0.000000 I7.453064 J-11.559067
G03 X1280.411384 Y-50.140490 Z0.000000 I19.789042 J-12.800868
G03 X1277.074574 Y-59.825064 Z0.000000 I225.617737 J-83.153469
G02 X1270.056195 Y-66.820887 Z0.000000 I-10.285867 J3.300617
G02 X1252.027647 Y-69.850710 Z0.000000 I-19.858527 J63.012334
G02 X1242.485523 Y-68.447520 Z0.000000 I-0.772833 J27.890791
G02 X1234.666314 Y-63.352402 Z0.000000 I5.752556 J17.375569
G02 X1232.156228 Y-57.830033 Z0.000000 I7.398345 J6.694414
G02 X1233.358091 Y-51.910054 Z0.000000 I9.592079 J1.134624
G02 X1239.534292 Y-45.792937 Z0.000000 I14.059535 J-8.018847
G02 X1248.070311 Y-42.941676 Z0.000000 I11.829739 J-21.212444
G02 X1265.085696 Y-43.160746 Z0.000000 I7.777526 J-56.822105
G02 X1251.608143 Y-34.959135 Z0.000000 I17.137783 J43.336703
G02 X1249.035169 Y-30.280760 Z0.000000 I5.097757 J5.850341
G02 X1250.549935 Y-25.141489 Z0.000000 I6.240666 J0.953475
G02 X1257.215766 Y-20.328715 Z0.000000 I14.064415 J-12.457050
G02 X1275.698330 Y-17.284252 Z0.000000 I15.421459 J-35.996873
G02 X1296.565468 Y-28.018260 Z0.000000 I-2.372814 J-30.262884
G02 X1308.995766 Y-13.825985 Z0.000000 I16.436760 J-1.856456
G02 X1329.909133 Y-13.703878 Z0.000000 I10.707467 J-42.891033
G02 X1339.732305 Y-17.636081 Z0.000000 I-8.294037 J-34.955526
G02 X1343.862733 Y-22.295464 Z0.000000 I-5.037522 J-8.626090
G02 X1343.536648 Y-27.116986 Z0.000000 I-4.840651 J-2.094410
G02 X1334.672514 Y-35.589503 Z0.000000 I-20.068157 J12.122564
G02 X1367.074798 Y-35.935983 Z0.000000 I15.724655 J-44.733706
G02 X1376.714541 Y-45.526761 Z0.000000 I-5.819849 J-15.489428
G02 X1376.646570 Y-51.731102 Z0.000000 I-7.904403 J-3.015947
G02 X1370.786200 Y-58.214510 Z0.000000 I-11.850895 J4.821750
G02 X1361.415489 Y-61.136107 Z0.000000 I-12.489268 J23.569412
G02 X1337.986169 Y-61.142452 Z0.000000 I-11.741669 J99.741210
G02 X1348.242557 Y-71.008610 Z0.000000 I-16.083977 J-26.984241
G02 X1348.988542 Y-76.329303 Z0.000000 I-5.322290 J-3.458851
G02 X1345.139882 Y-81.488645 Z0.000000 I-9.143115 J2.805251
G02 X1335.293822 Y-86.103897 Z0.000000 I-20.364603 J30.635030
G02 X1324.156211 Y-88.209466 Z0.000000 I-15.739979 J52.748622
G02 X1312.590100 Y-87.893195 Z0.000000 I-4.364829 J52.023041
G02 X1302.149911 Y-84.680279 Z0.000000 I4.723973 J33.919151
G02 X1296.565468 Y-79.124157 Z0.000000 I5.475959 J11.088387
G03 X1304.878860 Y-90.529461 Z0.000000 I11.980275 J-0.000000
G03 X1330.737543 Y-93.320237 Z0.000000 I19.689282 J61.240648
G03 X1356.253875 Y-85.790667 Z0.000000 I-6.723818 J69.785657
G03 X1366.152251 Y-70.606506 Z0.000000 I-8.457670 J16.331853
G03 X1386.766402 Y-63.645606 Z0.000000 I-18.024503 J87.382155
G03 X1394.240669 Y-57.948334 Z0.000000 I-10.073743 J20.967164
G03 X1397.507721 Y-49.845442 Z0.000000 I-10.086200 J8.776789
G03 X1395.768059 Y-42.450945 Z0.000000 I-13.655800 J0.689166
G03 X1382.324716 Y-30.084206 Z0.000000 I-25.727658 J-14.477212
G03 X1359.524942 Y-27.071856 Z0.000000 I-16.306961 J-35.634324
G03 X1357.962776 Y-13.285569 Z0.000000 I-9.666721 J5.886285
G03 X1339.021675 Y-2.110410 Z0.000000 I-30.047818 J-29.289428
G03 X1312.933019 Y0.337183 Z0.000000 I-19.992736 J-72.838611
G03 X1289.938123 Y-9.090151 Z0.000000 I3.305180 J-40.819832
G02 X1316.605344 Y20.346182 Z0.000000 I75.125294 J-41.260697
G02 X1352.276320 Y37.165417 Z0.000000 I69.852027 J-101.909351
G02 X1393.194618 Y43.384030 Z0.000000 I44.336740 J-154.004582
G02 X1430.768570 Y40.122934 Z0.000000 I3.734953 J-175.058135
G02 X1473.137049 Y25.787818 Z0.000000 I-32.447828 J-165.681038
G02 X1496.420412 Y8.181749 Z0.000000 I-34.547991 J-69.887137
G02 X1504.375183 Y-3.622829 Z0.000000 I-37.290301 J-33.711415
G02 X1507.422789 Y-14.975610 Z0.000000 I-28.207850 J-13.657726
G02 X1505.953304 Y-26.387700 Z0.000000 I-28.643660 J-2.112337
G02 X1498.698543 Y-39.375127 Z0.000000 I-39.376614 J13.475765
G03 X1490.042620 Y-32.742367 Z0.000000 I-13.187105 J-8.245032
G03 X1472.810592 Y-29.556169 Z0.000000 I-22.679240 J-74.465553
G03 X1454.103268 Y-29.122084 Z0.000000 I-13.984502 J-199.353573
G02 X1435.739069 Y-28.964664 Z0.000000 I-6.739048 J285.079231
G02 X1400.894486 Y-17.007713 Z0.000000 I3.739473 J67.647447
G02 X1386.862615 Y0.728807 Z0.000000 I22.107001 J31.908253
G02 X1384.775015 Y12.064648 Z0.000000 I28.175497 J11.048923
G02 X1387.276825 Y22.540495 Z0.000000 I24.142118 J-0.228887
G02 X1393.905393 Y30.837631 Z0.000000 I22.339350 J-11.050526
G02 X1407.572987 Y38.230122 Z0.000000 I26.452856 J-32.576413
G03 X1409.475211 Y25.545294 Z0.000000 I26.786504 J-2.468125
G03 X1420.620491 Y10.074560 Z0.000000 I37.922414 J15.569751
G03 X1437.119956 Y0.162025 Z0.000000 I36.984760 J42.873332
G03 X1472.189271 Y-8.143747 Z0.000000 I47.516565 J122.439194
G02 X1447.403048 Y2.940033 Z0.000000 I47.182713 J138.768968
G02 X1433.642130 Y13.135590 Z0.000000 I33.887449 J60.122124
G02 X1423.856333 Y26.578585 Z0.000000 I32.148783 J33.685905
G02 X1421.034707 Y38.585025 Z0.000000 I25.572666 J12.344590
G02 X1429.437241 Y60.164788 Z0.000000 I30.965237 J0.368767
G02 X1465.561962 Y84.603990 Z0.000000 I72.331615 J-67.998307
G02 X1500.806435 Y92.531054 Z0.000000 I43.980331 J-113.227034
G02 X1544.882634 Y91.110528 Z0.000000 I15.246344 J-211.445421
G02 X1582.989647 Y79.286923 Z0.000000 I-16.573166 J-120.735169
G02 X1593.137754 Y62.836667 Z0.000000 I-8.259022 J-16.450257
G02 X1588.648311 Y55.908289 Z0.000000 I-9.796439 J1.429165
G02 X1575.533962 Y50.651696 Z0.000000 I-20.637971 J32.501012
G02 X1561.646657 Y50.425309 Z0.000000 I-7.564343 J37.961972
G02 X1551.717053 Y56.211828 Z0.000000 I2.639627 J15.942377
G02 X1545.925723 Y65.825499 Z0.000000 I19.253801 J18.149801
G03 X1543.847123 Y71.354314 Z0.000000 I-89.819440 J-30.613150
G03 X1540.655286 Y75.394972 Z0.000000 I-8.679581 J-3.575269
G03 X1528.521470 Y80.818368 Z0.000000 I-19.170330 J-26.604713
G03 X1508.690206 Y79.387282 Z0.000000 I-7.956847 J-27.859394
G03 X1498.491442 Y69.816405 Z0.000000 I8.809437 J-19.606730
G03 X1497.958471 Y64.786760 Z0.000000 I6.026084 J-3.181621
G03 X1502.193421 Y59.391158 Z0.000000 I8.665192 J2.441432
G03 X1509.878567 Y56.693171 Z0.000000 I11.389156 J20.147257
G03 X1531.835125 Y55.265420 Z0.000000 I18.407088 J113.529476
G03 X1517.198320 Y48.907292 Z0.000000 I9.296702 J-41.428065
G03 X1514.153656 Y44.381758 Z0.000000 I4.147405 J-6.077222
G03 X1515.351379 Y38.762885 Z0.000000 I6.847793 J-1.477410
G03 X1522.101254 Y32.788292 Z0.000000 I17.138844 J12.562656
G03 X1540.586727 Y28.226298 Z0.000000 I17.521024 J31.263119
G03 X1563.314862 Y40.122934 Z0.000000 I-0.784983 J29.158681
G03 X1572.869402 Y26.562603 Z0.000000 I13.263658 J-0.800700
G03 X1594.380392 Y25.571950 Z0.000000 I12.807332 J44.058147
G03 X1604.827586 Y29.129471 Z0.000000 I-7.644987 J39.569284
G03 X1609.913166 Y33.867786 Z0.000000 I-5.558726 J11.064422
G03 X1610.359576 Y39.214684 Z0.000000 I-5.270033 J3.132078
G03 X1603.078753 Y48.640585 Z0.000000 I-19.546218 J-7.573128
G03 X1622.835569 Y45.476275 Z0.000000 I21.456273 J70.705895
G03 X1632.487458 Y47.043525 Z0.000000 I0.614688 J26.718605
G03 X1639.980285 Y52.540339 Z0.000000 I-5.531966 J15.395965
G03 X1642.014222 Y58.577841 Z0.000000 I-7.943833 J6.037501
G03 X1636.421018 Y68.581046 Z0.000000 I-11.741754 J-0.000000
G03 X1606.392408 Y74.193530 Z0.000000 I-22.328401 J-36.326545
G03 X1614.508574 Y84.063796 Z0.000000 I-16.276720 J21.656125
G03 X1614.809828 Y89.648507 Z0.000000 I-6.524502 J3.152430
G03 X1610.822979 Y94.804908 Z0.000000 I-9.882515 J-3.521522
G03 X1601.659754 Y99.170575 Z0.000000 I-18.818291 J-27.698939
G03 X1578.895025 Y101.354493 Z0.000000 I-16.858091 J-55.985950
G03 X1563.560749 Y92.300041 Z0.000000 I2.147484 J-21.148898
G02 X1584.328965 Y105.245922 Z0.000000 I26.460655 J-19.317595
G02 X1609.131621 Y104.712518 Z0.000000 I11.059066 J-62.680324
G02 X1630.708353 Y94.365798 Z0.000000 I-11.356831 J-51.354272
G02 X1633.393489 Y82.960793 Z0.000000 I-5.960623 J-7.421929
G02 X1649.347887 Y78.608905 Z0.000000 I-10.180371 J-68.743160
G02 X1657.313941 Y73.748127 Z0.000000 I-10.858475 J-26.753290
G02 X1662.493832 Y66.482230 Z0.000000 I-12.174308 J-14.158452
G02 X1663.216386 Y59.655558 Z0.000000 I-11.847788 J-4.705577
G02 X1656.019996 Y48.408337 Z0.000000 I-16.824208 J2.838884
G02 X1628.422990 Y38.479734 Z0.000000 I-32.904246 J48.140984
G02 X1617.506307 Y21.923502 Z0.000000 I-24.241552 J4.106970
G02 X1597.150341 Y14.346396 Z0.000000 I-27.409947 J42.505276
G02 X1572.349445 Y14.854423 Z0.000000 I-10.830510 J76.895266
G02 X1557.179361 Y21.444436 Z0.000000 I6.556169 J35.847802
G03 X1560.400585 Y9.854741 Z0.000000 I16.637874 J-1.618192
G03 X1578.925236 Y-7.894133 Z0.000000 I61.704580 J45.859990
G03 X1602.224438 Y-20.092649 Z0.000000 I64.890362 J95.590758
G03 X1636.707144 Y-28.715053 Z0.000000 I52.049520 J134.893573
G03 X1687.490052 Y-28.276560 Z0.000000 I23.467598 J223.025442
G03 X1734.460014 Y-14.755573 Z0.000000 I-18.897332 J153.990546
G03 X1753.731391 Y-2.709882 Z0.000000 I-40.240710 J85.817929
G03 X1765.784428 Y11.477604 Z0.000000 I-31.311801 J38.814664
G03 X1770.892208 Y28.389293 Z0.000000 I-34.704333 J19.708820
G03 X1767.596591 Y51.729412 Z0.000000 I-56.288874 J3.954759
G02 X1755.269996 Y44.269909 Z0.000000 I-14.320271 J9.749390
G02 X1726.382970 Y42.147056 Z0.000000 I-39.712113 J342.784801
G03 X1696.831606 Y40.245512 Z0.000000 I14.127395 J-450.125392
G03 X1671.500535 Y31.854895 Z0.000000 I5.858502 J-60.118929
G03 X1657.709219 Y20.399538 Z0.000000 I25.660361 J-44.922472
G03 X1650.790167 Y5.237243 Z0.000000 I23.368508 J-19.823658
G03 X1653.725922 Y-7.853021 Z0.000000 I18.177715 J-2.797615
G03 X1674.814190 Y-24.929433 Z0.000000 I38.523125 J26.014043
G02 X1679.431378 Y-9.082847 Z0.000000 I39.354229 J-2.870619
G02 X1692.003772 Y5.947047 Z0.000000 I42.911388 J-23.121752
G02 X1709.218541 Y15.381132 Z0.000000 I36.005328 J-45.277127
G02 X1737.773664 Y20.498032 Z0.000000 I30.812155 J-89.713695
G03 X1702.302076 Y0.590245 Z0.000000 I46.909273 J-125.138123
G03 X1690.139852 Y-15.583678 Z0.000000 I24.095495 J-30.778715
G03 X1689.805095 Y-34.169358 Z0.000000 I24.158036 J-9.730979
G03 X1704.637117 Y-55.214409 Z0.000000 I45.882143 J16.587437
G03 X1728.942650 Y-70.058104 Z0.000000 I51.051586 J56.272300
G03 X1765.111350 Y-78.637943 Z0.000000 I51.731174 J137.549790
G03 X1802.553661 Y-78.512847 Z0.000000 I18.151903 J170.444033
G03 X1840.497029 Y-69.410491 Z0.000000 I-17.944809 J158.438373
G03 X1857.402921 Y-57.281083 Z0.000000 I-12.950218 J35.896299
G03 X1858.722143 Y-49.890877 Z0.000000 I-6.174272 J4.915016
G03 X1852.698490 Y-42.590353 Z0.000000 I-12.399915 J-4.095839
G03 X1837.183375 Y-38.179107 Z0.000000 I-17.047773 J-30.469672
