%
(Header)
(Generated by gcodetools from Inkscape.)
(Using default header. To add your own header create file "header" in the output dir.)
M3
(Header end.)
G21 (All units in mm)

(Start cutting path id: path4065)
(Change tool to Cylindrical cutter)

M300 S145 (G00 Z5.000000)
G00 X3283.220961 Y-239.028599

M300 S125 (G01 Z0.000000 F100.0(Penetrate)
G03 X3234.858739 Y-245.061585 Z0.000000 I0.000000 J-196.859528 F200.000000
G03 X3200.312721 Y-256.820318 Z0.000000 I56.183404 J-221.687179
G03 X3168.687169 Y-269.652647 Z0.000000 I761.422193 J-1921.928514
G02 X3138.131552 Y-274.612037 Z0.000000 I-25.735756 J61.953438
G02 X3081.137448 Y-255.183280 Z0.000000 I2.888217 J101.782811
G03 X3020.678277 Y-234.176312 Z0.000000 I-64.883283 J-89.231701
G03 X2986.857262 Y-238.141418 Z0.000000 I-4.150868 J-110.817955
G03 X2967.133371 Y-247.823369 Z0.000000 I15.939078 J-57.402341
G03 X2960.248886 Y-255.163446 Z0.000000 I17.239552 J-23.068134
G03 X2958.497095 Y-261.584152 Z0.000000 I9.097969 J-5.931568
G03 X2960.773765 Y-267.497609 Z0.000000 I9.987742 J0.450275
G03 X2970.587878 Y-275.420750 Z0.000000 I24.286290 J20.042798
G02 X2971.842117 Y-262.060940 Z0.000000 I11.484741 J5.660575
G02 X2984.621814 Y-251.765852 Z0.000000 I26.760455 J-20.139290
G02 X3004.755992 Y-245.360841 Z0.000000 I36.051548 J-78.479750
G02 X3020.678277 Y-243.880886 Z0.000000 I15.922286 J-84.910972
G02 X3032.845718 Y-245.843713 Z0.000000 I-2.971141 J-57.111911
G02 X3043.564386 Y-249.946245 Z0.000000 I-15.582164 J-56.765031
G02 X3052.178736 Y-256.179247 Z0.000000 I-14.621731 J-29.277283
G02 X3053.496077 Y-260.863891 Z0.000000 I-3.557206 J-3.527844
G02 X3048.854922 Y-265.887971 Z0.000000 I-9.374844 J4.004565
G02 X3036.223539 Y-271.983715 Z0.000000 I-97.878675 J186.685649
G03 X3023.201947 Y-277.875240 Z0.000000 I338.510656 J-765.520582
G03 X3018.951001 Y-281.890467 Z0.000000 I3.863054 J-8.347706
G02 X3029.472994 Y-276.907764 Z0.000000 I22.056554 J-32.975890
G02 X3048.746144 Y-272.388073 Z0.000000 I44.537176 J-146.565495
G02 X3068.430568 Y-270.337856 Z0.000000 I26.380674 J-157.763014
G02 X3081.132170 Y-271.377181 Z0.000000 I2.165120 J-51.672917
G02 X3094.557050 Y-278.412799 Z0.000000 I-6.003448 J-27.781389
G02 X3096.677447 Y-284.619880 Z0.000000 I-4.772389 J-5.096007
G02 X3092.870868 Y-290.591460 Z0.000000 I-8.816784 J1.421210
G02 X3075.950382 Y-297.256043 Z0.000000 I-23.334203 J34.430708
G02 X3109.229176 Y-302.907242 Z0.000000 I1.440928 J-92.326384
G02 X3115.029538 Y-308.679137 Z0.000000 I-3.377330 J-9.194420
G02 X3113.648341 Y-317.840582 Z0.000000 I-8.946000 J-3.336122
G02 X3103.586476 Y-325.561053 Z0.000000 I-19.536037 J15.043847
G02 X3094.654986 Y-328.440265 Z0.000000 I-15.826679 J33.802693
G02 X3076.598116 Y-329.705714 Z0.000000 I-14.466157 J76.958898
G02 X3060.358312 Y-326.543391 Z0.000000 I2.599442 J56.629310
G02 X3048.314330 Y-317.473906 Z0.000000 I8.298643 J23.552080
G02 X3046.928333 Y-324.988045 Z0.000000 I-7.188680 J-2.558929
G02 X3037.680911 Y-331.639046 Z0.000000 I-18.183612 J15.527921
G02 X3024.650612 Y-335.087782 Z0.000000 I-20.318752 J50.429543
G02 X3008.587466 Y-335.568893 Z0.000000 I-10.324760 J76.323517
G02 X2993.423364 Y-332.355559 Z0.000000 I4.314624 J57.748479
G02 X2984.675787 Y-326.003316 Z0.000000 I6.466270 J18.103801
G02 X2982.335510 Y-317.373194 Z0.000000 I9.241650 J7.138483
G02 X2989.587672 Y-299.682186 Z0.000000 I36.749621 J-4.732993
G02 X2955.335733 Y-323.836212 Z0.000000 I-40.389892 J20.912703
G02 X2927.406502 Y-320.708766 Z0.000000 I-7.759810 J56.974895
G02 X2915.598915 Y-310.191937 Z0.000000 I8.253448 J21.153211
G02 X2913.588497 Y-302.108330 Z0.000000 I15.246307 J8.083607
G02 X2916.874663 Y-296.248678 Z0.000000 I10.503964 J-2.039467
G02 X2930.645125 Y-287.046022 Z0.000000 I37.078312 J-40.578310
G02 X2946.125658 Y-281.945299 Z0.000000 I28.962205 J-61.857551
G02 X2967.133366 Y-281.081754 Z0.000000 I13.220721 J-65.662231
G02 X2988.495647 Y-286.816997 Z0.000000 I-12.058865 J-87.568192
G03 X3016.576021 Y-297.761491 Z0.000000 I354.146869 J867.142111
G03 X3044.954490 Y-306.360376 Z0.000000 I84.190629 J226.722663
G03 X3082.859405 Y-310.195476 Z0.000000 I33.390734 J140.785792
G02 X3036.128643 Y-303.267699 Z0.000000 I-0.000000 J161.073168
G02 X3003.189814 Y-291.493953 Z0.000000 I103.731292 J342.166484
G03 X2970.625218 Y-279.202409 Z0.000000 I-212.517000 J-513.748528
G03 X2937.770037 Y-274.612037 Z0.000000 I-28.310987 J-82.759180
G03 X2880.775934 Y-294.040795 Z0.000000 I2.888217 J-101.782811
G02 X2820.316763 Y-315.047763 Z0.000000 I-64.883283 J89.231701
G02 X2787.543495 Y-311.197928 Z0.000000 I-4.142128 J106.161213
G02 X2767.635480 Y-301.400706 Z0.000000 I16.300001 J58.246914
G02 X2760.772052 Y-294.061790 Z0.000000 I17.074023 J22.846630
G02 X2759.107168 Y-287.639923 Z0.000000 I8.818389 J5.712933
G02 X2761.532918 Y-281.795020 Z0.000000 I9.861468 J-0.666884
G02 X2771.953640 Y-273.803324 Z0.000000 I25.198211 J-22.067188
G03 X2772.508187 Y-287.227141 Z0.000000 I10.908602 J-6.272721
G03 X2784.692113 Y-297.458223 Z0.000000 I24.729855 J17.079834
G03 X2804.744876 Y-303.780330 Z0.000000 I35.139856 J76.495069
G03 X2822.043998 Y-305.343190 Z0.000000 I17.299122 J94.959607
G03 X2833.105907 Y-303.498661 Z0.000000 I-3.074351 J52.529519
G03 X2844.066490 Y-299.277829 Z0.000000 I-16.528696 J59.262975
G03 X2852.377286 Y-293.120313 Z0.000000 I-13.311549 J26.653889
G03 X2853.134562 Y-288.360184 Z0.000000 I-3.093538 J2.932444
G03 X2848.493409 Y-283.336106 Z0.000000 I-9.374842 J-4.004566
G03 X2835.862024 Y-277.240361 Z0.000000 I-97.878808 J-186.685918
G02 X2822.840433 Y-271.348835 Z0.000000 I338.509900 J765.518757
G02 X2818.589486 Y-267.333608 Z0.000000 I3.863055 J8.347707
G03 X2829.111480 Y-272.316311 Z0.000000 I22.056554 J32.975890
G03 X2848.384629 Y-276.836002 Z0.000000 I44.537176 J146.565495
G03 X2868.069054 Y-278.886219 Z0.000000 I26.380674 J157.763014
G03 X2880.770656 Y-277.846894 Z0.000000 I2.165120 J51.672917
G03 X2894.195536 Y-270.811276 Z0.000000 I-6.003448 J27.781389
G03 X2896.315933 Y-264.604195 Z0.000000 I-4.772389 J5.096007
G03 X2892.509354 Y-258.632614 Z0.000000 I-8.816784 J-1.421210
G03 X2875.588868 Y-251.968031 Z0.000000 I-23.334204 J-34.430708
G03 X2910.150942 Y-246.300949 Z0.000000 I1.496724 J99.097996
G03 X2916.179370 Y-240.544939 Z0.000000 I-3.393589 J9.589074
G03 X2914.950333 Y-231.363933 Z0.000000 I-8.642272 J3.515848
G03 X2904.952197 Y-223.663023 Z0.000000 I-19.360732 J-14.795376
G03 X2896.020739 Y-220.783812 Z0.000000 I-15.826594 J-33.802370
G03 X2877.963868 Y-219.518361 Z0.000000 I-14.466161 J-76.958838
G03 X2861.724059 Y-222.680682 Z0.000000 I2.599445 J-56.629391
G03 X2849.680050 Y-231.750168 Z0.000000 I8.298663 J-23.552166
G03 X2847.899632 Y-224.294463 Z0.000000 I-7.526041 J2.143220
G03 X2838.075063 Y-217.585028 Z0.000000 I-19.544517 J-18.071140
G03 X2824.717926 Y-214.125268 Z0.000000 I-20.982858 J-53.494865
G03 X2808.657765 Y-213.655181 Z0.000000 I-10.285510 J-76.819925
G03 X2793.533581 Y-216.892722 Z0.000000 I4.240299 J-56.753685
G03 X2785.069956 Y-223.220757 Z0.000000 I6.187308 J-17.099391
G03 X2783.033505 Y-231.737329 Z0.000000 I9.074611 J-6.671647
G03 X2790.953434 Y-249.541887 Z0.000000 I38.251305 J6.351397
G03 X2755.196189 Y-224.822801 Z0.000000 I-41.152947 J-21.307791
G03 X2728.772264 Y-228.515310 Z0.000000 I-6.144966 J-52.418317
G03 X2716.095590 Y-238.883613 Z0.000000 I9.649610 J-24.731613
G03 X2714.954259 Y-247.115744 Z0.000000 I8.312351 J-5.347637
G03 X2718.250826 Y-253.013422 Z0.000000 I10.609047 J2.059870
G03 X2731.794962 Y-262.178053 Z0.000000 I37.444738 J40.747916
G03 X2747.008872 Y-267.329682 Z0.000000 I28.952819 J60.463286
G03 X2766.771852 Y-268.142321 Z0.000000 I12.317001 J58.824098
G03 X2787.985594 Y-262.478225 Z0.000000 I-12.102616 J87.885903
G02 X2815.650860 Y-251.816397 Z0.000000 I324.891482 J-801.803251
G02 X2843.684550 Y-243.486329 Z0.000000 I81.245673 J-222.084285
G02 X2883.170420 Y-239.432956 Z0.000000 I35.915569 J-155.518779
G03 X2835.614397 Y-245.036465 Z0.000000 I-2.325439 J-184.866077
G03 X2800.934709 Y-256.820318 Z0.000000 I55.789142 J-221.109348
G03 X2769.309157 Y-269.652647 Z0.000000 I761.422193 J-1921.928514
G02 X2738.753540 Y-274.612037 Z0.000000 I-25.735756 J61.953438
G02 X2681.759478 Y-255.183293 Z0.000000 I2.888217 J101.782741
G03 X2621.300265 Y-234.176312 Z0.000000 I-64.883324 J-89.231758
G03 X2587.479280 Y-238.141417 Z0.000000 I-4.150866 J-110.817790
G03 X2567.755396 Y-247.823369 Z0.000000 I15.939080 J-57.402316
G03 X2560.870914 Y-255.163445 Z0.000000 I17.239553 J-23.068125
G03 X2559.119124 Y-261.584152 Z0.000000 I9.097971 J-5.931567
G03 X2561.395794 Y-267.497609 Z0.000000 I9.987744 J0.450277
G03 X2571.209907 Y-275.420750 Z0.000000 I24.286291 J20.042799
G02 X2572.464146 Y-262.060939 Z0.000000 I11.484742 J5.660576
G02 X2585.243838 Y-251.765852 Z0.000000 I26.760455 J-20.139287
G02 X2605.378011 Y-245.360839 Z0.000000 I36.051549 J-78.479716
G02 X2621.300265 Y-243.880886 Z0.000000 I15.922254 J-84.910742
G02 X2633.467736 Y-245.843715 Z0.000000 I-2.971143 J-57.112108
G02 X2644.186411 Y-249.946245 Z0.000000 I-15.582148 J-56.765052
G02 X2652.800765 Y-256.179248 Z0.000000 I-14.621718 J-29.277281
G02 X2654.118106 Y-260.863891 Z0.000000 I-3.557205 J-3.527843
G02 X2649.476951 Y-265.887971 Z0.000000 I-9.374844 J4.004565
G02 X2636.845568 Y-271.983715 Z0.000000 I-97.878675 J186.685649
G03 X2623.823977 Y-277.875240 Z0.000000 I338.510656 J-765.520582
G03 X2619.573030 Y-281.890467 Z0.000000 I3.863054 J-8.347706
G02 X2630.095023 Y-276.907764 Z0.000000 I22.056554 J-32.975890
G02 X2649.368173 Y-272.388073 Z0.000000 I44.537176 J-146.565495
G02 X2669.052597 Y-270.337856 Z0.000000 I26.380674 J-157.763014
G02 X2681.754200 Y-271.377181 Z0.000000 I2.165120 J-51.672917
G02 X2695.179080 Y-278.412799 Z0.000000 I-6.003448 J-27.781389
G02 X2697.299476 Y-284.619880 Z0.000000 I-4.772389 J-5.096007
G02 X2693.492898 Y-290.591460 Z0.000000 I-8.816784 J1.421210
G02 X2676.572411 Y-297.256043 Z0.000000 I-23.334203 J34.430708
G02 X2709.851184 Y-302.907240 Z0.000000 I1.440928 J-92.326297
G02 X2715.651552 Y-308.679137 Z0.000000 I-3.377336 J-9.194434
G02 X2714.270362 Y-317.840582 Z0.000000 I-8.945997 J-3.336129
G02 X2704.208505 Y-325.561053 Z0.000000 I-19.536009 J15.043801
G02 X2695.277016 Y-328.440265 Z0.000000 I-15.826679 J33.802693
G02 X2677.220145 Y-329.705714 Z0.000000 I-14.466157 J76.958898
G02 X2660.980341 Y-326.543391 Z0.000000 I2.599442 J56.629310
G02 X2648.936359 Y-317.473906 Z0.000000 I8.298643 J23.552080
G02 X2647.550362 Y-324.988045 Z0.000000 I-7.188680 J-2.558929
G02 X2638.302941 Y-331.639046 Z0.000000 I-18.183612 J15.527921
G02 X2625.272641 Y-335.087782 Z0.000000 I-20.318752 J50.429543
G02 X2609.209495 Y-335.568893 Z0.000000 I-10.324760 J76.323517
G02 X2594.045394 Y-332.355559 Z0.000000 I4.314624 J57.748479
G02 X2585.297817 Y-326.003316 Z0.000000 I6.466270 J18.103801
G02 X2582.957539 Y-317.373194 Z0.000000 I9.241650 J7.138483
G02 X2590.209701 Y-299.682186 Z0.000000 I36.749621 J-4.732993
G02 X2555.957762 Y-323.836212 Z0.000000 I-40.389892 J20.912703
G02 X2528.028531 Y-320.708766 Z0.000000 I-7.759810 J56.974895
G02 X2516.220945 Y-310.191937 Z0.000000 I8.253448 J21.153211
G02 X2514.210526 Y-302.108330 Z0.000000 I15.246307 J8.083607
G02 X2517.496693 Y-296.248678 Z0.000000 I10.503964 J-2.039467
G02 X2531.267154 Y-287.046022 Z0.000000 I37.078312 J-40.578310
G02 X2546.747687 Y-281.945299 Z0.000000 I28.962205 J-61.857551
G02 X2567.755396 Y-281.081754 Z0.000000 I13.220721 J-65.662231
G02 X2589.117676 Y-286.816997 Z0.000000 I-12.058865 J-87.568192
G03 X2617.198051 Y-297.761491 Z0.000000 I354.146869 J867.142111
G03 X2645.576520 Y-306.360376 Z0.000000 I84.190629 J226.722663
G03 X2683.481435 Y-310.195476 Z0.000000 I33.390734 J140.785792
G02 X2636.750673 Y-303.267699 Z0.000000 I-0.000000 J161.073168
G02 X2603.811844 Y-291.493953 Z0.000000 I103.731292 J342.166484
G03 X2571.247247 Y-279.202409 Z0.000000 I-212.517000 J-513.748528
G03 X2538.392067 Y-274.612037 Z0.000000 I-28.310987 J-82.759180
G03 X2481.397963 Y-294.040788 Z0.000000 I2.888218 J-101.782841
G02 X2420.938751 Y-315.047763 Z0.000000 I-64.883326 J89.231798
G02 X2388.165514 Y-311.197930 Z0.000000 I-4.142126 J106.161050
G02 X2368.257499 Y-301.400706 Z0.000000 I16.300016 J58.246937
G02 X2361.394068 Y-294.061790 Z0.000000 I17.074045 J22.846659
G02 X2359.729179 Y-287.639923 Z0.000000 I8.818398 J5.712944
G02 X2362.154923 Y-281.795018 Z0.000000 I9.861465 J-0.666873
G02 X2372.575628 Y-273.803324 Z0.000000 I25.198175 J-22.067115
G03 X2373.130192 Y-287.227138 Z0.000000 I10.908613 J-6.272706
G03 X2385.314137 Y-297.458223 Z0.000000 I24.729904 J17.079907
G03 X2405.366907 Y-303.780330 Z0.000000 I35.139877 J76.495149
G03 X2422.666027 Y-305.343190 Z0.000000 I17.299121 J94.959601
G03 X2433.727908 Y-303.498664 Z0.000000 I-3.074354 J52.529411
G03 X2444.688503 Y-299.277829 Z0.000000 I-16.528752 J59.263160
G03 X2452.999313 Y-293.120312 Z0.000000 I-13.311583 J26.653979
G03 X2453.756591 Y-288.360184 Z0.000000 I-3.093532 J2.932445
G03 X2449.115438 Y-283.336106 Z0.000000 I-9.374842 J-4.004566
G03 X2436.484054 Y-277.240361 Z0.000000 I-97.878808 J-186.685918
G02 X2423.462462 Y-271.348835 Z0.000000 I338.509900 J765.518757
G02 X2419.211516 Y-267.333608 Z0.000000 I3.863055 J8.347707
G03 X2429.733506 Y-272.316311 Z0.000000 I22.056566 J32.975908
G03 X2449.006643 Y-276.836002 Z0.000000 I44.537130 J146.565228
G03 X2468.691053 Y-278.886218 Z0.000000 I26.380649 J157.762795
G03 X2481.392685 Y-277.846894 Z0.000000 I2.165129 J51.673149
G03 X2494.817565 Y-270.811276 Z0.000000 I-6.003448 J27.781389
G03 X2496.937962 Y-264.604195 Z0.000000 I-4.772389 J5.096007
G03 X2493.131383 Y-258.632614 Z0.000000 I-8.816784 J-1.421210
G03 X2476.210897 Y-251.968031 Z0.000000 I-23.334204 J-34.430708
G03 X2510.772962 Y-246.300948 Z0.000000 I1.496723 J99.097930
G03 X2516.801384 Y-240.544939 Z0.000000 I-3.393586 J9.589061
G03 X2515.572343 Y-231.363928 Z0.000000 I-8.642287 J3.515847
G03 X2505.574226 Y-223.663023 Z0.000000 I-19.360735 J-14.795373
G03 X2496.642736 Y-220.783810 Z0.000000 I-15.826678 J-33.802685
G03 X2478.585866 Y-219.518361 Z0.000000 I-14.466157 J-76.958899
G03 X2462.346061 Y-222.680684 Z0.000000 I2.599441 J-56.629315
G03 X2450.302080 Y-231.750168 Z0.000000 I8.298642 J-23.552079
G03 X2448.521662 Y-224.294463 Z0.000000 I-7.526041 J2.143220
G03 X2438.697092 Y-217.585028 Z0.000000 I-19.544517 J-18.071140
G03 X2425.339954 Y-214.125268 Z0.000000 I-20.982859 J-53.494870
G03 X2409.279789 Y-213.655181 Z0.000000 I-10.285512 J-76.819956
G03 X2394.155601 Y-216.892722 Z0.000000 I4.240301 J-56.753729
G03 X2385.691968 Y-223.220757 Z0.000000 I6.187314 J-17.099416
G03 X2383.655509 Y-231.737331 Z0.000000 I9.074613 J-6.671658
G03 X2391.575422 Y-249.541887 Z0.000000 I38.251267 J6.351356
G03 X2355.818221 Y-224.822801 Z0.000000 I-41.152890 J-21.307698
G03 X2329.394294 Y-228.515310 Z0.000000 I-6.144966 J-52.418326
G03 X2316.717567 Y-238.883628 Z0.000000 I9.649604 J-24.731696
G03 X2315.576205 Y-247.115744 Z0.000000 I8.312383 J-5.347672
G03 X2318.872796 Y-253.013422 Z0.000000 I10.609102 J2.059930
G03 X2332.416966 Y-262.178053 Z0.000000 I37.444860 J40.748181
G03 X2347.630899 Y-267.329683 Z0.000000 I28.952881 J60.463513
G03 X2367.393881 Y-268.142321 Z0.000000 I12.316999 J58.824132
G03 X2388.612161 Y-262.475575 Z0.000000 I-12.099273 J87.861626
G02 X2416.246571 Y-251.816397 Z0.000000 I327.816649 J-808.728374
G02 X2444.245649 Y-243.480802 Z0.000000 I81.341714 J-222.033084
G02 X2483.581906 Y-239.432956 Z0.000000 I35.775040 J-154.500211
G03 X2435.773038 Y-245.058565 Z0.000000 I-2.326838 J-186.188597
G03 X2401.135693 Y-256.820318 Z0.000000 I55.491596 J-220.300816
G03 X2369.510141 Y-269.652647 Z0.000000 I761.422193 J-1921.928514
G02 X2338.954523 Y-274.612037 Z0.000000 I-25.735756 J61.953438
G02 X2281.960420 Y-255.183286 Z0.000000 I2.888218 J101.782841
G03 X2221.501208 Y-234.176312 Z0.000000 I-64.883326 J-89.231798
G03 X2187.680223 Y-238.141417 Z0.000000 I-4.150866 J-110.817790
G03 X2167.956338 Y-247.823369 Z0.000000 I15.939080 J-57.402316
G03 X2161.071856 Y-255.163445 Z0.000000 I17.239553 J-23.068125
G03 X2159.320066 Y-261.584152 Z0.000000 I9.097971 J-5.931567
G03 X2161.596736 Y-267.497609 Z0.000000 I9.987744 J0.450277
G03 X2171.410850 Y-275.420750 Z0.000000 I24.286291 J20.042799
G02 X2172.665089 Y-262.060939 Z0.000000 I11.484742 J5.660576
G02 X2185.444780 Y-251.765852 Z0.000000 I26.760455 J-20.139287
G02 X2205.578954 Y-245.360839 Z0.000000 I36.051549 J-78.479716
G02 X2221.501208 Y-243.880886 Z0.000000 I15.922254 J-84.910742
G02 X2233.668679 Y-245.843715 Z0.000000 I-2.971143 J-57.112108
G02 X2244.387353 Y-249.946245 Z0.000000 I-15.582148 J-56.765052
G02 X2253.001707 Y-256.179248 Z0.000000 I-14.621718 J-29.277281
G02 X2254.319048 Y-260.863891 Z0.000000 I-3.557205 J-3.527843
G02 X2249.677894 Y-265.887971 Z0.000000 I-9.374844 J4.004565
G02 X2237.046510 Y-271.983715 Z0.000000 I-97.878675 J186.685649
G03 X2224.024919 Y-277.875240 Z0.000000 I338.510656 J-765.520582
G03 X2219.773972 Y-281.890467 Z0.000000 I3.863054 J-8.347706
G02 X2230.295966 Y-276.907764 Z0.000000 I22.056554 J-32.975890
G02 X2249.569115 Y-272.388073 Z0.000000 I44.537176 J-146.565495
G02 X2269.253540 Y-270.337856 Z0.000000 I26.380674 J-157.763014
G02 X2281.955142 Y-271.377181 Z0.000000 I2.165120 J-51.672917
G02 X2295.380022 Y-278.412799 Z0.000000 I-6.003448 J-27.781389
G02 X2297.500419 Y-284.619880 Z0.000000 I-4.772389 J-5.096007
G02 X2293.693840 Y-290.591460 Z0.000000 I-8.816784 J1.421210
G02 X2276.773354 Y-297.256043 Z0.000000 I-23.334203 J34.430708
G02 X2310.052147 Y-302.907242 Z0.000000 I1.440928 J-92.326384
G02 X2315.852510 Y-308.679137 Z0.000000 I-3.377330 J-9.194420
G02 X2314.471312 Y-317.840582 Z0.000000 I-8.946000 J-3.336122
G02 X2304.409448 Y-325.561053 Z0.000000 I-19.536037 J15.043847
G02 X2295.477958 Y-328.440265 Z0.000000 I-15.826679 J33.802693
G02 X2277.421088 Y-329.705714 Z0.000000 I-14.466157 J76.958898
G02 X2261.181283 Y-326.543391 Z0.000000 I2.599442 J56.629310
G02 X2249.137301 Y-317.473906 Z0.000000 I8.298643 J23.552080
G02 X2247.751305 Y-324.988045 Z0.000000 I-7.188680 J-2.558929
G02 X2238.503883 Y-331.639046 Z0.000000 I-18.183612 J15.527921
G02 X2225.473584 Y-335.087782 Z0.000000 I-20.318752 J50.429543
G02 X2209.410437 Y-335.568893 Z0.000000 I-10.324760 J76.323517
G02 X2194.246336 Y-332.355559 Z0.000000 I4.314624 J57.748479
G02 X2185.498759 Y-326.003316 Z0.000000 I6.466270 J18.103801
G02 X2183.158481 Y-317.373194 Z0.000000 I9.241650 J7.138483
G02 X2190.410643 Y-299.682186 Z0.000000 I36.749621 J-4.732993
G02 X2156.158704 Y-323.836212 Z0.000000 I-40.389892 J20.912703
G02 X2128.229474 Y-320.708766 Z0.000000 I-7.759810 J56.974895
G02 X2116.421887 Y-310.191937 Z0.000000 I8.253448 J21.153211
G02 X2114.411468 Y-302.108330 Z0.000000 I15.246307 J8.083607
G02 X2117.697635 Y-296.248678 Z0.000000 I10.503964 J-2.039467
G02 X2131.468097 Y-287.046022 Z0.000000 I37.078312 J-40.578310
G02 X2146.948630 Y-281.945299 Z0.000000 I28.962205 J-61.857551
G02 X2167.956338 Y-281.081754 Z0.000000 I13.220721 J-65.662231
G02 X2189.318619 Y-286.816997 Z0.000000 I-12.058865 J-87.568192
G03 X2217.398993 Y-297.761491 Z0.000000 I354.146869 J867.142111
G03 X2245.777462 Y-306.360376 Z0.000000 I84.190629 J226.722663
G03 X2283.682377 Y-310.195476 Z0.000000 I33.390734 J140.785792
G02 X2236.951615 Y-303.267699 Z0.000000 I0.000000 J161.073168
G02 X2204.012786 Y-291.493953 Z0.000000 I103.731292 J342.166484
G03 X2171.448190 Y-279.202409 Z0.000000 I-212.517000 J-513.748528
G03 X2138.593009 Y-274.612037 Z0.000000 I-28.310987 J-82.759180
G03 X2081.598906 Y-294.040788 Z0.000000 I2.888218 J-101.782841
G02 X2021.139693 Y-315.047763 Z0.000000 I-64.883326 J89.231798
G02 X1988.366457 Y-311.197930 Z0.000000 I-4.142126 J106.161050
G02 X1968.458441 Y-301.400706 Z0.000000 I16.300016 J58.246937
G02 X1961.595011 Y-294.061790 Z0.000000 I17.074045 J22.846659
G02 X1959.930122 Y-287.639923 Z0.000000 I8.818398 J5.712944
G02 X1962.355865 Y-281.795018 Z0.000000 I9.861465 J-0.666873
G02 X1972.776571 Y-273.803324 Z0.000000 I25.198175 J-22.067115
G03 X1973.331134 Y-287.227138 Z0.000000 I10.908613 J-6.272706
G03 X1985.515080 Y-297.458223 Z0.000000 I24.729904 J17.079907
G03 X2005.567849 Y-303.780330 Z0.000000 I35.139877 J76.495149
G03 X2022.866970 Y-305.343190 Z0.000000 I17.299121 J94.959601
G03 X2033.928878 Y-303.498661 Z0.000000 I-3.074351 J52.529519
G03 X2044.889461 Y-299.277829 Z0.000000 I-16.528696 J59.262975
G03 X2053.200258 Y-293.120313 Z0.000000 I-13.311549 J26.653889
G03 X2053.957534 Y-288.360184 Z0.000000 I-3.093538 J2.932444
G03 X2049.316380 Y-283.336106 Z0.000000 I-9.374842 J-4.004566
G03 X2036.684996 Y-277.240361 Z0.000000 I-97.878808 J-186.685918
G02 X2023.663405 Y-271.348835 Z0.000000 I338.509900 J765.518757
G02 X2019.412458 Y-267.333608 Z0.000000 I3.863055 J8.347707
G03 X2029.934451 Y-272.316311 Z0.000000 I22.056554 J32.975890
G03 X2049.207601 Y-276.836002 Z0.000000 I44.537176 J146.565495
G03 X2068.892025 Y-278.886219 Z0.000000 I26.380674 J157.763014
G03 X2081.593628 Y-277.846894 Z0.000000 I2.165120 J51.672917
G03 X2095.018508 Y-270.811276 Z0.000000 I-6.003448 J27.781389
G03 X2097.138905 Y-264.604195 Z0.000000 I-4.772389 J5.096007
G03 X2093.332326 Y-258.632614 Z0.000000 I-8.816784 J-1.421210
G03 X2076.411839 Y-251.968031 Z0.000000 I-23.334204 J-34.430708
G03 X2110.973904 Y-246.300948 Z0.000000 I1.496723 J99.097930
G03 X2117.002326 Y-240.544939 Z0.000000 I-3.393586 J9.589061
G03 X2115.773285 Y-231.363928 Z0.000000 I-8.642287 J3.515847
G03 X2105.775168 Y-223.663023 Z0.000000 I-19.360735 J-14.795373
G03 X2096.843681 Y-220.783810 Z0.000000 I-15.826683 J-33.802694
G03 X2078.786824 Y-219.518361 Z0.000000 I-14.466148 J-76.958790
G03 X2062.547028 Y-222.680682 Z0.000000 I2.599442 J-56.629303
G03 X2050.503022 Y-231.750168 Z0.000000 I8.298672 J-23.552169
G03 X2048.722604 Y-224.294463 Z0.000000 I-7.526041 J2.143220
G03 X2038.898035 Y-217.585028 Z0.000000 I-19.544517 J-18.071140
G03 X2025.540898 Y-214.125268 Z0.000000 I-20.982858 J-53.494865
G03 X2009.480737 Y-213.655181 Z0.000000 I-10.285510 J-76.819925
G03 X1994.356553 Y-216.892722 Z0.000000 I4.240299 J-56.753685
G03 X1985.892928 Y-223.220757 Z0.000000 I6.187308 J-17.099391
G03 X1983.856477 Y-231.737329 Z0.000000 I9.074611 J-6.671647
G03 X1991.776406 Y-249.541887 Z0.000000 I38.251305 J6.351397
G03 X1956.019160 Y-224.822801 Z0.000000 I-41.152947 J-21.307791
G03 X1929.595236 Y-228.515310 Z0.000000 I-6.144966 J-52.418317
G03 X1916.918550 Y-238.883617 Z0.000000 I9.649624 J-24.731650
G03 X1915.777189 Y-247.115744 Z0.000000 I8.312403 J-5.347677
G03 X1919.073778 Y-253.013423 Z0.000000 I10.609113 J2.059933
G03 X1932.617929 Y-262.178053 Z0.000000 I37.444815 J40.748074
G03 X1947.831845 Y-267.329682 Z0.000000 I28.952841 J60.463364
G03 X1967.594824 Y-268.142321 Z0.000000 I12.317000 J58.824097
G03 X1988.808566 Y-262.478225 Z0.000000 I-12.102616 J87.885903
G02 X2016.473832 Y-251.816397 Z0.000000 I324.891482 J-801.803251
G02 X2044.507522 Y-243.486329 Z0.000000 I81.245673 J-222.084285
G02 X2083.993392 Y-239.432956 Z0.000000 I35.915569 J-155.518779
G03 X2036.437369 Y-245.036465 Z0.000000 I-2.325439 J-184.866077
G03 X2001.757681 Y-256.820318 Z0.000000 I55.789142 J-221.109348
G03 X1970.132128 Y-269.652647 Z0.000000 I761.422193 J-1921.928514
G02 X1939.576511 Y-274.612037 Z0.000000 I-25.735756 J61.953438
G02 X1882.582408 Y-255.183280 Z0.000000 I2.888217 J101.782811
G03 X1822.123237 Y-234.176312 Z0.000000 I-64.883283 J-89.231701
G03 X1788.302227 Y-238.141419 Z0.000000 I-4.150867 J-110.817902
G03 X1768.578347 Y-247.823369 Z0.000000 I15.939072 J-57.402296
G03 X1761.693864 Y-255.163445 Z0.000000 I17.239557 J-23.068130
G03 X1759.942072 Y-261.584152 Z0.000000 I9.097978 J-5.931573
G03 X1762.218739 Y-267.497611 Z0.000000 I9.987748 J0.450272
G03 X1772.032838 Y-275.420750 Z0.000000 I24.286269 J20.042752
G02 X1773.287094 Y-262.060941 Z0.000000 I11.484756 J5.660560
G02 X1786.066804 Y-251.765852 Z0.000000 I26.760506 J-20.139368
G02 X1806.200984 Y-245.360839 Z0.000000 I36.051571 J-78.479800
G02 X1822.123237 Y-243.880886 Z0.000000 I15.922253 J-84.910736
G02 X1834.290677 Y-245.843713 Z0.000000 I-2.971141 J-57.111912
G02 X1845.009351 Y-249.946245 Z0.000000 I-15.582194 J-56.765147
G02 X1853.623720 Y-256.179249 Z0.000000 I-14.621798 J-29.277442
G02 X1854.941078 Y-260.863891 Z0.000000 I-3.557215 J-3.527863
G02 X1850.299921 Y-265.887970 Z0.000000 I-9.374837 J4.004562
G02 X1837.668519 Y-271.983715 Z0.000000 I-97.878786 J186.686114
G03 X1824.646908 Y-277.875241 Z0.000000 I338.511203 J-765.522839
G03 X1820.395960 Y-281.890467 Z0.000000 I3.863047 J-8.347702
G02 X1830.917982 Y-276.907761 Z0.000000 I22.056666 J-32.976170
G02 X1850.191119 Y-272.388073 Z0.000000 I44.537182 J-146.565538
G02 X1869.875530 Y-270.337856 Z0.000000 I26.380658 J-157.762854
G02 X1882.577130 Y-271.377181 Z0.000000 I2.165120 J-51.672900
G02 X1896.002021 Y-278.412798 Z0.000000 I-6.003460 J-27.781445
G02 X1898.122428 Y-284.619880 Z0.000000 I-4.772393 J-5.096019
G02 X1894.315860 Y-290.591459 Z0.000000 I-8.816764 J1.421190
G02 X1877.395383 Y-297.256043 Z0.000000 I-23.334183 J34.430638
G02 X1910.674146 Y-302.907241 Z0.000000 I1.440927 J-92.326225
G02 X1916.474503 Y-308.679137 Z0.000000 I-3.377330 J-9.194411
G02 X1915.093302 Y-317.840582 Z0.000000 I-8.946007 J-3.336118
G02 X1905.031435 Y-325.561053 Z0.000000 I-19.536041 J15.043853
G02 X1896.099978 Y-328.440263 Z0.000000 I-15.826595 J33.802378
G02 X1878.043107 Y-329.705714 Z0.000000 I-14.466161 J76.958836
G02 X1861.803298 Y-326.543393 Z0.000000 I2.599445 J56.629386
G02 X1849.759289 Y-317.473906 Z0.000000 I8.298664 J23.552166
G02 X1848.373302 Y-324.988047 Z0.000000 I-7.188673 J-2.558939
G02 X1839.125895 Y-331.639046 Z0.000000 I-18.183580 J15.527863
G02 X1826.095604 Y-335.087782 Z0.000000 I-20.318735 J50.429466
G02 X1810.032461 Y-335.568893 Z0.000000 I-10.324758 J76.323474
G02 X1794.868364 Y-332.355560 Z0.000000 I4.314623 J57.748458
G02 X1786.120788 Y-326.003316 Z0.000000 I6.466270 J18.103799
G02 X1783.780511 Y-317.373194 Z0.000000 I9.241651 J7.138483
G02 X1791.032673 Y-299.682186 Z0.000000 I36.749622 J-4.732993
G02 X1756.780699 Y-323.836226 Z0.000000 I-40.389910 J20.912712
G02 X1728.851503 Y-320.708766 Z0.000000 I-7.759770 J56.974791
G02 X1717.043877 Y-310.191926 Z0.000000 I8.253435 J21.153261
G02 X1715.033456 Y-302.108330 Z0.000000 I15.246250 J8.083597
G02 X1718.319642 Y-296.248676 Z0.000000 I10.504038 J-2.039531
G02 X1732.090105 Y-287.046022 Z0.000000 I37.078334 J-40.578355
G02 X1747.570634 Y-281.945301 Z0.000000 I28.962187 J-61.857514
G02 X1768.578367 Y-281.081754 Z0.000000 I13.220742 J-65.662362
G02 X1789.940621 Y-286.816993 Z0.000000 I-12.058872 J-87.568123
G03 X1818.021007 Y-297.761491 Z0.000000 I354.145258 J867.137981
G03 X1846.399487 Y-306.360377 Z0.000000 I84.190654 J226.722792
G03 X1884.304407 Y-310.195476 Z0.000000 I33.390737 J140.785847
G02 X1837.573614 Y-303.267697 Z0.000000 I-0.000000 J161.073333
G02 X1804.634784 Y-291.493953 Z0.000000 I103.731136 J342.166105
G03 X1772.070189 Y-279.202406 Z0.000000 I-212.517513 J-513.749767
G03 X1739.215038 Y-274.612037 Z0.000000 I-28.310959 J-82.759058
G03 X1682.220894 Y-294.040802 Z0.000000 I2.888218 J-101.782911
G02 X1621.761723 Y-315.047763 Z0.000000 I-64.883284 J89.231742
G02 X1588.988486 Y-311.197930 Z0.000000 I-4.142126 J106.161050
G02 X1569.080471 Y-301.400706 Z0.000000 I16.300016 J58.246937
G02 X1562.217040 Y-294.061790 Z0.000000 I17.074045 J22.846659
G02 X1560.552151 Y-287.639923 Z0.000000 I8.818398 J5.712944
G02 X1562.977894 Y-281.795018 Z0.000000 I9.861465 J-0.666873
G02 X1573.398600 Y-273.803324 Z0.000000 I25.198175 J-22.067115
G03 X1573.953163 Y-287.227139 Z0.000000 I10.908614 J-6.272707
G03 X1586.137104 Y-297.458223 Z0.000000 I24.729902 J17.079903
G03 X1606.189869 Y-303.780332 Z0.000000 I35.139877 J76.495114
G03 X1623.488958 Y-305.343190 Z0.000000 I17.299089 J94.959361
G03 X1634.550869 Y-303.498662 Z0.000000 I-3.074355 J52.529599
G03 X1645.511470 Y-299.277829 Z0.000000 I-16.528734 J59.263178
G03 X1653.822285 Y-293.120311 Z0.000000 I-13.311573 J26.653979
G03 X1654.579563 Y-288.360184 Z0.000000 I-3.093531 J2.932444
G03 X1649.938408 Y-283.336107 Z0.000000 I-9.374835 J-4.004564
G03 X1637.307005 Y-277.240361 Z0.000000 I-97.878919 J-186.686383
G02 X1624.285394 Y-271.348834 Z0.000000 I338.510447 J765.521014
G02 X1620.034446 Y-267.333608 Z0.000000 I3.863048 J8.347703
G03 X1630.556467 Y-272.316314 Z0.000000 I22.056666 J32.976170
G03 X1649.829604 Y-276.836002 Z0.000000 I44.537182 J146.565538
G03 X1669.514016 Y-278.886218 Z0.000000 I26.380658 J157.762854
G03 X1682.215616 Y-277.846894 Z0.000000 I2.165120 J51.672900
G03 X1695.640507 Y-270.811276 Z0.000000 I-6.003460 J27.781445
G03 X1697.760913 Y-264.604195 Z0.000000 I-4.772393 J5.096019
G03 X1693.954345 Y-258.632616 Z0.000000 I-8.816764 J-1.421190
G03 X1677.033869 Y-251.968031 Z0.000000 I-23.334184 J-34.430638
G03 X1711.595912 Y-246.300949 Z0.000000 I1.496723 J99.097839
G03 X1717.624340 Y-240.544939 Z0.000000 I-3.393592 J9.589076
G03 X1716.395306 Y-231.363928 Z0.000000 I-8.642284 J3.515853
G03 X1706.397198 Y-223.663023 Z0.000000 I-19.360707 J-14.795327
G03 X1697.465708 Y-220.783810 Z0.000000 I-15.826678 J-33.802685
G03 X1679.408838 Y-219.518361 Z0.000000 I-14.466157 J-76.958899
G03 X1663.169033 Y-222.680684 Z0.000000 I2.599441 J-56.629315
G03 X1651.125052 Y-231.750168 Z0.000000 I8.298642 J-23.552079
G03 X1649.344634 Y-224.294463 Z0.000000 I-7.526041 J2.143220
G03 X1639.520063 Y-217.585028 Z0.000000 I-19.544517 J-18.071140
G03 X1626.162926 Y-214.125268 Z0.000000 I-20.982859 J-53.494870
G03 X1610.102761 Y-213.655181 Z0.000000 I-10.285512 J-76.819956
G03 X1594.978573 Y-216.892722 Z0.000000 I4.240301 J-56.753729
G03 X1586.514939 Y-223.220757 Z0.000000 I6.187314 J-17.099416
G03 X1584.478481 Y-231.737331 Z0.000000 I9.074613 J-6.671658
G03 X1592.398394 Y-249.541887 Z0.000000 I38.251267 J6.351356
G03 X1556.641148 Y-224.822801 Z0.000000 I-41.152947 J-21.307791
G03 X1530.217224 Y-228.515310 Z0.000000 I-6.144966 J-52.418317
G03 X1517.540549 Y-238.883613 Z0.000000 I9.649610 J-24.731613
G03 X1516.399219 Y-247.115744 Z0.000000 I8.312351 J-5.347637
G03 X1519.695788 Y-253.013421 Z0.000000 I10.609035 J2.059868
G03 X1533.239942 Y-262.178053 Z0.000000 I37.444783 J40.748023
G03 X1548.453870 Y-267.329683 Z0.000000 I28.952859 J60.463435
G03 X1568.216853 Y-268.142321 Z0.000000 I12.317000 J58.824133
G03 X1589.448974 Y-262.472231 Z0.000000 I-12.108655 J87.929630
G02 X1617.010800 Y-251.852565 Z0.000000 I320.603144 J-791.003409
G02 X1644.926582 Y-243.584465 Z0.000000 I79.995072 J-218.828853
G02 X1683.935185 Y-239.722303 Z0.000000 I34.658940 J-151.133774
G03 X1635.563796 Y-245.653808 Z0.000000 I-0.681951 J-194.638633
G03 X1601.019279 Y-257.399012 Z0.000000 I55.789318 J-220.758358
G03 X1569.393726 Y-270.231341 Z0.000000 I761.422193 J-1921.928514
G02 X1538.838109 Y-275.190731 Z0.000000 I-25.735756 J61.953438
G02 X1481.844006 Y-255.761974 Z0.000000 I2.888217 J101.782812
G03 X1421.384835 Y-234.755006 Z0.000000 I-64.883283 J-89.231703
G03 X1387.563820 Y-238.720113 Z0.000000 I-4.150869 J-110.817957
G03 X1367.839929 Y-248.402063 Z0.000000 I15.939078 J-57.402341
G03 X1360.955444 Y-255.742140 Z0.000000 I17.239552 J-23.068134
G03 X1359.203653 Y-262.162846 Z0.000000 I9.097968 J-5.931568
G03 X1361.480322 Y-268.076303 Z0.000000 I9.987742 J0.450275
G03 X1371.294436 Y-275.999444 Z0.000000 I24.286290 J20.042798
G02 X1372.548675 Y-262.639634 Z0.000000 I11.484741 J5.660575
G02 X1385.328371 Y-252.344546 Z0.000000 I26.760455 J-20.139290
G02 X1405.462549 Y-245.939536 Z0.000000 I36.051548 J-78.479750
G02 X1421.384835 Y-244.459580 Z0.000000 I15.922286 J-84.910975
G02 X1433.552276 Y-246.422408 Z0.000000 I-2.971141 J-57.111914
G02 X1444.270944 Y-250.524940 Z0.000000 I-15.582163 J-56.765032
G02 X1452.885293 Y-256.757941 Z0.000000 I-14.621730 J-29.277283
G02 X1454.202634 Y-261.442585 Z0.000000 I-3.557206 J-3.527843
G02 X1449.561479 Y-266.466665 Z0.000000 I-9.374844 J4.004565
G02 X1436.930096 Y-272.562409 Z0.000000 I-97.878675 J186.685649
G03 X1423.908505 Y-278.453934 Z0.000000 I338.510656 J-765.520582
G03 X1419.657558 Y-282.469161 Z0.000000 I3.863054 J-8.347706
G02 X1430.179552 Y-277.486458 Z0.000000 I22.056554 J-32.975890
G02 X1449.452701 Y-272.966767 Z0.000000 I44.537176 J-146.565495
G02 X1469.137126 Y-270.916550 Z0.000000 I26.380674 J-157.763014
G02 X1481.838728 Y-271.955875 Z0.000000 I2.165120 J-51.672917
G02 X1495.263608 Y-278.991493 Z0.000000 I-6.003448 J-27.781389
G02 X1497.384005 Y-285.198574 Z0.000000 I-4.772389 J-5.096007
G02 X1493.577426 Y-291.170154 Z0.000000 I-8.816784 J1.421210
G02 X1476.656940 Y-297.834737 Z0.000000 I-23.334203 J34.430708
G02 X1509.935733 Y-303.485936 Z0.000000 I1.440928 J-92.326384
G02 X1515.736096 Y-309.257831 Z0.000000 I-3.377330 J-9.194420
G02 X1514.354898 Y-318.419277 Z0.000000 I-8.946000 J-3.336122
G02 X1504.293033 Y-326.139747 Z0.000000 I-19.536037 J15.043847
G02 X1495.361544 Y-329.018959 Z0.000000 I-15.826679 J33.802693
G02 X1477.304674 Y-330.284408 Z0.000000 I-14.466157 J76.958898
G02 X1461.064869 Y-327.122085 Z0.000000 I2.599442 J56.629310
G02 X1449.020887 Y-318.052600 Z0.000000 I8.298643 J23.552080
G02 X1447.634891 Y-325.566739 Z0.000000 I-7.188680 J-2.558929
G02 X1438.387469 Y-332.217740 Z0.000000 I-18.183612 J15.527921
G02 X1425.357170 Y-335.666476 Z0.000000 I-20.318752 J50.429543
G02 X1409.294023 Y-336.147587 Z0.000000 I-10.324760 J76.323517
G02 X1394.129922 Y-332.934253 Z0.000000 I4.314624 J57.748479
G02 X1385.382345 Y-326.582010 Z0.000000 I6.466270 J18.103801
G02 X1383.042067 Y-317.951888 Z0.000000 I9.241650 J7.138483
G02 X1390.294229 Y-300.260880 Z0.000000 I36.749621 J-4.732993
G02 X1356.042290 Y-324.414906 Z0.000000 I-40.389892 J20.912703
G02 X1328.113060 Y-321.287460 Z0.000000 I-7.759810 J56.974895
G02 X1316.305473 Y-310.770631 Z0.000000 I8.253448 J21.153211
G02 X1314.295054 Y-302.687024 Z0.000000 I15.246307 J8.083607
G02 X1317.581221 Y-296.827372 Z0.000000 I10.503964 J-2.039467
G02 X1331.351683 Y-287.624716 Z0.000000 I37.078312 J-40.578310
G02 X1346.832216 Y-282.523993 Z0.000000 I28.962205 J-61.857551
G02 X1367.839924 Y-281.660448 Z0.000000 I13.220721 J-65.662231
G02 X1389.202205 Y-287.395691 Z0.000000 I-12.058865 J-87.568192
G03 X1417.282579 Y-298.340186 Z0.000000 I354.146869 J867.142111
G03 X1445.661048 Y-306.939070 Z0.000000 I84.190629 J226.722663
G03 X1483.565963 Y-310.774170 Z0.000000 I33.390734 J140.785792
G02 X1436.835201 Y-303.846393 Z0.000000 I0.000000 J161.073168
G02 X1403.896372 Y-292.072647 Z0.000000 I103.731292 J342.166484
G03 X1371.331775 Y-279.781103 Z0.000000 I-212.517000 J-513.748528
G03 X1338.476595 Y-275.190731 Z0.000000 I-28.310987 J-82.759180
G03 X1281.482492 Y-294.619489 Z0.000000 I2.888217 J-101.782811
G02 X1221.023321 Y-315.626457 Z0.000000 I-64.883283 J89.231701
G02 X1188.250052 Y-311.776622 Z0.000000 I-4.142128 J106.161213
G02 X1168.342037 Y-301.979400 Z0.000000 I16.300001 J58.246914
G02 X1161.478609 Y-294.640484 Z0.000000 I17.074023 J22.846630
G02 X1159.813726 Y-288.218617 Z0.000000 I8.818389 J5.712933
G02 X1162.239475 Y-282.373714 Z0.000000 I9.861468 J-0.666884
G02 X1172.660198 Y-274.382018 Z0.000000 I25.198211 J-22.067188
G03 X1173.214744 Y-287.805835 Z0.000000 I10.908602 J-6.272721
G03 X1185.398671 Y-298.036917 Z0.000000 I24.729855 J17.079834
G03 X1205.451434 Y-304.359024 Z0.000000 I35.139856 J76.495069
G03 X1222.750556 Y-305.921884 Z0.000000 I17.299122 J94.959607
G03 X1233.812464 Y-304.077355 Z0.000000 I-3.074351 J52.529519
G03 X1244.773047 Y-299.856523 Z0.000000 I-16.528696 J59.262975
G03 X1253.083844 Y-293.699007 Z0.000000 I-13.311549 J26.653889
G03 X1253.841120 Y-288.938878 Z0.000000 I-3.093538 J2.932444
G03 X1249.199966 Y-283.914800 Z0.000000 I-9.374842 J-4.004566
G03 X1236.568582 Y-277.819055 Z0.000000 I-97.878808 J-186.685918
G02 X1223.546991 Y-271.927529 Z0.000000 I338.509900 J765.518757
G02 X1219.296044 Y-267.912302 Z0.000000 I3.863055 J8.347707
G03 X1229.818037 Y-272.895005 Z0.000000 I22.056554 J32.975890
G03 X1249.091187 Y-277.414696 Z0.000000 I44.537176 J146.565495
G03 X1268.775611 Y-279.464913 Z0.000000 I26.380674 J157.763014
G03 X1281.477214 Y-278.425588 Z0.000000 I2.165120 J51.672917
G03 X1294.902094 Y-271.389970 Z0.000000 I-6.003448 J27.781389
G03 X1297.022491 Y-265.182889 Z0.000000 I-4.772389 J5.096007
G03 X1293.215912 Y-259.211308 Z0.000000 I-8.816784 J-1.421210
G03 X1276.295425 Y-252.546725 Z0.000000 I-23.334203 J-34.430708
G03 X1310.857499 Y-246.879643 Z0.000000 I1.496724 J99.097996
G03 X1316.885928 Y-241.123633 Z0.000000 I-3.393589 J9.589074
G03 X1315.656890 Y-231.942628 Z0.000000 I-8.642272 J3.515848
G03 X1305.658754 Y-224.241718 Z0.000000 I-19.360732 J-14.795376
G03 X1296.727297 Y-221.362507 Z0.000000 I-15.826594 J-33.802370
G03 X1278.670425 Y-220.097056 Z0.000000 I-14.466161 J-76.958838
G03 X1262.430617 Y-223.259377 Z0.000000 I2.599445 J-56.629391
G03 X1250.386608 Y-232.328863 Z0.000000 I8.298663 J-23.552166
G03 X1248.606190 Y-224.873157 Z0.000000 I-7.526041 J2.143220
G03 X1238.781621 Y-218.163723 Z0.000000 I-19.544517 J-18.071140
G03 X1225.424484 Y-214.703963 Z0.000000 I-20.982858 J-53.494865
G03 X1209.364323 Y-214.233876 Z0.000000 I-10.285510 J-76.819925
G03 X1194.240139 Y-217.471416 Z0.000000 I4.240299 J-56.753685
G03 X1185.776513 Y-223.799452 Z0.000000 I6.187308 J-17.099391
G03 X1183.740063 Y-232.316023 Z0.000000 I9.074611 J-6.671647
G03 X1191.659992 Y-250.120582 Z0.000000 I38.251305 J6.351397
G03 X1155.902746 Y-225.401496 Z0.000000 I-41.152947 J-21.307791
G03 X1129.478822 Y-229.094004 Z0.000000 I-6.144966 J-52.418317
G03 X1116.802147 Y-239.462308 Z0.000000 I9.649610 J-24.731613
G03 X1115.660817 Y-247.694438 Z0.000000 I8.312351 J-5.347637
G03 X1118.957383 Y-253.592116 Z0.000000 I10.609047 J2.059870
G03 X1132.501520 Y-262.756747 Z0.000000 I37.444739 J40.747917
G03 X1147.715430 Y-267.908376 Z0.000000 I28.952819 J60.463287
G03 X1167.478410 Y-268.721015 Z0.000000 I12.317001 J58.824098
G03 X1188.692152 Y-263.056919 Z0.000000 I-12.102616 J87.885905
G02 X1216.357418 Y-252.395091 Z0.000000 I324.891476 J-801.803246
G02 X1244.391108 Y-244.065023 Z0.000000 I81.245672 J-222.084287
G02 X1283.876978 Y-240.011650 Z0.000000 I35.915569 J-155.518781
G03 X1236.320955 Y-245.615159 Z0.000000 I-2.325439 J-184.866078
G03 X1201.641267 Y-257.399012 Z0.000000 I55.789146 J-221.109365
G03 X1170.015714 Y-270.231341 Z0.000000 I761.422193 J-1921.928514
G02 X1139.460097 Y-275.190731 Z0.000000 I-25.735756 J61.953438
G02 X1082.466035 Y-255.761987 Z0.000000 I2.888217 J101.782742
G03 X1022.006823 Y-234.755006 Z0.000000 I-64.883324 J-89.231759
G03 X988.185838 Y-238.720111 Z0.000000 I-4.150866 J-110.817792
G03 X968.461953 Y-248.402063 Z0.000000 I15.939080 J-57.402316
G03 X961.577471 Y-255.742139 Z0.000000 I17.239553 J-23.068125
G03 X959.825682 Y-262.162846 Z0.000000 I9.097971 J-5.931567
G03 X962.102352 Y-268.076303 Z0.000000 I9.987744 J0.450277
G03 X971.916465 Y-275.999444 Z0.000000 I24.286291 J20.042799
G02 X973.170704 Y-262.639633 Z0.000000 I11.484742 J5.660576
G02 X985.950396 Y-252.344546 Z0.000000 I26.760454 J-20.139287
G02 X1006.084569 Y-245.939534 Z0.000000 I36.051549 J-78.479717
G02 X1022.006823 Y-244.459580 Z0.000000 I15.922254 J-84.910745
G02 X1034.174294 Y-246.422410 Z0.000000 I-2.971143 J-57.112110
G02 X1044.892968 Y-250.524940 Z0.000000 I-15.582147 J-56.765052
G02 X1053.507323 Y-256.757942 Z0.000000 I-14.621718 J-29.277281
G02 X1054.824663 Y-261.442585 Z0.000000 I-3.557205 J-3.527843
G02 X1050.183509 Y-266.466665 Z0.000000 I-9.374844 J4.004565
G02 X1037.552126 Y-272.562409 Z0.000000 I-97.878675 J186.685649
G03 X1024.530534 Y-278.453934 Z0.000000 I338.510656 J-765.520582
G03 X1020.279588 Y-282.469161 Z0.000000 I3.863054 J-8.347706
G02 X1030.801581 Y-277.486458 Z0.000000 I22.056554 J-32.975890
G02 X1050.074731 Y-272.966767 Z0.000000 I44.537176 J-146.565495
G02 X1069.759155 Y-270.916550 Z0.000000 I26.380674 J-157.763014
G02 X1082.460757 Y-271.955875 Z0.000000 I2.165120 J-51.672917
G02 X1095.885637 Y-278.991493 Z0.000000 I-6.003448 J-27.781389
G02 X1098.006034 Y-285.198574 Z0.000000 I-4.772389 J-5.096007
G02 X1094.199455 Y-291.170154 Z0.000000 I-8.816784 J1.421210
G02 X1077.278969 Y-297.834737 Z0.000000 I-23.334203 J34.430708
G02 X1110.557742 Y-303.485934 Z0.000000 I1.440928 J-92.326297
G02 X1116.358110 Y-309.257831 Z0.000000 I-3.377336 J-9.194434
G02 X1114.976919 Y-318.419276 Z0.000000 I-8.945997 J-3.336129
G02 X1104.915063 Y-326.139747 Z0.000000 I-19.536009 J15.043801
G02 X1095.983573 Y-329.018959 Z0.000000 I-15.826679 J33.802693
G02 X1077.926703 Y-330.284408 Z0.000000 I-14.466157 J76.958898
G02 X1061.686899 Y-327.122085 Z0.000000 I2.599442 J56.629310
G02 X1049.642917 Y-318.052600 Z0.000000 I8.298643 J23.552080
G02 X1048.256920 Y-325.566739 Z0.000000 I-7.188680 J-2.558929
G02 X1039.009498 Y-332.217740 Z0.000000 I-18.183612 J15.527921
G02 X1025.979199 Y-335.666476 Z0.000000 I-20.318752 J50.429543
G02 X1009.916052 Y-336.147587 Z0.000000 I-10.324760 J76.323517
G02 X994.751951 Y-332.934253 Z0.000000 I4.314624 J57.748479
G02 X986.004374 Y-326.582010 Z0.000000 I6.466270 J18.103801
G02 X983.664097 Y-317.951888 Z0.000000 I9.241650 J7.138483
G02 X990.916259 Y-300.260880 Z0.000000 I36.749621 J-4.732993
G02 X956.664320 Y-324.414906 Z0.000000 I-40.389892 J20.912703
G02 X928.735089 Y-321.287460 Z0.000000 I-7.759810 J56.974895
G02 X916.927502 Y-310.770631 Z0.000000 I8.253448 J21.153211
G02 X914.917084 Y-302.687024 Z0.000000 I15.246307 J8.083607
G02 X918.203250 Y-296.827372 Z0.000000 I10.503964 J-2.039467
G02 X931.973712 Y-287.624716 Z0.000000 I37.078312 J-40.578310
G02 X947.454245 Y-282.523993 Z0.000000 I28.962205 J-61.857551
G02 X968.461953 Y-281.660448 Z0.000000 I13.220721 J-65.662231
G02 X989.824234 Y-287.395691 Z0.000000 I-12.058865 J-87.568192
G03 X1017.904608 Y-298.340186 Z0.000000 I354.146869 J867.142111
G03 X1046.283077 Y-306.939070 Z0.000000 I84.190629 J226.722663
G03 X1084.187992 Y-310.774170 Z0.000000 I33.390734 J140.785792
G02 X1037.457230 Y-303.846393 Z0.000000 I0.000000 J161.073168
G02 X1004.518401 Y-292.072647 Z0.000000 I103.731292 J342.166484
G03 X971.953805 Y-279.781103 Z0.000000 I-212.517000 J-513.748528
G03 X939.098624 Y-275.190731 Z0.000000 I-28.310987 J-82.759180
G03 X882.104521 Y-294.619483 Z0.000000 I2.888218 J-101.782841
G02 X821.645308 Y-315.626457 Z0.000000 I-64.883326 J89.231798
G02 X788.872072 Y-311.776624 Z0.000000 I-4.142126 J106.161050
G02 X768.964056 Y-301.979400 Z0.000000 I16.300016 J58.246937
G02 X762.100626 Y-294.640484 Z0.000000 I17.074045 J22.846659
G02 X760.435737 Y-288.218617 Z0.000000 I8.818398 J5.712944
G02 X762.861480 Y-282.373712 Z0.000000 I9.861465 J-0.666873
G02 X773.282186 Y-274.382018 Z0.000000 I25.198175 J-22.067115
G03 X773.836749 Y-287.805832 Z0.000000 I10.908613 J-6.272706
G03 X786.020695 Y-298.036917 Z0.000000 I24.729904 J17.079907
G03 X806.073464 Y-304.359024 Z0.000000 I35.139877 J76.495149
G03 X823.372585 Y-305.921884 Z0.000000 I17.299121 J94.959601
G03 X834.434465 Y-304.077358 Z0.000000 I-3.074354 J52.529411
G03 X845.395061 Y-299.856523 Z0.000000 I-16.528752 J59.263160
G03 X853.705871 Y-293.699006 Z0.000000 I-13.311583 J26.653979
G03 X854.463149 Y-288.938878 Z0.000000 I-3.093532 J2.932445
G03 X849.821995 Y-283.914800 Z0.000000 I-9.374842 J-4.004566
G03 X837.190611 Y-277.819055 Z0.000000 I-97.878808 J-186.685918
G02 X824.169020 Y-271.927529 Z0.000000 I338.509900 J765.518757
G02 X819.918073 Y-267.912302 Z0.000000 I3.863055 J8.347707
G03 X830.440064 Y-272.895005 Z0.000000 I22.056566 J32.975908
G03 X849.713201 Y-277.414696 Z0.000000 I44.537130 J146.565228
G03 X869.397611 Y-279.464912 Z0.000000 I26.380649 J157.762795
G03 X882.099243 Y-278.425588 Z0.000000 I2.165129 J51.673149
G03 X895.524123 Y-271.389970 Z0.000000 I-6.003448 J27.781389
G03 X897.644520 Y-265.182889 Z0.000000 I-4.772389 J5.096007
G03 X893.837941 Y-259.211308 Z0.000000 I-8.816784 J-1.421210
G03 X876.917455 Y-252.546725 Z0.000000 I-23.334203 J-34.430708
G03 X911.479520 Y-246.879642 Z0.000000 I1.496723 J99.097930
G03 X917.507942 Y-241.123633 Z0.000000 I-3.393586 J9.589061
G03 X916.278901 Y-231.942622 Z0.000000 I-8.642287 J3.515847
G03 X906.280784 Y-224.241718 Z0.000000 I-19.360735 J-14.795373
G03 X897.349294 Y-221.362505 Z0.000000 I-15.826678 J-33.802685
G03 X879.292424 Y-220.097056 Z0.000000 I-14.466157 J-76.958899
G03 X863.052619 Y-223.259379 Z0.000000 I2.599441 J-56.629315
G03 X851.008637 Y-232.328863 Z0.000000 I8.298642 J-23.552079
G03 X849.228219 Y-224.873157 Z0.000000 I-7.526041 J2.143220
G03 X839.403649 Y-218.163723 Z0.000000 I-19.544517 J-18.071140
G03 X826.046512 Y-214.703963 Z0.000000 I-20.982859 J-53.494870
G03 X809.986347 Y-214.233876 Z0.000000 I-10.285512 J-76.819956
G03 X794.862158 Y-217.471416 Z0.000000 I4.240301 J-56.753729
G03 X786.398525 Y-223.799452 Z0.000000 I6.187314 J-17.099416
G03 X784.362067 Y-232.316026 Z0.000000 I9.074613 J-6.671658
G03 X792.281980 Y-250.120582 Z0.000000 I38.251267 J6.351356
G03 X756.524779 Y-225.401495 Z0.000000 I-41.152890 J-21.307698
G03 X730.100851 Y-229.094004 Z0.000000 I-6.144966 J-52.418326
G03 X717.424147 Y-239.462312 Z0.000000 I9.649631 J-24.731698
G03 X716.282796 Y-247.694438 Z0.000000 I8.312357 J-5.347659
G03 X719.579375 Y-253.592116 Z0.000000 I10.609071 J2.059900
G03 X733.123532 Y-262.756747 Z0.000000 I37.444808 J40.748071
G03 X748.337457 Y-267.908377 Z0.000000 I28.952858 J60.463431
G03 X768.100439 Y-268.721015 Z0.000000 I12.316999 J58.824122
G03 X789.318719 Y-263.054269 Z0.000000 I-12.099273 J87.861627
G02 X816.953129 Y-252.395091 Z0.000000 I327.816643 J-808.728369
G02 X844.952207 Y-244.059496 Z0.000000 I81.341714 J-222.033086
G02 X884.288464 Y-240.011650 Z0.000000 I35.775039 J-154.500213
G03 X836.479595 Y-245.637259 Z0.000000 I-2.326838 J-186.188599
G03 X801.842251 Y-257.399012 Z0.000000 I55.491600 J-220.300833
G03 X770.216698 Y-270.231341 Z0.000000 I761.422193 J-1921.928514
G02 X739.661081 Y-275.190731 Z0.000000 I-25.735756 J61.953438
G02 X682.666982 Y-255.761977 Z0.000000 I2.888217 J101.782811
G03 X622.207798 Y-234.755006 Z0.000000 I-64.883296 J-89.231728
G03 X588.386797 Y-238.720112 Z0.000000 I-4.150867 J-110.817875
G03 X568.662912 Y-248.402063 Z0.000000 I15.939075 J-57.402313
G03 X561.778430 Y-255.742139 Z0.000000 I17.239552 J-23.068125
G03 X560.026640 Y-262.162846 Z0.000000 I9.097972 J-5.931568
G03 X562.303309 Y-268.076304 Z0.000000 I9.987745 J0.450276
G03 X572.117420 Y-275.999444 Z0.000000 I24.286288 J20.042792
G02 X573.371663 Y-262.639634 Z0.000000 I11.484743 J5.660572
G02 X586.151362 Y-252.344546 Z0.000000 I26.760470 J-20.139313
G02 X606.285541 Y-245.939534 Z0.000000 I36.051560 J-78.479767
G02 X622.207798 Y-244.459580 Z0.000000 I15.922257 J-84.910780
G02 X634.375245 Y-246.422408 Z0.000000 I-2.971142 J-57.111962
G02 X645.093919 Y-250.524940 Z0.000000 I-15.582179 J-56.765113
G02 X653.708281 Y-256.757942 Z0.000000 I-14.621764 J-29.277371
G02 X655.025631 Y-261.442585 Z0.000000 I-3.557209 J-3.527853
G02 X650.384478 Y-266.466664 Z0.000000 I-9.374835 J4.004557
G02 X637.753088 Y-272.562409 Z0.000000 I-97.878663 J186.685697
G03 X624.731490 Y-278.453934 Z0.000000 I338.511357 J-765.522524
G03 X620.480543 Y-282.469161 Z0.000000 I3.863051 J-8.347704
G02 X631.002543 Y-277.486457 Z0.000000 I22.056593 J-32.975982
G02 X650.275683 Y-272.966767 Z0.000000 I44.537161 J-146.565404
G02 X669.960097 Y-270.916550 Z0.000000 I26.380659 J-157.762863
G02 X682.661704 Y-271.955875 Z0.000000 I2.165122 J-51.672955
G02 X696.086593 Y-278.991493 Z0.000000 I-6.003455 J-27.781426
G02 X698.206995 Y-285.198574 Z0.000000 I-4.772390 J-5.096013
G02 X694.400422 Y-291.170154 Z0.000000 I-8.816773 J1.421199
G02 X677.479940 Y-297.834737 Z0.000000 I-23.334193 J34.430672
G02 X710.758715 Y-303.485935 Z0.000000 I1.440928 J-92.326293
G02 X716.559077 Y-309.257831 Z0.000000 I-3.377331 J-9.194419
G02 X715.177879 Y-318.419276 Z0.000000 I-8.946001 J-3.336122
G02 X705.116014 Y-326.139747 Z0.000000 I-19.536033 J15.043841
G02 X696.184530 Y-329.018959 Z0.000000 I-15.826663 J33.802632
G02 X678.127662 Y-330.284408 Z0.000000 I-14.466156 J76.958871
G02 X661.887859 Y-327.122085 Z0.000000 I2.599442 J56.629315
G02 X649.843871 Y-318.052600 Z0.000000 I8.298648 J23.552098
G02 X648.457878 Y-325.566740 Z0.000000 I-7.188678 J-2.558932
G02 X639.210460 Y-332.217740 Z0.000000 I-18.183603 J15.527904
G02 X626.180163 Y-335.666476 Z0.000000 I-20.318747 J50.429521
G02 X610.117017 Y-336.147587 Z0.000000 I-10.324760 J76.323510
G02 X594.952916 Y-332.934253 Z0.000000 I4.314624 J57.748481
G02 X586.205338 Y-326.582010 Z0.000000 I6.466271 J18.103806
G02 X583.865059 Y-317.951887 Z0.000000 I9.241651 J7.138485
G02 X591.117218 Y-300.260880 Z0.000000 I36.749614 J-4.732985
G02 X556.865278 Y-324.414912 Z0.000000 I-40.389882 J20.912679
G02 X528.936061 Y-321.287460 Z0.000000 I-7.759794 J56.974855
G02 X517.128442 Y-310.770622 Z0.000000 I8.253437 J21.153251
G02 X515.118022 Y-302.687024 Z0.000000 I15.246261 J8.083599
G02 X518.404198 Y-296.827371 Z0.000000 I10.504001 J-2.039499
G02 X532.174661 Y-287.624716 Z0.000000 I37.078323 J-40.578333
G02 X547.655191 Y-282.523994 Z0.000000 I28.962196 J-61.857532
G02 X568.662912 Y-281.660448 Z0.000000 I13.220731 J-65.662296
G02 X590.025191 Y-287.395690 Z0.000000 I-12.058867 J-87.568199
G03 X618.105570 Y-298.340186 Z0.000000 I354.146707 J867.141785
G03 X646.484043 Y-306.939070 Z0.000000 I84.190647 J226.722741
G03 X684.388960 Y-310.774170 Z0.000000 I33.390735 J140.785809
G02 X637.658177 Y-303.846391 Z0.000000 I0.000000 J161.073278
G02 X604.719348 Y-292.072647 Z0.000000 I103.731189 J342.166234
G03 X572.154752 Y-279.781102 Z0.000000 I-212.517279 J-513.749202
G03 X539.299587 Y-275.190731 Z0.000000 I-28.310972 J-82.759116
G03 X482.305467 Y-294.619490 Z0.000000 I2.888218 J-101.782860
G02 X421.846284 Y-315.626457 Z0.000000 I-64.883296 J89.231747
G02 X389.073040 Y-311.776624 Z0.000000 I-4.142126 J106.161090
G02 X369.165023 Y-301.979400 Z0.000000 I16.300014 J58.246940
G02 X362.301593 Y-294.640484 Z0.000000 I17.074040 J22.846654
G02 X360.636705 Y-288.218617 Z0.000000 I8.818395 J5.712941
G02 X363.062450 Y-282.373713 Z0.000000 I9.861465 J-0.666876
G02 X373.483161 Y-274.382018 Z0.000000 I25.198186 J-22.067137
G03 X374.037720 Y-287.805833 Z0.000000 I10.908608 J-6.272710
G03 X386.221662 Y-298.036917 Z0.000000 I24.729894 J17.079892
G03 X406.274431 Y-304.359025 Z0.000000 I35.139878 J76.495140
G03 X423.573540 Y-305.921884 Z0.000000 I17.299109 J94.959521
G03 X434.635441 Y-304.077356 Z0.000000 I-3.074353 J52.529511
G03 X445.596033 Y-299.856523 Z0.000000 I-16.528724 J59.263092
G03 X453.906839 Y-293.699006 Z0.000000 I-13.311567 J26.653943
G03 X454.664116 Y-288.938878 Z0.000000 I-3.093534 J2.932444
G03 X450.022965 Y-283.914801 Z0.000000 I-9.374833 J-4.004558
G03 X437.391574 Y-277.819055 Z0.000000 I-97.878796 J-186.685966
G02 X424.369976 Y-271.927529 Z0.000000 I338.510601 J765.520699
G02 X420.119028 Y-267.912302 Z0.000000 I3.863052 J8.347705
G03 X430.641029 Y-272.895006 Z0.000000 I22.056593 J32.975982
G03 X449.914169 Y-277.414696 Z0.000000 I44.537161 J146.565404
G03 X469.598582 Y-279.464912 Z0.000000 I26.380659 J157.762863
G03 X482.300190 Y-278.425588 Z0.000000 I2.165122 J51.672955
G03 X495.725076 Y-271.389970 Z0.000000 I-6.003455 J27.781423
G03 X497.845479 Y-265.182889 Z0.000000 I-4.772391 J5.096014
G03 X494.038906 Y-259.211309 Z0.000000 I-8.816772 J-1.421198
G03 X477.118426 Y-252.546725 Z0.000000 I-23.334191 J-34.430666
G03 X511.680479 Y-246.879643 Z0.000000 I1.496723 J99.097881
G03 X517.708905 Y-241.123633 Z0.000000 I-3.393589 J9.589070
G03 X516.479868 Y-231.942623 Z0.000000 I-8.642283 J3.515850
G03 X506.481751 Y-224.241718 Z0.000000 I-19.360721 J-14.795351
G03 X497.550268 Y-221.362505 Z0.000000 I-15.826662 J-33.802624
G03 X479.493401 Y-220.097056 Z0.000000 I-14.466156 J-76.958861
G03 X463.253598 Y-223.259378 Z0.000000 I2.599442 J-56.629318
G03 X451.209609 Y-232.328863 Z0.000000 I8.298650 J-23.552106
G03 X449.429190 Y-224.873157 Z0.000000 I-7.526042 J2.143219
G03 X439.604619 Y-218.163723 Z0.000000 I-19.544520 J-18.071147
G03 X426.247480 Y-214.703963 Z0.000000 I-20.982860 J-53.494877
G03 X410.187316 Y-214.233876 Z0.000000 I-10.285512 J-76.819951
G03 X395.063129 Y-217.471416 Z0.000000 I4.240300 J-56.753718
G03 X386.599498 Y-223.799452 Z0.000000 I6.187312 J-17.099409
G03 X384.563042 Y-232.316025 Z0.000000 I9.074612 J-6.671655
G03 X392.482959 Y-250.120582 Z0.000000 I38.251278 J6.351368
G03 X356.725732 Y-225.401498 Z0.000000 I-41.152927 J-21.307761
G03 X330.301799 Y-229.094004 Z0.000000 I-6.144972 J-52.418347
G03 X317.625114 Y-239.462307 Z0.000000 I9.649642 J-24.731675
G03 X316.483763 Y-247.694438 Z0.000000 I8.312370 J-5.347663
G03 X319.780341 Y-253.592116 Z0.000000 I10.609071 J2.059898
G03 X333.324494 Y-262.756747 Z0.000000 I37.444797 J40.748045
G03 X348.538416 Y-267.908376 Z0.000000 I28.952850 J60.463401
G03 X368.301398 Y-268.721015 Z0.000000 I12.317000 J58.824119
G03 X389.515137 Y-263.056919 Z0.000000 I-12.102614 J87.885879
G02 X417.180401 Y-252.395091 Z0.000000 I324.891046 J-801.802073
G02 X445.214090 Y-244.065024 Z0.000000 I81.245643 J-222.084208
G02 X484.699974 Y-240.011650 Z0.000000 I35.915582 J-155.518868
G03 X437.143947 Y-245.615160 Z0.000000 I-2.325439 J-184.866104
G03 X402.464259 Y-257.399012 Z0.000000 I55.789140 J-221.109350
G03 X370.838707 Y-270.231341 Z0.000000 I761.422101 J-1921.928281
G02 X340.283090 Y-275.190731 Z0.000000 I-25.735756 J61.953436
G02 X283.288991 Y-255.761977 Z0.000000 I2.888217 J101.782811
G03 X222.829807 Y-234.755006 Z0.000000 I-64.883296 J-89.231729
G03 X189.008805 Y-238.720112 Z0.000000 I-4.150867 J-110.817875
G03 X169.284921 Y-248.402063 Z0.000000 I15.939075 J-57.402313
G03 X162.400439 Y-255.742139 Z0.000000 I17.239552 J-23.068125
G03 X160.648648 Y-262.162846 Z0.000000 I9.097972 J-5.931568
G03 X162.925318 Y-268.076304 Z0.000000 I9.987745 J0.450276
G03 X172.739428 Y-275.999444 Z0.000000 I24.286288 J20.042792
G02 X173.993672 Y-262.639634 Z0.000000 I11.484743 J5.660572
G02 X186.773371 Y-252.344546 Z0.000000 I26.760470 J-20.139313
G02 X206.907550 Y-245.939534 Z0.000000 I36.051560 J-78.479767
G02 X222.829807 Y-244.459580 Z0.000000 I15.922257 J-84.910780
G02 X234.997254 Y-246.422408 Z0.000000 I-2.971142 J-57.111962
G02 X245.715928 Y-250.524940 Z0.000000 I-15.582179 J-56.765113
G02 X254.330290 Y-256.757942 Z0.000000 I-14.621764 J-29.277371
G02 X255.647639 Y-261.442585 Z0.000000 I-3.557209 J-3.527853
G02 X251.006487 Y-266.466664 Z0.000000 I-9.374835 J4.004557
G02 X238.375097 Y-272.562409 Z0.000000 I-97.878663 J186.685697
G03 X225.353499 Y-278.453934 Z0.000000 I338.511357 J-765.522524
G03 X221.102551 Y-282.469161 Z0.000000 I3.863051 J-8.347704
G02 X231.624552 Y-277.486457 Z0.000000 I22.056593 J-32.975982
G02 X250.897692 Y-272.966767 Z0.000000 I44.537161 J-146.565404
G02 X270.582105 Y-270.916550 Z0.000000 I26.380659 J-157.762864
G02 X283.283713 Y-271.955875 Z0.000000 I2.165122 J-51.672958
G02 X296.708602 Y-278.991493 Z0.000000 I-6.003455 J-27.781426
G02 X298.829004 Y-285.198574 Z0.000000 I-4.772390 J-5.096013
G02 X295.022431 Y-291.170154 Z0.000000 I-8.816773 J1.421199
G02 X278.101949 Y-297.834737 Z0.000000 I-23.334193 J34.430672
G02 X311.380724 Y-303.485935 Z0.000000 I1.440928 J-92.326293
G02 X317.181086 Y-309.257831 Z0.000000 I-3.377331 J-9.194419
G02 X315.799888 Y-318.419276 Z0.000000 I-8.946001 J-3.336122
G02 X305.738023 Y-326.139747 Z0.000000 I-19.536033 J15.043841
G02 X296.806539 Y-329.018959 Z0.000000 I-15.826663 J33.802632
G02 X278.749671 Y-330.284408 Z0.000000 I-14.466156 J76.958872
G02 X262.509867 Y-327.122085 Z0.000000 I2.599442 J56.629316
G02 X250.465880 Y-318.052600 Z0.000000 I8.298648 J23.552097
G02 X249.079886 Y-325.566740 Z0.000000 I-7.188678 J-2.558932
G02 X239.832469 Y-332.217740 Z0.000000 I-18.183603 J15.527904
G02 X226.802172 Y-335.666476 Z0.000000 I-20.318747 J50.429521
G02 X210.739026 Y-336.147587 Z0.000000 I-10.324760 J76.323510
G02 X195.574925 Y-332.934253 Z0.000000 I4.314624 J57.748481
G02 X186.827346 Y-326.582010 Z0.000000 I6.466271 J18.103806
G02 X184.487067 Y-317.951887 Z0.000000 I9.241651 J7.138485
G02 X191.739226 Y-300.260880 Z0.000000 I36.749614 J-4.732985
G02 X157.487287 Y-324.414912 Z0.000000 I-40.389882 J20.912679
G02 X129.558069 Y-321.287460 Z0.000000 I-7.759794 J56.974855
G02 X117.750451 Y-310.770622 Z0.000000 I8.253437 J21.153251
G02 X115.740031 Y-302.687024 Z0.000000 I15.246261 J8.083599
G02 X119.026207 Y-296.827371 Z0.000000 I10.504001 J-2.039499
G02 X132.796669 Y-287.624716 Z0.000000 I37.078323 J-40.578333
G02 X148.277200 Y-282.523994 Z0.000000 I28.962196 J-61.857532
G02 X169.284921 Y-281.660448 Z0.000000 I13.220731 J-65.662296
G02 X190.647199 Y-287.395690 Z0.000000 I-12.058867 J-87.568199
G03 X218.727579 Y-298.340186 Z0.000000 I354.146701 J867.141769
G03 X247.106052 Y-306.939070 Z0.000000 I84.190647 J226.722741
G03 X285.010969 Y-310.774170 Z0.000000 I33.390735 J140.785811
G02 X238.280186 Y-303.846391 Z0.000000 I0.000000 J161.073280
G02 X205.341356 Y-292.072647 Z0.000000 I103.731189 J342.166233
G03 X172.776761 Y-279.781102 Z0.000000 I-212.517281 J-513.749208
G03 X139.921596 Y-275.190731 Z0.000000 I-28.310972 J-82.759116
G03 X82.927476 Y-294.619490 Z0.000000 I2.888218 J-101.782860
G02 X22.468293 Y-315.626457 Z0.000000 I-64.883296 J89.231747
G02 X-10.304951 Y-311.776624 Z0.000000 I-4.142126 J106.161088
G02 X-30.212967 Y-301.979400 Z0.000000 I16.300014 J58.246937
G02 X-37.076398 Y-294.640484 Z0.000000 I17.074040 J22.846654
G02 X-38.741285 Y-288.218617 Z0.000000 I8.818395 J5.712941
G02 X-36.315540 Y-282.373713 Z0.000000 I9.861465 J-0.666876
G02 X-25.894830 Y-274.382018 Z0.000000 I25.198185 J-22.067135
G03 X-25.340271 Y-287.805833 Z0.000000 I10.908608 J-6.272710
G03 X-13.156329 Y-298.036917 Z0.000000 I24.729894 J17.079892
G03 X6.896440 Y-304.359025 Z0.000000 I35.139878 J76.495140
G03 X24.195549 Y-305.921884 Z0.000000 I17.299109 J94.959521
G03 X35.257449 Y-304.077356 Z0.000000 I-3.074353 J52.529511
G03 X46.218042 Y-299.856523 Z0.000000 I-16.528724 J59.263092
G03 X54.528848 Y-293.699006 Z0.000000 I-13.311567 J26.653943
G03 X55.286125 Y-288.938878 Z0.000000 I-3.093534 J2.932444
G03 X50.644973 Y-283.914801 Z0.000000 I-9.374833 J-4.004558
G03 X38.013582 Y-277.819055 Z0.000000 I-97.878796 J-186.685966
G02 X24.991984 Y-271.927529 Z0.000000 I338.510601 J765.520699
G02 X20.741037 Y-267.912302 Z0.000000 I3.863052 J8.347705
G03 X31.263038 Y-272.895006 Z0.000000 I22.056593 J32.975982
G03 X50.536177 Y-277.414696 Z0.000000 I44.537161 J146.565404
G03 X70.220591 Y-279.464912 Z0.000000 I26.380659 J157.762863
G03 X82.922198 Y-278.425588 Z0.000000 I2.165122 J51.672955
G03 X96.347085 Y-271.389970 Z0.000000 I-6.003455 J27.781423
G03 X98.467487 Y-265.182889 Z0.000000 I-4.772391 J5.096014
G03 X94.660915 Y-259.211309 Z0.000000 I-8.816772 J-1.421198
G03 X77.740435 Y-252.546725 Z0.000000 I-23.334191 J-34.430666
G03 X112.302488 Y-246.879643 Z0.000000 I1.496723 J99.097881
G03 X118.330913 Y-241.123633 Z0.000000 I-3.393589 J9.589070
G03 X117.101876 Y-231.942623 Z0.000000 I-8.642283 J3.515850
G03 X107.103759 Y-224.241718 Z0.000000 I-19.360721 J-14.795351
G03 X98.172277 Y-221.362505 Z0.000000 I-15.826662 J-33.802624
G03 X80.115409 Y-220.097056 Z0.000000 I-14.466156 J-76.958861
G03 X63.875607 Y-223.259378 Z0.000000 I2.599442 J-56.629318
G03 X51.831617 Y-232.328863 Z0.000000 I8.298650 J-23.552106
G03 X50.051199 Y-224.873157 Z0.000000 I-7.526042 J2.143219
G03 X40.226627 Y-218.163723 Z0.000000 I-19.544520 J-18.071147
G03 X26.869489 Y-214.703963 Z0.000000 I-20.982860 J-53.494877
G03 X10.809325 Y-214.233876 Z0.000000 I-10.285512 J-76.819951
G03 X-4.314863 Y-217.471416 Z0.000000 I4.240300 J-56.753718
G03 X-12.778494 Y-223.799452 Z0.000000 I6.187312 J-17.099409
G03 X-14.814950 Y-232.316025 Z0.000000 I9.074612 J-6.671655
G03 X-6.895032 Y-250.120582 Z0.000000 I38.251278 J6.351368
G03 X-42.652259 Y-225.401498 Z0.000000 I-41.152927 J-21.307761
G03 X-69.076193 Y-229.094004 Z0.000000 I-6.144972 J-52.418350
G03 X-81.752878 Y-239.462307 Z0.000000 I9.649642 J-24.731675
G03 X-82.894228 Y-247.694438 Z0.000000 I8.312368 J-5.347661
G03 X-79.597649 Y-253.592116 Z0.000000 I10.609074 J2.059900
G03 X-66.053496 Y-262.756747 Z0.000000 I37.444799 J40.748050
G03 X-50.839575 Y-267.908376 Z0.000000 I28.952850 J60.463401
G03 X-31.076594 Y-268.721015 Z0.000000 I12.317000 J58.824115
G03 X-9.843135 Y-263.052043 Z0.000000 I-12.115473 J87.979253
G02 X17.718343 Y-252.445635 Z0.000000 I315.250298 J-778.086129
G02 X45.632900 Y-244.209518 Z0.000000 I79.380423 J-217.619674
G02 X84.649454 Y-240.416008 Z0.000000 I34.348639 J-150.737558
M300 S145 (G00 Z5.000000)

(End cutting path id: path4065)


(Start cutting path id: path4055)
(Change tool to Cylindrical cutter)

M300 S145 (G00 Z5.000000)
G00 X3283.220961 Y-101.056599

M01 (Change Pen #2)

M300 S125 (G01 Z0.000000 F100.0(Penetrate)
G03 X3234.858739 Y-107.089585 Z0.000000 I0.000000 J-196.859528 F200.000000
G03 X3200.312721 Y-118.848318 Z0.000000 I56.183404 J-221.687179
G03 X3168.687169 Y-131.680647 Z0.000000 I761.422193 J-1921.928514
G02 X3138.131552 Y-136.640037 Z0.000000 I-25.735756 J61.953438
G02 X3081.137448 Y-117.211280 Z0.000000 I2.888217 J101.782811
G03 X3020.678277 Y-96.204312 Z0.000000 I-64.883283 J-89.231701
G03 X2986.857262 Y-100.169418 Z0.000000 I-4.150868 J-110.817955
G03 X2967.133371 Y-109.851369 Z0.000000 I15.939078 J-57.402341
G03 X2960.248886 Y-117.191446 Z0.000000 I17.239552 J-23.068134
G03 X2958.497095 Y-123.612152 Z0.000000 I9.097969 J-5.931568
G03 X2960.773765 Y-129.525609 Z0.000000 I9.987742 J0.450275
G03 X2970.587878 Y-137.448750 Z0.000000 I24.286290 J20.042798
G02 X2971.842117 Y-124.088940 Z0.000000 I11.484741 J5.660575
G02 X2984.621814 Y-113.793852 Z0.000000 I26.760455 J-20.139290
G02 X3004.755992 Y-107.388841 Z0.000000 I36.051548 J-78.479750
G02 X3020.678277 Y-105.908886 Z0.000000 I15.922286 J-84.910972
G02 X3032.845718 Y-107.871713 Z0.000000 I-2.971141 J-57.111911
G02 X3043.564386 Y-111.974245 Z0.000000 I-15.582164 J-56.765031
G02 X3052.178736 Y-118.207247 Z0.000000 I-14.621731 J-29.277283
G02 X3053.496077 Y-122.891891 Z0.000000 I-3.557206 J-3.527844
G02 X3048.854922 Y-127.915971 Z0.000000 I-9.374844 J4.004565
G02 X3036.223539 Y-134.011715 Z0.000000 I-97.878675 J186.685649
G03 X3023.201947 Y-139.903240 Z0.000000 I338.510656 J-765.520582
G03 X3018.951001 Y-143.918467 Z0.000000 I3.863054 J-8.347706
G02 X3029.472994 Y-138.935764 Z0.000000 I22.056554 J-32.975890
G02 X3048.746144 Y-134.416073 Z0.000000 I44.537176 J-146.565495
G02 X3068.430568 Y-132.365856 Z0.000000 I26.380674 J-157.763014
G02 X3081.132170 Y-133.405181 Z0.000000 I2.165120 J-51.672917
G02 X3094.557050 Y-140.440799 Z0.000000 I-6.003448 J-27.781389
G02 X3096.677447 Y-146.647880 Z0.000000 I-4.772389 J-5.096007
G02 X3092.870868 Y-152.619460 Z0.000000 I-8.816784 J1.421210
G02 X3075.950382 Y-159.284043 Z0.000000 I-23.334203 J34.430708
G02 X3109.229176 Y-164.935242 Z0.000000 I1.440928 J-92.326384
G02 X3115.029538 Y-170.707137 Z0.000000 I-3.377330 J-9.194420
G02 X3113.648341 Y-179.868582 Z0.000000 I-8.946000 J-3.336122
G02 X3103.586476 Y-187.589053 Z0.000000 I-19.536037 J15.043847
G02 X3094.654986 Y-190.468265 Z0.000000 I-15.826679 J33.802693
G02 X3076.598116 Y-191.733714 Z0.000000 I-14.466157 J76.958898
G02 X3060.358312 Y-188.571391 Z0.000000 I2.599442 J56.629310
G02 X3048.314330 Y-179.501906 Z0.000000 I8.298643 J23.552080
G02 X3046.928333 Y-187.016045 Z0.000000 I-7.188680 J-2.558929
G02 X3037.680911 Y-193.667046 Z0.000000 I-18.183612 J15.527921
G02 X3024.650612 Y-197.115782 Z0.000000 I-20.318752 J50.429543
G02 X3008.587466 Y-197.596893 Z0.000000 I-10.324760 J76.323517
G02 X2993.423364 Y-194.383559 Z0.000000 I4.314624 J57.748479
G02 X2984.675787 Y-188.031316 Z0.000000 I6.466270 J18.103801
G02 X2982.335510 Y-179.401194 Z0.000000 I9.241650 J7.138483
G02 X2989.587672 Y-161.710186 Z0.000000 I36.749621 J-4.732993
G02 X2955.335733 Y-185.864212 Z0.000000 I-40.389892 J20.912703
G02 X2927.406502 Y-182.736766 Z0.000000 I-7.759810 J56.974895
G02 X2915.598915 Y-172.219937 Z0.000000 I8.253448 J21.153211
G02 X2913.588497 Y-164.136330 Z0.000000 I15.246307 J8.083607
G02 X2916.874663 Y-158.276678 Z0.000000 I10.503964 J-2.039467
G02 X2930.645125 Y-149.074022 Z0.000000 I37.078312 J-40.578310
G02 X2946.125658 Y-143.973299 Z0.000000 I28.962205 J-61.857551
G02 X2967.133366 Y-143.109754 Z0.000000 I13.220721 J-65.662231
G02 X2988.495647 Y-148.844997 Z0.000000 I-12.058865 J-87.568192
G03 X3016.576021 Y-159.789491 Z0.000000 I354.146869 J867.142111
G03 X3044.954490 Y-168.388376 Z0.000000 I84.190629 J226.722663
G03 X3082.859405 Y-172.223476 Z0.000000 I33.390734 J140.785792
G02 X3036.128643 Y-165.295699 Z0.000000 I-0.000000 J161.073168
G02 X3003.189814 Y-153.521953 Z0.000000 I103.731292 J342.166484
G03 X2970.625218 Y-141.230409 Z0.000000 I-212.517000 J-513.748528
G03 X2937.770037 Y-136.640037 Z0.000000 I-28.310987 J-82.759180
G03 X2880.775934 Y-156.068795 Z0.000000 I2.888217 J-101.782811
G02 X2820.316763 Y-177.075763 Z0.000000 I-64.883283 J89.231701
G02 X2787.543495 Y-173.225928 Z0.000000 I-4.142128 J106.161213
G02 X2767.635480 Y-163.428706 Z0.000000 I16.300001 J58.246914
G02 X2760.772052 Y-156.089790 Z0.000000 I17.074023 J22.846630
G02 X2759.107168 Y-149.667923 Z0.000000 I8.818389 J5.712933
G02 X2761.532918 Y-143.823020 Z0.000000 I9.861468 J-0.666884
G02 X2771.953640 Y-135.831324 Z0.000000 I25.198211 J-22.067188
G03 X2772.508187 Y-149.255141 Z0.000000 I10.908602 J-6.272721
G03 X2784.692113 Y-159.486223 Z0.000000 I24.729855 J17.079834
G03 X2804.744876 Y-165.808330 Z0.000000 I35.139856 J76.495069
G03 X2822.043998 Y-167.371190 Z0.000000 I17.299122 J94.959607
G03 X2833.105907 Y-165.526661 Z0.000000 I-3.074351 J52.529519
G03 X2844.066490 Y-161.305829 Z0.000000 I-16.528696 J59.262975
G03 X2852.377286 Y-155.148313 Z0.000000 I-13.311549 J26.653889
G03 X2853.134562 Y-150.388184 Z0.000000 I-3.093538 J2.932444
G03 X2848.493409 Y-145.364106 Z0.000000 I-9.374842 J-4.004566
G03 X2835.862024 Y-139.268361 Z0.000000 I-97.878808 J-186.685918
G02 X2822.840433 Y-133.376835 Z0.000000 I338.509900 J765.518757
G02 X2818.589486 Y-129.361608 Z0.000000 I3.863055 J8.347707
G03 X2829.111480 Y-134.344311 Z0.000000 I22.056554 J32.975890
G03 X2848.384629 Y-138.864002 Z0.000000 I44.537176 J146.565495
G03 X2868.069054 Y-140.914219 Z0.000000 I26.380674 J157.763014
G03 X2880.770656 Y-139.874894 Z0.000000 I2.165120 J51.672917
G03 X2894.195536 Y-132.839276 Z0.000000 I-6.003448 J27.781389
G03 X2896.315933 Y-126.632195 Z0.000000 I-4.772389 J5.096007
G03 X2892.509354 Y-120.660614 Z0.000000 I-8.816784 J-1.421210
G03 X2875.588868 Y-113.996031 Z0.000000 I-23.334204 J-34.430708
G03 X2910.150942 Y-108.328949 Z0.000000 I1.496724 J99.097996
G03 X2916.179370 Y-102.572939 Z0.000000 I-3.393589 J9.589074
G03 X2914.950333 Y-93.391933 Z0.000000 I-8.642272 J3.515848
G03 X2904.952197 Y-85.691023 Z0.000000 I-19.360732 J-14.795376
G03 X2896.020739 Y-82.811812 Z0.000000 I-15.826594 J-33.802370
G03 X2877.963868 Y-81.546361 Z0.000000 I-14.466161 J-76.958838
G03 X2861.724059 Y-84.708682 Z0.000000 I2.599445 J-56.629391
G03 X2849.680050 Y-93.778168 Z0.000000 I8.298663 J-23.552166
G03 X2847.899632 Y-86.322463 Z0.000000 I-7.526041 J2.143220
G03 X2838.075063 Y-79.613028 Z0.000000 I-19.544517 J-18.071140
G03 X2824.717926 Y-76.153268 Z0.000000 I-20.982858 J-53.494865
G03 X2808.657765 Y-75.683181 Z0.000000 I-10.285510 J-76.819925
G03 X2793.533581 Y-78.920722 Z0.000000 I4.240299 J-56.753685
G03 X2785.069956 Y-85.248757 Z0.000000 I6.187308 J-17.099391
G03 X2783.033505 Y-93.765329 Z0.000000 I9.074611 J-6.671647
G03 X2790.953434 Y-111.569887 Z0.000000 I38.251305 J6.351397
G03 X2755.196189 Y-86.850801 Z0.000000 I-41.152947 J-21.307791
G03 X2728.772264 Y-90.543310 Z0.000000 I-6.144966 J-52.418317
G03 X2716.095590 Y-100.911613 Z0.000000 I9.649610 J-24.731613
G03 X2714.954259 Y-109.143744 Z0.000000 I8.312351 J-5.347637
G03 X2718.250826 Y-115.041422 Z0.000000 I10.609047 J2.059870
G03 X2731.794962 Y-124.206053 Z0.000000 I37.444738 J40.747916
G03 X2747.008872 Y-129.357682 Z0.000000 I28.952819 J60.463286
G03 X2766.771852 Y-130.170321 Z0.000000 I12.317001 J58.824098
G03 X2787.985594 Y-124.506225 Z0.000000 I-12.102616 J87.885903
G02 X2815.650860 Y-113.844397 Z0.000000 I324.891482 J-801.803251
G02 X2843.684550 Y-105.514329 Z0.000000 I81.245673 J-222.084285
G02 X2883.170420 Y-101.460956 Z0.000000 I35.915569 J-155.518779
G03 X2835.614397 Y-107.064465 Z0.000000 I-2.325439 J-184.866077
G03 X2800.934709 Y-118.848318 Z0.000000 I55.789142 J-221.109348
G03 X2769.309157 Y-131.680647 Z0.000000 I761.422193 J-1921.928514
G02 X2738.753540 Y-136.640037 Z0.000000 I-25.735756 J61.953438
G02 X2681.759478 Y-117.211293 Z0.000000 I2.888217 J101.782741
G03 X2621.300265 Y-96.204312 Z0.000000 I-64.883324 J-89.231758
G03 X2587.479280 Y-100.169417 Z0.000000 I-4.150866 J-110.817790
G03 X2567.755396 Y-109.851369 Z0.000000 I15.939080 J-57.402316
G03 X2560.870914 Y-117.191445 Z0.000000 I17.239553 J-23.068125
G03 X2559.119124 Y-123.612152 Z0.000000 I9.097971 J-5.931567
G03 X2561.395794 Y-129.525609 Z0.000000 I9.987744 J0.450277
G03 X2571.209907 Y-137.448750 Z0.000000 I24.286291 J20.042799
G02 X2572.464146 Y-124.088939 Z0.000000 I11.484742 J5.660576
G02 X2585.243838 Y-113.793852 Z0.000000 I26.760455 J-20.139287
G02 X2605.378011 Y-107.388839 Z0.000000 I36.051549 J-78.479716
G02 X2621.300265 Y-105.908886 Z0.000000 I15.922254 J-84.910742
G02 X2633.467736 Y-107.871715 Z0.000000 I-2.971143 J-57.112108
G02 X2644.186411 Y-111.974245 Z0.000000 I-15.582148 J-56.765052
G02 X2652.800765 Y-118.207248 Z0.000000 I-14.621718 J-29.277281
G02 X2654.118106 Y-122.891891 Z0.000000 I-3.557205 J-3.527843
G02 X2649.476951 Y-127.915971 Z0.000000 I-9.374844 J4.004565
G02 X2636.845568 Y-134.011715 Z0.000000 I-97.878675 J186.685649
G03 X2623.823977 Y-139.903240 Z0.000000 I338.510656 J-765.520582
G03 X2619.573030 Y-143.918467 Z0.000000 I3.863054 J-8.347706
G02 X2630.095023 Y-138.935764 Z0.000000 I22.056554 J-32.975890
G02 X2649.368173 Y-134.416073 Z0.000000 I44.537176 J-146.565495
G02 X2669.052597 Y-132.365856 Z0.000000 I26.380674 J-157.763014
G02 X2681.754200 Y-133.405181 Z0.000000 I2.165120 J-51.672917
G02 X2695.179080 Y-140.440799 Z0.000000 I-6.003448 J-27.781389
G02 X2697.299476 Y-146.647880 Z0.000000 I-4.772389 J-5.096007
G02 X2693.492898 Y-152.619460 Z0.000000 I-8.816784 J1.421210
G02 X2676.572411 Y-159.284043 Z0.000000 I-23.334203 J34.430708
G02 X2709.851184 Y-164.935240 Z0.000000 I1.440928 J-92.326297
G02 X2715.651552 Y-170.707137 Z0.000000 I-3.377336 J-9.194434
G02 X2714.270362 Y-179.868582 Z0.000000 I-8.945997 J-3.336129
G02 X2704.208505 Y-187.589053 Z0.000000 I-19.536009 J15.043801
G02 X2695.277016 Y-190.468265 Z0.000000 I-15.826679 J33.802693
G02 X2677.220145 Y-191.733714 Z0.000000 I-14.466157 J76.958898
G02 X2660.980341 Y-188.571391 Z0.000000 I2.599442 J56.629310
G02 X2648.936359 Y-179.501906 Z0.000000 I8.298643 J23.552080
G02 X2647.550362 Y-187.016045 Z0.000000 I-7.188680 J-2.558929
G02 X2638.302941 Y-193.667046 Z0.000000 I-18.183612 J15.527921
G02 X2625.272641 Y-197.115782 Z0.000000 I-20.318752 J50.429543
G02 X2609.209495 Y-197.596893 Z0.000000 I-10.324760 J76.323517
G02 X2594.045394 Y-194.383559 Z0.000000 I4.314624 J57.748479
G02 X2585.297817 Y-188.031316 Z0.000000 I6.466270 J18.103801
G02 X2582.957539 Y-179.401194 Z0.000000 I9.241650 J7.138483
G02 X2590.209701 Y-161.710186 Z0.000000 I36.749621 J-4.732993
G02 X2555.957762 Y-185.864212 Z0.000000 I-40.389892 J20.912703
G02 X2528.028531 Y-182.736766 Z0.000000 I-7.759810 J56.974895
G02 X2516.220945 Y-172.219937 Z0.000000 I8.253448 J21.153211
G02 X2514.210526 Y-164.136330 Z0.000000 I15.246307 J8.083607
G02 X2517.496693 Y-158.276678 Z0.000000 I10.503964 J-2.039467
G02 X2531.267154 Y-149.074022 Z0.000000 I37.078312 J-40.578310
G02 X2546.747687 Y-143.973299 Z0.000000 I28.962205 J-61.857551
G02 X2567.755396 Y-143.109754 Z0.000000 I13.220721 J-65.662231
G02 X2589.117676 Y-148.844997 Z0.000000 I-12.058865 J-87.568192
G03 X2617.198051 Y-159.789491 Z0.000000 I354.146869 J867.142111
G03 X2645.576520 Y-168.388376 Z0.000000 I84.190629 J226.722663
G03 X2683.481435 Y-172.223476 Z0.000000 I33.390734 J140.785792
G02 X2636.750673 Y-165.295699 Z0.000000 I-0.000000 J161.073168
G02 X2603.811844 Y-153.521953 Z0.000000 I103.731292 J342.166484
G03 X2571.247247 Y-141.230409 Z0.000000 I-212.517000 J-513.748528
G03 X2538.392067 Y-136.640037 Z0.000000 I-28.310987 J-82.759180
G03 X2481.397963 Y-156.068788 Z0.000000 I2.888218 J-101.782841
G02 X2420.938751 Y-177.075763 Z0.000000 I-64.883326 J89.231798
G02 X2388.165514 Y-173.225930 Z0.000000 I-4.142126 J106.161050
G02 X2368.257499 Y-163.428706 Z0.000000 I16.300016 J58.246937
G02 X2361.394068 Y-156.089790 Z0.000000 I17.074045 J22.846659
G02 X2359.729179 Y-149.667923 Z0.000000 I8.818398 J5.712944
G02 X2362.154923 Y-143.823018 Z0.000000 I9.861465 J-0.666873
G02 X2372.575628 Y-135.831324 Z0.000000 I25.198175 J-22.067115
G03 X2373.130192 Y-149.255138 Z0.000000 I10.908613 J-6.272706
G03 X2385.314137 Y-159.486223 Z0.000000 I24.729904 J17.079907
G03 X2405.366907 Y-165.808330 Z0.000000 I35.139877 J76.495149
G03 X2422.666027 Y-167.371190 Z0.000000 I17.299121 J94.959601
G03 X2433.727908 Y-165.526664 Z0.000000 I-3.074354 J52.529411
G03 X2444.688503 Y-161.305829 Z0.000000 I-16.528752 J59.263160
G03 X2452.999313 Y-155.148312 Z0.000000 I-13.311583 J26.653979
G03 X2453.756591 Y-150.388184 Z0.000000 I-3.093532 J2.932445
G03 X2449.115438 Y-145.364106 Z0.000000 I-9.374842 J-4.004566
G03 X2436.484054 Y-139.268361 Z0.000000 I-97.878808 J-186.685918
G02 X2423.462462 Y-133.376835 Z0.000000 I338.509900 J765.518757
G02 X2419.211516 Y-129.361608 Z0.000000 I3.863055 J8.347707
G03 X2429.733506 Y-134.344311 Z0.000000 I22.056566 J32.975908
G03 X2449.006643 Y-138.864002 Z0.000000 I44.537130 J146.565228
G03 X2468.691053 Y-140.914218 Z0.000000 I26.380649 J157.762795
G03 X2481.392685 Y-139.874894 Z0.000000 I2.165129 J51.673149
G03 X2494.817565 Y-132.839276 Z0.000000 I-6.003448 J27.781389
G03 X2496.937962 Y-126.632195 Z0.000000 I-4.772389 J5.096007
G03 X2493.131383 Y-120.660614 Z0.000000 I-8.816784 J-1.421210
G03 X2476.210897 Y-113.996031 Z0.000000 I-23.334204 J-34.430708
G03 X2510.772962 Y-108.328948 Z0.000000 I1.496723 J99.097930
G03 X2516.801384 Y-102.572939 Z0.000000 I-3.393586 J9.589061
G03 X2515.572343 Y-93.391928 Z0.000000 I-8.642287 J3.515847
G03 X2505.574226 Y-85.691023 Z0.000000 I-19.360735 J-14.795373
G03 X2496.642736 Y-82.811810 Z0.000000 I-15.826678 J-33.802685
G03 X2478.585866 Y-81.546361 Z0.000000 I-14.466157 J-76.958899
G03 X2462.346061 Y-84.708684 Z0.000000 I2.599441 J-56.629315
G03 X2450.302080 Y-93.778168 Z0.000000 I8.298642 J-23.552079
G03 X2448.521662 Y-86.322463 Z0.000000 I-7.526041 J2.143220
G03 X2438.697092 Y-79.613028 Z0.000000 I-19.544517 J-18.071140
G03 X2425.339954 Y-76.153268 Z0.000000 I-20.982859 J-53.494870
G03 X2409.279789 Y-75.683181 Z0.000000 I-10.285512 J-76.819956
G03 X2394.155601 Y-78.920722 Z0.000000 I4.240301 J-56.753729
G03 X2385.691968 Y-85.248757 Z0.000000 I6.187314 J-17.099416
G03 X2383.655509 Y-93.765331 Z0.000000 I9.074613 J-6.671658
G03 X2391.575422 Y-111.569887 Z0.000000 I38.251267 J6.351356
G03 X2355.818221 Y-86.850801 Z0.000000 I-41.152890 J-21.307698
G03 X2329.394294 Y-90.543310 Z0.000000 I-6.144966 J-52.418326
G03 X2316.717567 Y-100.911628 Z0.000000 I9.649604 J-24.731696
G03 X2315.576205 Y-109.143744 Z0.000000 I8.312383 J-5.347672
G03 X2318.872796 Y-115.041422 Z0.000000 I10.609102 J2.059930
G03 X2332.416966 Y-124.206053 Z0.000000 I37.444860 J40.748181
G03 X2347.630899 Y-129.357683 Z0.000000 I28.952881 J60.463513
G03 X2367.393881 Y-130.170321 Z0.000000 I12.316999 J58.824132
G03 X2388.612161 Y-124.503575 Z0.000000 I-12.099273 J87.861626
G02 X2416.246571 Y-113.844397 Z0.000000 I327.816649 J-808.728374
G02 X2444.245649 Y-105.508802 Z0.000000 I81.341714 J-222.033084
G02 X2483.581906 Y-101.460956 Z0.000000 I35.775040 J-154.500211
G03 X2435.773038 Y-107.086565 Z0.000000 I-2.326838 J-186.188597
G03 X2401.135693 Y-118.848318 Z0.000000 I55.491596 J-220.300816
G03 X2369.510141 Y-131.680647 Z0.000000 I761.422193 J-1921.928514
G02 X2338.954523 Y-136.640037 Z0.000000 I-25.735756 J61.953438
G02 X2281.960420 Y-117.211286 Z0.000000 I2.888218 J101.782841
G03 X2221.501208 Y-96.204312 Z0.000000 I-64.883326 J-89.231798
G03 X2187.680223 Y-100.169417 Z0.000000 I-4.150866 J-110.817790
G03 X2167.956338 Y-109.851369 Z0.000000 I15.939080 J-57.402316
G03 X2161.071856 Y-117.191445 Z0.000000 I17.239553 J-23.068125
G03 X2159.320066 Y-123.612152 Z0.000000 I9.097971 J-5.931567
G03 X2161.596736 Y-129.525609 Z0.000000 I9.987744 J0.450277
G03 X2171.410850 Y-137.448750 Z0.000000 I24.286291 J20.042799
G02 X2172.665089 Y-124.088939 Z0.000000 I11.484742 J5.660576
G02 X2185.444780 Y-113.793852 Z0.000000 I26.760455 J-20.139287
G02 X2205.578954 Y-107.388839 Z0.000000 I36.051549 J-78.479716
G02 X2221.501208 Y-105.908886 Z0.000000 I15.922254 J-84.910742
G02 X2233.668679 Y-107.871715 Z0.000000 I-2.971143 J-57.112108
G02 X2244.387353 Y-111.974245 Z0.000000 I-15.582148 J-56.765052
G02 X2253.001707 Y-118.207248 Z0.000000 I-14.621718 J-29.277281
G02 X2254.319048 Y-122.891891 Z0.000000 I-3.557205 J-3.527843
G02 X2249.677894 Y-127.915971 Z0.000000 I-9.374844 J4.004565
G02 X2237.046510 Y-134.011715 Z0.000000 I-97.878675 J186.685649
G03 X2224.024919 Y-139.903240 Z0.000000 I338.510656 J-765.520582
G03 X2219.773972 Y-143.918467 Z0.000000 I3.863054 J-8.347706
G02 X2230.295966 Y-138.935764 Z0.000000 I22.056554 J-32.975890
G02 X2249.569115 Y-134.416073 Z0.000000 I44.537176 J-146.565495
G02 X2269.253540 Y-132.365856 Z0.000000 I26.380674 J-157.763014
G02 X2281.955142 Y-133.405181 Z0.000000 I2.165120 J-51.672917
G02 X2295.380022 Y-140.440799 Z0.000000 I-6.003448 J-27.781389
G02 X2297.500419 Y-146.647880 Z0.000000 I-4.772389 J-5.096007
G02 X2293.693840 Y-152.619460 Z0.000000 I-8.816784 J1.421210
G02 X2276.773354 Y-159.284043 Z0.000000 I-23.334203 J34.430708
G02 X2310.052147 Y-164.935242 Z0.000000 I1.440928 J-92.326384
G02 X2315.852510 Y-170.707137 Z0.000000 I-3.377330 J-9.194420
G02 X2314.471312 Y-179.868582 Z0.000000 I-8.946000 J-3.336122
G02 X2304.409448 Y-187.589053 Z0.000000 I-19.536037 J15.043847
G02 X2295.477958 Y-190.468265 Z0.000000 I-15.826679 J33.802693
G02 X2277.421088 Y-191.733714 Z0.000000 I-14.466157 J76.958898
G02 X2261.181283 Y-188.571391 Z0.000000 I2.599442 J56.629310
G02 X2249.137301 Y-179.501906 Z0.000000 I8.298643 J23.552080
G02 X2247.751305 Y-187.016045 Z0.000000 I-7.188680 J-2.558929
G02 X2238.503883 Y-193.667046 Z0.000000 I-18.183612 J15.527921
G02 X2225.473584 Y-197.115782 Z0.000000 I-20.318752 J50.429543
G02 X2209.410437 Y-197.596893 Z0.000000 I-10.324760 J76.323517
G02 X2194.246336 Y-194.383559 Z0.000000 I4.314624 J57.748479
G02 X2185.498759 Y-188.031316 Z0.000000 I6.466270 J18.103801
G02 X2183.158481 Y-179.401194 Z0.000000 I9.241650 J7.138483
G02 X2190.410643 Y-161.710186 Z0.000000 I36.749621 J-4.732993
G02 X2156.158704 Y-185.864212 Z0.000000 I-40.389892 J20.912703
G02 X2128.229474 Y-182.736766 Z0.000000 I-7.759810 J56.974895
G02 X2116.421887 Y-172.219937 Z0.000000 I8.253448 J21.153211
G02 X2114.411468 Y-164.136330 Z0.000000 I15.246307 J8.083607
G02 X2117.697635 Y-158.276678 Z0.000000 I10.503964 J-2.039467
G02 X2131.468097 Y-149.074022 Z0.000000 I37.078312 J-40.578310
G02 X2146.948630 Y-143.973299 Z0.000000 I28.962205 J-61.857551
G02 X2167.956338 Y-143.109754 Z0.000000 I13.220721 J-65.662231
G02 X2189.318619 Y-148.844997 Z0.000000 I-12.058865 J-87.568192
G03 X2217.398993 Y-159.789491 Z0.000000 I354.146869 J867.142111
G03 X2245.777462 Y-168.388376 Z0.000000 I84.190629 J226.722663
G03 X2283.682377 Y-172.223476 Z0.000000 I33.390734 J140.785792
G02 X2236.951615 Y-165.295699 Z0.000000 I0.000000 J161.073168
G02 X2204.012786 Y-153.521953 Z0.000000 I103.731292 J342.166484
G03 X2171.448190 Y-141.230409 Z0.000000 I-212.517000 J-513.748528
G03 X2138.593009 Y-136.640037 Z0.000000 I-28.310987 J-82.759180
G03 X2081.598906 Y-156.068788 Z0.000000 I2.888218 J-101.782841
G02 X2021.139693 Y-177.075763 Z0.000000 I-64.883326 J89.231798
G02 X1988.366457 Y-173.225930 Z0.000000 I-4.142126 J106.161050
G02 X1968.458441 Y-163.428706 Z0.000000 I16.300016 J58.246937
G02 X1961.595011 Y-156.089790 Z0.000000 I17.074045 J22.846659
G02 X1959.930122 Y-149.667923 Z0.000000 I8.818398 J5.712944
G02 X1962.355865 Y-143.823018 Z0.000000 I9.861465 J-0.666873
G02 X1972.776571 Y-135.831324 Z0.000000 I25.198175 J-22.067115
G03 X1973.331134 Y-149.255138 Z0.000000 I10.908613 J-6.272706
G03 X1985.515080 Y-159.486223 Z0.000000 I24.729904 J17.079907
G03 X2005.567849 Y-165.808330 Z0.000000 I35.139877 J76.495149
G03 X2022.866970 Y-167.371190 Z0.000000 I17.299121 J94.959601
G03 X2033.928878 Y-165.526661 Z0.000000 I-3.074351 J52.529519
G03 X2044.889461 Y-161.305829 Z0.000000 I-16.528696 J59.262975
G03 X2053.200258 Y-155.148313 Z0.000000 I-13.311549 J26.653889
G03 X2053.957534 Y-150.388184 Z0.000000 I-3.093538 J2.932444
G03 X2049.316380 Y-145.364106 Z0.000000 I-9.374842 J-4.004566
G03 X2036.684996 Y-139.268361 Z0.000000 I-97.878808 J-186.685918
G02 X2023.663405 Y-133.376835 Z0.000000 I338.509900 J765.518757
G02 X2019.412458 Y-129.361608 Z0.000000 I3.863055 J8.347707
G03 X2029.934451 Y-134.344311 Z0.000000 I22.056554 J32.975890
G03 X2049.207601 Y-138.864002 Z0.000000 I44.537176 J146.565495
G03 X2068.892025 Y-140.914219 Z0.000000 I26.380674 J157.763014
G03 X2081.593628 Y-139.874894 Z0.000000 I2.165120 J51.672917
G03 X2095.018508 Y-132.839276 Z0.000000 I-6.003448 J27.781389
G03 X2097.138905 Y-126.632195 Z0.000000 I-4.772389 J5.096007
G03 X2093.332326 Y-120.660614 Z0.000000 I-8.816784 J-1.421210
G03 X2076.411839 Y-113.996031 Z0.000000 I-23.334204 J-34.430708
G03 X2110.973904 Y-108.328948 Z0.000000 I1.496723 J99.097930
G03 X2117.002326 Y-102.572939 Z0.000000 I-3.393586 J9.589061
G03 X2115.773285 Y-93.391928 Z0.000000 I-8.642287 J3.515847
G03 X2105.775168 Y-85.691023 Z0.000000 I-19.360735 J-14.795373
G03 X2096.843681 Y-82.811810 Z0.000000 I-15.826683 J-33.802694
G03 X2078.786824 Y-81.546361 Z0.000000 I-14.466148 J-76.958790
G03 X2062.547028 Y-84.708682 Z0.000000 I2.599442 J-56.629303
G03 X2050.503022 Y-93.778168 Z0.000000 I8.298672 J-23.552169
G03 X2048.722604 Y-86.322463 Z0.000000 I-7.526041 J2.143220
G03 X2038.898035 Y-79.613028 Z0.000000 I-19.544517 J-18.071140
G03 X2025.540898 Y-76.153268 Z0.000000 I-20.982858 J-53.494865
G03 X2009.480737 Y-75.683181 Z0.000000 I-10.285510 J-76.819925
G03 X1994.356553 Y-78.920722 Z0.000000 I4.240299 J-56.753685
G03 X1985.892928 Y-85.248757 Z0.000000 I6.187308 J-17.099391
G03 X1983.856477 Y-93.765329 Z0.000000 I9.074611 J-6.671647
G03 X1991.776406 Y-111.569887 Z0.000000 I38.251305 J6.351397
G03 X1956.019160 Y-86.850801 Z0.000000 I-41.152947 J-21.307791
G03 X1929.595236 Y-90.543310 Z0.000000 I-6.144966 J-52.418317
G03 X1916.918550 Y-100.911617 Z0.000000 I9.649624 J-24.731650
G03 X1915.777189 Y-109.143744 Z0.000000 I8.312403 J-5.347677
G03 X1919.073778 Y-115.041423 Z0.000000 I10.609113 J2.059933
G03 X1932.617929 Y-124.206053 Z0.000000 I37.444815 J40.748074
G03 X1947.831845 Y-129.357682 Z0.000000 I28.952841 J60.463364
G03 X1967.594824 Y-130.170321 Z0.000000 I12.317000 J58.824097
G03 X1988.808566 Y-124.506225 Z0.000000 I-12.102616 J87.885903
G02 X2016.473832 Y-113.844397 Z0.000000 I324.891482 J-801.803251
G02 X2044.507522 Y-105.514329 Z0.000000 I81.245673 J-222.084285
G02 X2083.993392 Y-101.460956 Z0.000000 I35.915569 J-155.518779
G03 X2036.437369 Y-107.064465 Z0.000000 I-2.325439 J-184.866077
G03 X2001.757681 Y-118.848318 Z0.000000 I55.789142 J-221.109348
G03 X1970.132128 Y-131.680647 Z0.000000 I761.422193 J-1921.928514
G02 X1939.576511 Y-136.640037 Z0.000000 I-25.735756 J61.953438
G02 X1882.582408 Y-117.211280 Z0.000000 I2.888217 J101.782811
G03 X1822.123237 Y-96.204312 Z0.000000 I-64.883283 J-89.231701
G03 X1788.302227 Y-100.169419 Z0.000000 I-4.150867 J-110.817902
G03 X1768.578347 Y-109.851369 Z0.000000 I15.939072 J-57.402296
G03 X1761.693864 Y-117.191445 Z0.000000 I17.239557 J-23.068130
G03 X1759.942072 Y-123.612152 Z0.000000 I9.097978 J-5.931573
G03 X1762.218739 Y-129.525611 Z0.000000 I9.987748 J0.450272
G03 X1772.032838 Y-137.448750 Z0.000000 I24.286269 J20.042752
G02 X1773.287094 Y-124.088941 Z0.000000 I11.484756 J5.660560
G02 X1786.066804 Y-113.793852 Z0.000000 I26.760506 J-20.139368
G02 X1806.200984 Y-107.388839 Z0.000000 I36.051571 J-78.479800
G02 X1822.123237 Y-105.908886 Z0.000000 I15.922253 J-84.910736
G02 X1834.290677 Y-107.871713 Z0.000000 I-2.971141 J-57.111912
G02 X1845.009351 Y-111.974245 Z0.000000 I-15.582194 J-56.765147
G02 X1853.623720 Y-118.207249 Z0.000000 I-14.621798 J-29.277442
G02 X1854.941078 Y-122.891891 Z0.000000 I-3.557215 J-3.527863
G02 X1850.299921 Y-127.915970 Z0.000000 I-9.374837 J4.004562
G02 X1837.668519 Y-134.011715 Z0.000000 I-97.878786 J186.686114
G03 X1824.646908 Y-139.903241 Z0.000000 I338.511203 J-765.522839
G03 X1820.395960 Y-143.918467 Z0.000000 I3.863047 J-8.347702
G02 X1830.917982 Y-138.935761 Z0.000000 I22.056666 J-32.976170
G02 X1850.191119 Y-134.416073 Z0.000000 I44.537182 J-146.565538
G02 X1869.875530 Y-132.365856 Z0.000000 I26.380658 J-157.762854
G02 X1882.577130 Y-133.405181 Z0.000000 I2.165120 J-51.672900
G02 X1896.002021 Y-140.440798 Z0.000000 I-6.003460 J-27.781445
G02 X1898.122428 Y-146.647880 Z0.000000 I-4.772393 J-5.096019
G02 X1894.315860 Y-152.619459 Z0.000000 I-8.816764 J1.421190
G02 X1877.395383 Y-159.284043 Z0.000000 I-23.334183 J34.430638
G02 X1910.674146 Y-164.935241 Z0.000000 I1.440927 J-92.326225
G02 X1916.474503 Y-170.707137 Z0.000000 I-3.377330 J-9.194411
G02 X1915.093302 Y-179.868582 Z0.000000 I-8.946007 J-3.336118
G02 X1905.031435 Y-187.589053 Z0.000000 I-19.536041 J15.043853
G02 X1896.099978 Y-190.468263 Z0.000000 I-15.826595 J33.802378
G02 X1878.043107 Y-191.733714 Z0.000000 I-14.466161 J76.958836
G02 X1861.803298 Y-188.571393 Z0.000000 I2.599445 J56.629386
G02 X1849.759289 Y-179.501906 Z0.000000 I8.298664 J23.552166
G02 X1848.373302 Y-187.016047 Z0.000000 I-7.188673 J-2.558939
G02 X1839.125895 Y-193.667046 Z0.000000 I-18.183580 J15.527863
G02 X1826.095604 Y-197.115782 Z0.000000 I-20.318735 J50.429466
G02 X1810.032461 Y-197.596893 Z0.000000 I-10.324758 J76.323474
G02 X1794.868364 Y-194.383560 Z0.000000 I4.314623 J57.748458
G02 X1786.120788 Y-188.031316 Z0.000000 I6.466270 J18.103799
G02 X1783.780511 Y-179.401194 Z0.000000 I9.241651 J7.138483
G02 X1791.032673 Y-161.710186 Z0.000000 I36.749622 J-4.732993
G02 X1756.780699 Y-185.864226 Z0.000000 I-40.389910 J20.912712
G02 X1728.851503 Y-182.736766 Z0.000000 I-7.759770 J56.974791
G02 X1717.043877 Y-172.219926 Z0.000000 I8.253435 J21.153261
G02 X1715.033456 Y-164.136330 Z0.000000 I15.246250 J8.083597
G02 X1718.319642 Y-158.276676 Z0.000000 I10.504038 J-2.039531
G02 X1732.090105 Y-149.074022 Z0.000000 I37.078334 J-40.578355
G02 X1747.570634 Y-143.973301 Z0.000000 I28.962187 J-61.857514
G02 X1768.578367 Y-143.109754 Z0.000000 I13.220742 J-65.662362
G02 X1789.940621 Y-148.844993 Z0.000000 I-12.058872 J-87.568123
G03 X1818.021007 Y-159.789491 Z0.000000 I354.145258 J867.137981
G03 X1846.399487 Y-168.388377 Z0.000000 I84.190654 J226.722792
G03 X1884.304407 Y-172.223476 Z0.000000 I33.390737 J140.785847
G02 X1837.573614 Y-165.295697 Z0.000000 I-0.000000 J161.073333
G02 X1804.634784 Y-153.521953 Z0.000000 I103.731136 J342.166105
G03 X1772.070189 Y-141.230406 Z0.000000 I-212.517513 J-513.749767
G03 X1739.215038 Y-136.640037 Z0.000000 I-28.310959 J-82.759058
G03 X1682.220894 Y-156.068802 Z0.000000 I2.888218 J-101.782911
G02 X1621.761723 Y-177.075763 Z0.000000 I-64.883284 J89.231742
G02 X1588.988486 Y-173.225930 Z0.000000 I-4.142126 J106.161050
G02 X1569.080471 Y-163.428706 Z0.000000 I16.300016 J58.246937
G02 X1562.217040 Y-156.089790 Z0.000000 I17.074045 J22.846659
G02 X1560.552151 Y-149.667923 Z0.000000 I8.818398 J5.712944
G02 X1562.977894 Y-143.823018 Z0.000000 I9.861465 J-0.666873
G02 X1573.398600 Y-135.831324 Z0.000000 I25.198175 J-22.067115
G03 X1573.953163 Y-149.255139 Z0.000000 I10.908614 J-6.272707
G03 X1586.137104 Y-159.486223 Z0.000000 I24.729902 J17.079903
G03 X1606.189869 Y-165.808332 Z0.000000 I35.139877 J76.495114
G03 X1623.488958 Y-167.371190 Z0.000000 I17.299089 J94.959361
G03 X1634.550869 Y-165.526662 Z0.000000 I-3.074355 J52.529599
G03 X1645.511470 Y-161.305829 Z0.000000 I-16.528734 J59.263178
G03 X1653.822285 Y-155.148311 Z0.000000 I-13.311573 J26.653979
G03 X1654.579563 Y-150.388184 Z0.000000 I-3.093531 J2.932444
G03 X1649.938408 Y-145.364107 Z0.000000 I-9.374835 J-4.004564
G03 X1637.307005 Y-139.268361 Z0.000000 I-97.878919 J-186.686383
G02 X1624.285394 Y-133.376834 Z0.000000 I338.510447 J765.521014
G02 X1620.034446 Y-129.361608 Z0.000000 I3.863048 J8.347703
G03 X1630.556467 Y-134.344314 Z0.000000 I22.056666 J32.976170
G03 X1649.829604 Y-138.864002 Z0.000000 I44.537182 J146.565538
G03 X1669.514016 Y-140.914218 Z0.000000 I26.380658 J157.762854
G03 X1682.215616 Y-139.874894 Z0.000000 I2.165120 J51.672900
G03 X1695.640507 Y-132.839276 Z0.000000 I-6.003460 J27.781445
G03 X1697.760913 Y-126.632195 Z0.000000 I-4.772393 J5.096019
G03 X1693.954345 Y-120.660616 Z0.000000 I-8.816764 J-1.421190
G03 X1677.033869 Y-113.996031 Z0.000000 I-23.334184 J-34.430638
G03 X1711.595912 Y-108.328949 Z0.000000 I1.496723 J99.097839
G03 X1717.624340 Y-102.572939 Z0.000000 I-3.393592 J9.589076
G03 X1716.395306 Y-93.391928 Z0.000000 I-8.642284 J3.515853
G03 X1706.397198 Y-85.691023 Z0.000000 I-19.360707 J-14.795327
G03 X1697.465708 Y-82.811810 Z0.000000 I-15.826678 J-33.802685
G03 X1679.408838 Y-81.546361 Z0.000000 I-14.466157 J-76.958899
G03 X1663.169033 Y-84.708684 Z0.000000 I2.599441 J-56.629315
G03 X1651.125052 Y-93.778168 Z0.000000 I8.298642 J-23.552079
G03 X1649.344634 Y-86.322463 Z0.000000 I-7.526041 J2.143220
G03 X1639.520063 Y-79.613028 Z0.000000 I-19.544517 J-18.071140
G03 X1626.162926 Y-76.153268 Z0.000000 I-20.982859 J-53.494870
G03 X1610.102761 Y-75.683181 Z0.000000 I-10.285512 J-76.819956
G03 X1594.978573 Y-78.920722 Z0.000000 I4.240301 J-56.753729
G03 X1586.514939 Y-85.248757 Z0.000000 I6.187314 J-17.099416
G03 X1584.478481 Y-93.765331 Z0.000000 I9.074613 J-6.671658
G03 X1592.398394 Y-111.569887 Z0.000000 I38.251267 J6.351356
G03 X1556.641148 Y-86.850801 Z0.000000 I-41.152947 J-21.307791
G03 X1530.217224 Y-90.543310 Z0.000000 I-6.144966 J-52.418317
G03 X1517.540549 Y-100.911613 Z0.000000 I9.649610 J-24.731613
G03 X1516.399219 Y-109.143744 Z0.000000 I8.312351 J-5.347637
G03 X1519.695788 Y-115.041421 Z0.000000 I10.609035 J2.059868
G03 X1533.239942 Y-124.206053 Z0.000000 I37.444783 J40.748023
G03 X1548.453870 Y-129.357683 Z0.000000 I28.952859 J60.463435
G03 X1568.216853 Y-130.170321 Z0.000000 I12.317000 J58.824133
G03 X1589.448974 Y-124.500231 Z0.000000 I-12.108655 J87.929630
G02 X1617.010800 Y-113.880565 Z0.000000 I320.603144 J-791.003409
G02 X1644.926582 Y-105.612465 Z0.000000 I79.995072 J-218.828853
G02 X1683.935185 Y-101.750303 Z0.000000 I34.658940 J-151.133774
G03 X1635.563796 Y-107.681808 Z0.000000 I-0.681951 J-194.638633
G03 X1601.019279 Y-119.427012 Z0.000000 I55.789318 J-220.758358
G03 X1569.393726 Y-132.259341 Z0.000000 I761.422193 J-1921.928514
G02 X1538.838109 Y-137.218731 Z0.000000 I-25.735756 J61.953438
G02 X1481.844006 Y-117.789974 Z0.000000 I2.888217 J101.782812
G03 X1421.384835 Y-96.783006 Z0.000000 I-64.883283 J-89.231703
G03 X1387.563820 Y-100.748113 Z0.000000 I-4.150869 J-110.817957
G03 X1367.839929 Y-110.430063 Z0.000000 I15.939078 J-57.402341
G03 X1360.955444 Y-117.770140 Z0.000000 I17.239552 J-23.068134
G03 X1359.203653 Y-124.190846 Z0.000000 I9.097968 J-5.931568
G03 X1361.480322 Y-130.104303 Z0.000000 I9.987742 J0.450275
G03 X1371.294436 Y-138.027444 Z0.000000 I24.286290 J20.042798
G02 X1372.548675 Y-124.667634 Z0.000000 I11.484741 J5.660575
G02 X1385.328371 Y-114.372546 Z0.000000 I26.760455 J-20.139290
G02 X1405.462549 Y-107.967536 Z0.000000 I36.051548 J-78.479750
G02 X1421.384835 Y-106.487580 Z0.000000 I15.922286 J-84.910975
G02 X1433.552276 Y-108.450408 Z0.000000 I-2.971141 J-57.111914
G02 X1444.270944 Y-112.552940 Z0.000000 I-15.582163 J-56.765032
G02 X1452.885293 Y-118.785941 Z0.000000 I-14.621730 J-29.277283
G02 X1454.202634 Y-123.470585 Z0.000000 I-3.557206 J-3.527843
G02 X1449.561479 Y-128.494665 Z0.000000 I-9.374844 J4.004565
G02 X1436.930096 Y-134.590409 Z0.000000 I-97.878675 J186.685649
G03 X1423.908505 Y-140.481934 Z0.000000 I338.510656 J-765.520582
G03 X1419.657558 Y-144.497161 Z0.000000 I3.863054 J-8.347706
G02 X1430.179552 Y-139.514458 Z0.000000 I22.056554 J-32.975890
G02 X1449.452701 Y-134.994767 Z0.000000 I44.537176 J-146.565495
G02 X1469.137126 Y-132.944550 Z0.000000 I26.380674 J-157.763014
G02 X1481.838728 Y-133.983875 Z0.000000 I2.165120 J-51.672917
G02 X1495.263608 Y-141.019493 Z0.000000 I-6.003448 J-27.781389
G02 X1497.384005 Y-147.226574 Z0.000000 I-4.772389 J-5.096007
G02 X1493.577426 Y-153.198154 Z0.000000 I-8.816784 J1.421210
G02 X1476.656940 Y-159.862737 Z0.000000 I-23.334203 J34.430708
G02 X1509.935733 Y-165.513936 Z0.000000 I1.440928 J-92.326384
G02 X1515.736096 Y-171.285831 Z0.000000 I-3.377330 J-9.194420
G02 X1514.354898 Y-180.447277 Z0.000000 I-8.946000 J-3.336122
G02 X1504.293033 Y-188.167747 Z0.000000 I-19.536037 J15.043847
G02 X1495.361544 Y-191.046959 Z0.000000 I-15.826679 J33.802693
G02 X1477.304674 Y-192.312408 Z0.000000 I-14.466157 J76.958898
G02 X1461.064869 Y-189.150085 Z0.000000 I2.599442 J56.629310
G02 X1449.020887 Y-180.080600 Z0.000000 I8.298643 J23.552080
G02 X1447.634891 Y-187.594739 Z0.000000 I-7.188680 J-2.558929
G02 X1438.387469 Y-194.245740 Z0.000000 I-18.183612 J15.527921
G02 X1425.357170 Y-197.694476 Z0.000000 I-20.318752 J50.429543
G02 X1409.294023 Y-198.175587 Z0.000000 I-10.324760 J76.323517
G02 X1394.129922 Y-194.962253 Z0.000000 I4.314624 J57.748479
G02 X1385.382345 Y-188.610010 Z0.000000 I6.466270 J18.103801
G02 X1383.042067 Y-179.979888 Z0.000000 I9.241650 J7.138483
G02 X1390.294229 Y-162.288880 Z0.000000 I36.749621 J-4.732993
G02 X1356.042290 Y-186.442906 Z0.000000 I-40.389892 J20.912703
G02 X1328.113060 Y-183.315460 Z0.000000 I-7.759810 J56.974895
G02 X1316.305473 Y-172.798631 Z0.000000 I8.253448 J21.153211
G02 X1314.295054 Y-164.715024 Z0.000000 I15.246307 J8.083607
G02 X1317.581221 Y-158.855372 Z0.000000 I10.503964 J-2.039467
G02 X1331.351683 Y-149.652716 Z0.000000 I37.078312 J-40.578310
G02 X1346.832216 Y-144.551993 Z0.000000 I28.962205 J-61.857551
G02 X1367.839924 Y-143.688448 Z0.000000 I13.220721 J-65.662231
G02 X1389.202205 Y-149.423691 Z0.000000 I-12.058865 J-87.568192
G03 X1417.282579 Y-160.368186 Z0.000000 I354.146869 J867.142111
G03 X1445.661048 Y-168.967070 Z0.000000 I84.190629 J226.722663
G03 X1483.565963 Y-172.802170 Z0.000000 I33.390734 J140.785792
G02 X1436.835201 Y-165.874393 Z0.000000 I-0.000000 J161.073168
G02 X1403.896372 Y-154.100647 Z0.000000 I103.731292 J342.166484
G03 X1371.331775 Y-141.809103 Z0.000000 I-212.517000 J-513.748528
G03 X1338.476595 Y-137.218731 Z0.000000 I-28.310987 J-82.759180
G03 X1281.482492 Y-156.647489 Z0.000000 I2.888217 J-101.782811
G02 X1221.023321 Y-177.654457 Z0.000000 I-64.883283 J89.231701
G02 X1188.250052 Y-173.804622 Z0.000000 I-4.142128 J106.161213
G02 X1168.342037 Y-164.007400 Z0.000000 I16.300001 J58.246914
G02 X1161.478609 Y-156.668484 Z0.000000 I17.074023 J22.846630
G02 X1159.813726 Y-150.246617 Z0.000000 I8.818389 J5.712933
G02 X1162.239475 Y-144.401714 Z0.000000 I9.861468 J-0.666884
G02 X1172.660198 Y-136.410018 Z0.000000 I25.198211 J-22.067188
G03 X1173.214744 Y-149.833835 Z0.000000 I10.908602 J-6.272721
G03 X1185.398671 Y-160.064917 Z0.000000 I24.729855 J17.079834
G03 X1205.451434 Y-166.387024 Z0.000000 I35.139856 J76.495069
G03 X1222.750556 Y-167.949884 Z0.000000 I17.299122 J94.959607
G03 X1233.812464 Y-166.105355 Z0.000000 I-3.074351 J52.529519
G03 X1244.773047 Y-161.884523 Z0.000000 I-16.528696 J59.262975
G03 X1253.083844 Y-155.727007 Z0.000000 I-13.311549 J26.653889
G03 X1253.841120 Y-150.966878 Z0.000000 I-3.093538 J2.932444
G03 X1249.199966 Y-145.942800 Z0.000000 I-9.374842 J-4.004566
G03 X1236.568582 Y-139.847055 Z0.000000 I-97.878808 J-186.685918
G02 X1223.546991 Y-133.955529 Z0.000000 I338.509900 J765.518757
G02 X1219.296044 Y-129.940302 Z0.000000 I3.863055 J8.347707
G03 X1229.818037 Y-134.923005 Z0.000000 I22.056554 J32.975890
G03 X1249.091187 Y-139.442696 Z0.000000 I44.537176 J146.565495
G03 X1268.775611 Y-141.492913 Z0.000000 I26.380674 J157.763014
G03 X1281.477214 Y-140.453588 Z0.000000 I2.165120 J51.672917
G03 X1294.902094 Y-133.417970 Z0.000000 I-6.003448 J27.781389
G03 X1297.022491 Y-127.210889 Z0.000000 I-4.772389 J5.096007
G03 X1293.215912 Y-121.239308 Z0.000000 I-8.816784 J-1.421210
G03 X1276.295425 Y-114.574725 Z0.000000 I-23.334203 J-34.430708
G03 X1310.857499 Y-108.907643 Z0.000000 I1.496724 J99.097996
G03 X1316.885928 Y-103.151633 Z0.000000 I-3.393589 J9.589074
G03 X1315.656890 Y-93.970628 Z0.000000 I-8.642272 J3.515848
G03 X1305.658754 Y-86.269718 Z0.000000 I-19.360732 J-14.795376
G03 X1296.727297 Y-83.390507 Z0.000000 I-15.826594 J-33.802370
G03 X1278.670425 Y-82.125056 Z0.000000 I-14.466161 J-76.958838
G03 X1262.430617 Y-85.287377 Z0.000000 I2.599445 J-56.629391
G03 X1250.386608 Y-94.356863 Z0.000000 I8.298663 J-23.552166
G03 X1248.606190 Y-86.901157 Z0.000000 I-7.526041 J2.143220
G03 X1238.781621 Y-80.191723 Z0.000000 I-19.544517 J-18.071140
G03 X1225.424484 Y-76.731963 Z0.000000 I-20.982858 J-53.494865
G03 X1209.364323 Y-76.261876 Z0.000000 I-10.285510 J-76.819925
G03 X1194.240139 Y-79.499416 Z0.000000 I4.240299 J-56.753685
G03 X1185.776513 Y-85.827452 Z0.000000 I6.187308 J-17.099391
G03 X1183.740063 Y-94.344023 Z0.000000 I9.074611 J-6.671647
G03 X1191.659992 Y-112.148582 Z0.000000 I38.251305 J6.351397
G03 X1155.902746 Y-87.429496 Z0.000000 I-41.152947 J-21.307791
G03 X1129.478822 Y-91.122004 Z0.000000 I-6.144966 J-52.418317
G03 X1116.802147 Y-101.490308 Z0.000000 I9.649610 J-24.731613
G03 X1115.660817 Y-109.722438 Z0.000000 I8.312351 J-5.347637
G03 X1118.957383 Y-115.620116 Z0.000000 I10.609047 J2.059870
G03 X1132.501520 Y-124.784747 Z0.000000 I37.444739 J40.747917
G03 X1147.715430 Y-129.936376 Z0.000000 I28.952819 J60.463287
G03 X1167.478410 Y-130.749015 Z0.000000 I12.317001 J58.824098
G03 X1188.692152 Y-125.084919 Z0.000000 I-12.102616 J87.885905
G02 X1216.357418 Y-114.423091 Z0.000000 I324.891476 J-801.803246
G02 X1244.391108 Y-106.093023 Z0.000000 I81.245672 J-222.084287
G02 X1283.876978 Y-102.039650 Z0.000000 I35.915569 J-155.518781
G03 X1236.320955 Y-107.643159 Z0.000000 I-2.325439 J-184.866078
G03 X1201.641267 Y-119.427012 Z0.000000 I55.789146 J-221.109365
G03 X1170.015714 Y-132.259341 Z0.000000 I761.422193 J-1921.928514
G02 X1139.460097 Y-137.218731 Z0.000000 I-25.735756 J61.953438
G02 X1082.466035 Y-117.789987 Z0.000000 I2.888217 J101.782742
G03 X1022.006823 Y-96.783006 Z0.000000 I-64.883324 J-89.231759
G03 X988.185838 Y-100.748111 Z0.000000 I-4.150866 J-110.817792
G03 X968.461953 Y-110.430063 Z0.000000 I15.939080 J-57.402316
G03 X961.577471 Y-117.770139 Z0.000000 I17.239553 J-23.068125
G03 X959.825682 Y-124.190846 Z0.000000 I9.097971 J-5.931567
G03 X962.102352 Y-130.104303 Z0.000000 I9.987744 J0.450277
G03 X971.916465 Y-138.027444 Z0.000000 I24.286291 J20.042799
G02 X973.170704 Y-124.667633 Z0.000000 I11.484742 J5.660576
G02 X985.950396 Y-114.372546 Z0.000000 I26.760454 J-20.139287
G02 X1006.084569 Y-107.967534 Z0.000000 I36.051549 J-78.479717
G02 X1022.006823 Y-106.487580 Z0.000000 I15.922254 J-84.910745
G02 X1034.174294 Y-108.450410 Z0.000000 I-2.971143 J-57.112110
G02 X1044.892968 Y-112.552940 Z0.000000 I-15.582147 J-56.765052
G02 X1053.507323 Y-118.785942 Z0.000000 I-14.621718 J-29.277281
G02 X1054.824663 Y-123.470585 Z0.000000 I-3.557205 J-3.527843
G02 X1050.183509 Y-128.494665 Z0.000000 I-9.374844 J4.004565
G02 X1037.552126 Y-134.590409 Z0.000000 I-97.878675 J186.685649
G03 X1024.530534 Y-140.481934 Z0.000000 I338.510656 J-765.520582
G03 X1020.279588 Y-144.497161 Z0.000000 I3.863054 J-8.347706
G02 X1030.801581 Y-139.514458 Z0.000000 I22.056554 J-32.975890
G02 X1050.074731 Y-134.994767 Z0.000000 I44.537176 J-146.565495
G02 X1069.759155 Y-132.944550 Z0.000000 I26.380674 J-157.763014
G02 X1082.460757 Y-133.983875 Z0.000000 I2.165120 J-51.672917
G02 X1095.885637 Y-141.019493 Z0.000000 I-6.003448 J-27.781389
G02 X1098.006034 Y-147.226574 Z0.000000 I-4.772389 J-5.096007
G02 X1094.199455 Y-153.198154 Z0.000000 I-8.816784 J1.421210
G02 X1077.278969 Y-159.862737 Z0.000000 I-23.334203 J34.430708
G02 X1110.557742 Y-165.513934 Z0.000000 I1.440928 J-92.326297
G02 X1116.358110 Y-171.285831 Z0.000000 I-3.377336 J-9.194434
G02 X1114.976919 Y-180.447276 Z0.000000 I-8.945997 J-3.336129
