%
(Header)
(Generated by gcodetools from Inkscape.)
(Using default header. To add your own header create file "header" in the output dir.)
M3
(Header end.)
G21 (All units in mm)

(Start cutting path id: path50)
(Change tool to Cylindrical cutter)

M300 S145 (G00 Z5.000000)
G00 X3200.000000 Y-400.000000

M300 S125 (G01 Z0.000000 F100.0(Penetrate)
G01 X3200.000000 Y0.000000 Z0.000000 F200.000000
G01 X2800.000000 Y0.000000 Z0.000000
G01 X3200.000000 Y-400.000000 Z0.000000
G01 X3200.000000 Y-350.000000 Z0.000000
G01 X3150.000000 Y0.000000 Z0.000000
G01 X2850.000000 Y-50.000000 Z0.000000
G01 X3200.000000 Y-350.000000 Z0.000000
G01 X3193.750000 Y-306.250000 Z0.000000
G01 X3112.500000 Y-6.250000 Z0.000000
G01 X2893.750000 Y-87.500000 Z0.000000
G01 X3193.750000 Y-306.250000 Z0.000000
G01 X3183.593750 Y-268.750000 Z0.000000
G01 X3085.156250 Y-16.406250 Z0.000000
G01 X2931.250000 Y-114.843750 Z0.000000
G01 X3183.593750 Y-268.750000 Z0.000000
G01 X3171.289062 Y-237.207030 Z0.000000
G01 X3065.917970 Y-28.710940 Z0.000000
G01 X2962.792970 Y-134.082030 Z0.000000
G01 X3171.289062 Y-237.207030 Z0.000000
G01 X3158.117676 Y-211.145020 Z0.000000
G01 X3053.027340 Y-41.882320 Z0.000000
G01 X2988.854980 Y-146.972660 Z0.000000
G01 X3158.117676 Y-211.145020 Z0.000000
G01 X3144.981384 Y-189.987180 Z0.000000
G01 X3045.005800 Y-55.018620 Z0.000000
G01 X3010.012820 Y-154.994200 Z0.000000
G01 X3144.981384 Y-189.987180 Z0.000000
G01 X3132.484436 Y-173.116110 Z0.000000
G01 X3040.631680 Y-67.515560 Z0.000000
G01 X3026.883890 Y-159.368320 Z0.000000
G01 X3132.484436 Y-173.116110 Z0.000000
G01 X3121.002841 Y-159.916040 Z0.000000
G01 X3038.913200 Y-78.997160 Z0.000000
G01 X3040.083960 Y-161.086800 Z0.000000
G01 X3121.002841 Y-159.916040 Z0.000000
G01 X3110.741636 Y-149.801180 Z0.000000
G01 X3039.059550 Y-89.258360 Z0.000000
G01 X3050.198820 Y-160.940450 Z0.000000
G01 X3110.741636 Y-149.801180 Z0.000000
G01 X3101.781375 Y-142.233330 Z0.000000
G01 X3040.451960 Y-98.218620 Z0.000000
G01 X3057.766670 Y-159.548050 Z0.000000
G01 X3101.781375 Y-142.233330 Z0.000000
M300 S145 (G00 Z5.000000)

(End cutting path id: path50)


(Start cutting path id: path46)
(Change tool to Cylindrical cutter)

M300 S145 (G00 Z5.000000)
G00 X3200.000000 Y-400.000000

M300 S125 (G01 Z0.000000 F100.0(Penetrate)
G01 X2800.000000 Y-400.000000 Z0.000000 F200.000000
G01 X2800.000000 Y0.000000 Z0.000000
G01 X3200.000000 Y-400.000000 Z0.000000
G01 X3150.000000 Y-400.000000 Z0.000000
G01 X2800.000000 Y-350.000000 Z0.000000
G01 X2850.000000 Y-50.000000 Z0.000000
G01 X3150.000000 Y-400.000000 Z0.000000
G01 X3106.250000 Y-393.750000 Z0.000000
G01 X2806.250000 Y-312.500000 Z0.000000
G01 X2887.500000 Y-93.750000 Z0.000000
G01 X3106.250000 Y-393.750000 Z0.000000
G01 X3068.750000 Y-383.593750 Z0.000000
G01 X2816.406250 Y-285.156250 Z0.000000
G01 X2914.843750 Y-131.250000 Z0.000000
G01 X3068.750000 Y-383.593750 Z0.000000
G01 X3037.207030 Y-371.289062 Z0.000000
G01 X2828.710940 Y-265.917970 Z0.000000
G01 X2934.082030 Y-162.792970 Z0.000000
G01 X3037.207030 Y-371.289062 Z0.000000
G01 X3011.145020 Y-358.117676 Z0.000000
G01 X2841.882320 Y-253.027340 Z0.000000
G01 X2946.972660 Y-188.854980 Z0.000000
G01 X3011.145020 Y-358.117676 Z0.000000
G01 X2989.987180 Y-344.981384 Z0.000000
G01 X2855.018620 Y-245.005800 Z0.000000
G01 X2954.994200 Y-210.012820 Z0.000000
G01 X2989.987180 Y-344.981384 Z0.000000
G01 X2973.116110 Y-332.484436 Z0.000000
G01 X2867.515560 Y-240.631680 Z0.000000
G01 X2959.368320 Y-226.883890 Z0.000000
G01 X2973.116110 Y-332.484436 Z0.000000
G01 X2959.916040 Y-321.002841 Z0.000000
G01 X2878.997160 Y-238.913200 Z0.000000
G01 X2961.086800 Y-240.083960 Z0.000000
G01 X2959.916040 Y-321.002841 Z0.000000
G01 X2949.801180 Y-310.741636 Z0.000000
G01 X2889.258360 Y-239.059550 Z0.000000
G01 X2960.940450 Y-250.198820 Z0.000000
G01 X2949.801180 Y-310.741636 Z0.000000
G01 X2942.233330 Y-301.781375 Z0.000000
G01 X2898.218620 Y-240.451960 Z0.000000
G01 X2959.548050 Y-257.766670 Z0.000000
G01 X2942.233330 Y-301.781375 Z0.000000
M300 S145 (G00 Z5.000000)

(End cutting path id: path46)


(Start cutting path id: path72)
(Change tool to Cylindrical cutter)

M300 S145 (G00 Z5.000000)
G00 X2400.000000 Y-400.000000

M300 S125 (G01 Z0.000000 F100.0(Penetrate)
G01 X2400.000000 Y0.000000 Z0.000000 F200.000000
G01 X2800.000000 Y0.000000 Z0.000000
G01 X2400.000000 Y-400.000000 Z0.000000
G01 X2400.000000 Y-350.000000 Z0.000000
G01 X2450.000000 Y0.000000 Z0.000000
G01 X2750.000000 Y-50.000000 Z0.000000
G01 X2400.000000 Y-350.000000 Z0.000000
G01 X2406.250000 Y-306.250000 Z0.000000
G01 X2487.500000 Y-6.250000 Z0.000000
G01 X2706.250000 Y-87.500000 Z0.000000
G01 X2406.250000 Y-306.250000 Z0.000000
G01 X2416.406250 Y-268.750000 Z0.000000
G01 X2514.843750 Y-16.406250 Z0.000000
G01 X2668.750000 Y-114.843750 Z0.000000
G01 X2416.406250 Y-268.750000 Z0.000000
G01 X2428.710938 Y-237.207030 Z0.000000
G01 X2534.082030 Y-28.710940 Z0.000000
G01 X2637.207030 Y-134.082030 Z0.000000
G01 X2428.710938 Y-237.207030 Z0.000000
G01 X2441.882324 Y-211.145020 Z0.000000
G01 X2546.972660 Y-41.882320 Z0.000000
G01 X2611.145020 Y-146.972660 Z0.000000
G01 X2441.882324 Y-211.145020 Z0.000000
G01 X2455.018616 Y-189.987180 Z0.000000
G01 X2554.994200 Y-55.018620 Z0.000000
G01 X2589.987180 Y-154.994200 Z0.000000
G01 X2455.018616 Y-189.987180 Z0.000000
G01 X2467.515564 Y-173.116110 Z0.000000
G01 X2559.368320 Y-67.515560 Z0.000000
G01 X2573.116110 Y-159.368320 Z0.000000
G01 X2467.515564 Y-173.116110 Z0.000000
G01 X2478.997159 Y-159.916040 Z0.000000
G01 X2561.086800 Y-78.997160 Z0.000000
G01 X2559.916040 Y-161.086800 Z0.000000
G01 X2478.997159 Y-159.916040 Z0.000000
G01 X2489.258364 Y-149.801180 Z0.000000
G01 X2560.940450 Y-89.258360 Z0.000000
G01 X2549.801180 Y-160.940450 Z0.000000
G01 X2489.258364 Y-149.801180 Z0.000000
G01 X2498.218625 Y-142.233330 Z0.000000
G01 X2559.548040 Y-98.218620 Z0.000000
G01 X2542.233330 Y-159.548050 Z0.000000
G01 X2498.218625 Y-142.233330 Z0.000000
M300 S145 (G00 Z5.000000)

(End cutting path id: path72)


(Start cutting path id: path68)
(Change tool to Cylindrical cutter)

M300 S145 (G00 Z5.000000)
G00 X2400.000000 Y-400.000000

M300 S125 (G01 Z0.000000 F100.0(Penetrate)
G01 X2800.000000 Y-400.000000 Z0.000000 F200.000000
G01 X2800.000000 Y0.000000 Z0.000000
G01 X2400.000000 Y-400.000000 Z0.000000
G01 X2450.000000 Y-400.000000 Z0.000000
G01 X2800.000000 Y-350.000000 Z0.000000
G01 X2750.000000 Y-50.000000 Z0.000000
G01 X2450.000000 Y-400.000000 Z0.000000
G01 X2493.750000 Y-393.750000 Z0.000000
G01 X2793.750000 Y-312.500000 Z0.000000
G01 X2712.500000 Y-93.750000 Z0.000000
G01 X2493.750000 Y-393.750000 Z0.000000
G01 X2531.250000 Y-383.593750 Z0.000000
G01 X2783.593750 Y-285.156250 Z0.000000
G01 X2685.156250 Y-131.250000 Z0.000000
G01 X2531.250000 Y-383.593750 Z0.000000
G01 X2562.792970 Y-371.289062 Z0.000000
G01 X2771.289060 Y-265.917970 Z0.000000
G01 X2665.917970 Y-162.792970 Z0.000000
G01 X2562.792970 Y-371.289062 Z0.000000
G01 X2588.854980 Y-358.117676 Z0.000000
G01 X2758.117680 Y-253.027340 Z0.000000
G01 X2653.027340 Y-188.854980 Z0.000000
G01 X2588.854980 Y-358.117676 Z0.000000
G01 X2610.012820 Y-344.981384 Z0.000000
G01 X2744.981380 Y-245.005800 Z0.000000
G01 X2645.005800 Y-210.012820 Z0.000000
G01 X2610.012820 Y-344.981384 Z0.000000
G01 X2626.883890 Y-332.484436 Z0.000000
G01 X2732.484440 Y-240.631680 Z0.000000
G01 X2640.631680 Y-226.883890 Z0.000000
G01 X2626.883890 Y-332.484436 Z0.000000
G01 X2640.083960 Y-321.002841 Z0.000000
G01 X2721.002840 Y-238.913200 Z0.000000
G01 X2638.913200 Y-240.083960 Z0.000000
G01 X2640.083960 Y-321.002841 Z0.000000
G01 X2650.198820 Y-310.741636 Z0.000000
G01 X2710.741640 Y-239.059550 Z0.000000
G01 X2639.059550 Y-250.198820 Z0.000000
G01 X2650.198820 Y-310.741636 Z0.000000
G01 X2657.766670 Y-301.781375 Z0.000000
G01 X2701.781380 Y-240.451960 Z0.000000
G01 X2640.451950 Y-257.766670 Z0.000000
G01 X2657.766670 Y-301.781375 Z0.000000
M300 S145 (G00 Z5.000000)

(End cutting path id: path68)


(Start cutting path id: path94)
(Change tool to Cylindrical cutter)

M300 S145 (G00 Z5.000000)
G00 X2400.000000 Y-400.000000

M300 S125 (G01 Z0.000000 F100.0(Penetrate)
G01 X2400.000000 Y0.000000 Z0.000000 F200.000000
G01 X2000.000000 Y0.000000 Z0.000000
G01 X2400.000000 Y-400.000000 Z0.000000
G01 X2400.000000 Y-350.000000 Z0.000000
G01 X2350.000000 Y0.000000 Z0.000000
G01 X2050.000000 Y-50.000000 Z0.000000
G01 X2400.000000 Y-350.000000 Z0.000000
G01 X2393.750000 Y-306.250000 Z0.000000
G01 X2312.500000 Y-6.250000 Z0.000000
G01 X2093.750000 Y-87.500000 Z0.000000
G01 X2393.750000 Y-306.250000 Z0.000000
G01 X2383.593750 Y-268.750000 Z0.000000
G01 X2285.156250 Y-16.406250 Z0.000000
G01 X2131.250000 Y-114.843750 Z0.000000
G01 X2383.593750 Y-268.750000 Z0.000000
G01 X2371.289062 Y-237.207030 Z0.000000
G01 X2265.917970 Y-28.710940 Z0.000000
G01 X2162.792970 Y-134.082030 Z0.000000
G01 X2371.289062 Y-237.207030 Z0.000000
G01 X2358.117676 Y-211.145020 Z0.000000
G01 X2253.027340 Y-41.882320 Z0.000000
G01 X2188.854980 Y-146.972660 Z0.000000
G01 X2358.117676 Y-211.145020 Z0.000000
G01 X2344.981384 Y-189.987180 Z0.000000
G01 X2245.005800 Y-55.018620 Z0.000000
G01 X2210.012820 Y-154.994200 Z0.000000
G01 X2344.981384 Y-189.987180 Z0.000000
G01 X2332.484436 Y-173.116110 Z0.000000
G01 X2240.631680 Y-67.515560 Z0.000000
G01 X2226.883890 Y-159.368320 Z0.000000
G01 X2332.484436 Y-173.116110 Z0.000000
G01 X2321.002841 Y-159.916040 Z0.000000
G01 X2238.913200 Y-78.997160 Z0.000000
G01 X2240.083960 Y-161.086800 Z0.000000
G01 X2321.002841 Y-159.916040 Z0.000000
G01 X2310.741636 Y-149.801180 Z0.000000
G01 X2239.059550 Y-89.258360 Z0.000000
G01 X2250.198820 Y-160.940450 Z0.000000
G01 X2310.741636 Y-149.801180 Z0.000000
G01 X2301.781375 Y-142.233330 Z0.000000
G01 X2240.451960 Y-98.218620 Z0.000000
G01 X2257.766670 Y-159.548050 Z0.000000
G01 X2301.781375 Y-142.233330 Z0.000000
M300 S145 (G00 Z5.000000)

(End cutting path id: path94)


(Start cutting path id: path90)
(Change tool to Cylindrical cutter)

M300 S145 (G00 Z5.000000)
G00 X2400.000000 Y-400.000000

M300 S125 (G01 Z0.000000 F100.0(Penetrate)
G01 X2000.000000 Y-400.000000 Z0.000000 F200.000000
G01 X2000.000000 Y0.000000 Z0.000000
G01 X2400.000000 Y-400.000000 Z0.000000
G01 X2350.000000 Y-400.000000 Z0.000000
G01 X2000.000000 Y-350.000000 Z0.000000
G01 X2050.000000 Y-50.000000 Z0.000000
G01 X2350.000000 Y-400.000000 Z0.000000
G01 X2306.250000 Y-393.750000 Z0.000000
G01 X2006.250000 Y-312.500000 Z0.000000
G01 X2087.500000 Y-93.750000 Z0.000000
G01 X2306.250000 Y-393.750000 Z0.000000
G01 X2268.750000 Y-383.593750 Z0.000000
G01 X2016.406250 Y-285.156250 Z0.000000
G01 X2114.843750 Y-131.250000 Z0.000000
G01 X2268.750000 Y-383.593750 Z0.000000
G01 X2237.207030 Y-371.289062 Z0.000000
G01 X2028.710940 Y-265.917970 Z0.000000
G01 X2134.082030 Y-162.792970 Z0.000000
G01 X2237.207030 Y-371.289062 Z0.000000
G01 X2211.145020 Y-358.117676 Z0.000000
G01 X2041.882320 Y-253.027340 Z0.000000
G01 X2146.972660 Y-188.854980 Z0.000000
G01 X2211.145020 Y-358.117676 Z0.000000
G01 X2189.987180 Y-344.981384 Z0.000000
G01 X2055.018620 Y-245.005800 Z0.000000
G01 X2154.994200 Y-210.012820 Z0.000000
G01 X2189.987180 Y-344.981384 Z0.000000
G01 X2173.116110 Y-332.484436 Z0.000000
G01 X2067.515560 Y-240.631680 Z0.000000
G01 X2159.368320 Y-226.883890 Z0.000000
G01 X2173.116110 Y-332.484436 Z0.000000
G01 X2159.916040 Y-321.002841 Z0.000000
G01 X2078.997160 Y-238.913200 Z0.000000
G01 X2161.086800 Y-240.083960 Z0.000000
G01 X2159.916040 Y-321.002841 Z0.000000
G01 X2149.801180 Y-310.741636 Z0.000000
G01 X2089.258360 Y-239.059550 Z0.000000
G01 X2160.940450 Y-250.198820 Z0.000000
G01 X2149.801180 Y-310.741636 Z0.000000
G01 X2142.233330 Y-301.781375 Z0.000000
G01 X2098.218620 Y-240.451960 Z0.000000
G01 X2159.548050 Y-257.766670 Z0.000000
G01 X2142.233330 Y-301.781375 Z0.000000
M300 S145 (G00 Z5.000000)

(End cutting path id: path90)


(Start cutting path id: path116)
(Change tool to Cylindrical cutter)

M300 S145 (G00 Z5.000000)
G00 X1600.000000 Y-400.000000

M300 S125 (G01 Z0.000000 F100.0(Penetrate)
G01 X1600.000000 Y0.000000 Z0.000000 F200.000000
G01 X2000.000000 Y0.000000 Z0.000000
G01 X1600.000000 Y-400.000000 Z0.000000
G01 X1600.000000 Y-350.000000 Z0.000000
G01 X1650.000000 Y0.000000 Z0.000000
G01 X1950.000000 Y-50.000000 Z0.000000
G01 X1600.000000 Y-350.000000 Z0.000000
G01 X1606.250000 Y-306.250000 Z0.000000
G01 X1687.500000 Y-6.250000 Z0.000000
G01 X1906.250000 Y-87.500000 Z0.000000
G01 X1606.250000 Y-306.250000 Z0.000000
G01 X1616.406250 Y-268.750000 Z0.000000
G01 X1714.843750 Y-16.406250 Z0.000000
G01 X1868.750000 Y-114.843750 Z0.000000
G01 X1616.406250 Y-268.750000 Z0.000000
G01 X1628.710938 Y-237.207030 Z0.000000
G01 X1734.082030 Y-28.710940 Z0.000000
G01 X1837.207030 Y-134.082030 Z0.000000
G01 X1628.710938 Y-237.207030 Z0.000000
G01 X1641.882324 Y-211.145020 Z0.000000
G01 X1746.972660 Y-41.882320 Z0.000000
G01 X1811.145020 Y-146.972660 Z0.000000
G01 X1641.882324 Y-211.145020 Z0.000000
G01 X1655.018616 Y-189.987180 Z0.000000
G01 X1754.994200 Y-55.018620 Z0.000000
G01 X1789.987180 Y-154.994200 Z0.000000
G01 X1655.018616 Y-189.987180 Z0.000000
G01 X1667.515564 Y-173.116110 Z0.000000
G01 X1759.368320 Y-67.515560 Z0.000000
G01 X1773.116110 Y-159.368320 Z0.000000
G01 X1667.515564 Y-173.116110 Z0.000000
G01 X1678.997159 Y-159.916040 Z0.000000
G01 X1761.086800 Y-78.997160 Z0.000000
G01 X1759.916040 Y-161.086800 Z0.000000
G01 X1678.997159 Y-159.916040 Z0.000000
G01 X1689.258364 Y-149.801180 Z0.000000
G01 X1760.940450 Y-89.258360 Z0.000000
G01 X1749.801180 Y-160.940450 Z0.000000
G01 X1689.258364 Y-149.801180 Z0.000000
G01 X1698.218625 Y-142.233330 Z0.000000
G01 X1759.548040 Y-98.218620 Z0.000000
G01 X1742.233330 Y-159.548050 Z0.000000
G01 X1698.218625 Y-142.233330 Z0.000000
M300 S145 (G00 Z5.000000)

(End cutting path id: path116)


(Start cutting path id: path112)
(Change tool to Cylindrical cutter)

M300 S145 (G00 Z5.000000)
G00 X1600.000000 Y-400.000000

M300 S125 (G01 Z0.000000 F100.0(Penetrate)
G01 X2000.000000 Y-400.000000 Z0.000000 F200.000000
G01 X2000.000000 Y0.000000 Z0.000000
G01 X1600.000000 Y-400.000000 Z0.000000
G01 X1650.000000 Y-400.000000 Z0.000000
G01 X2000.000000 Y-350.000000 Z0.000000
G01 X1950.000000 Y-50.000000 Z0.000000
G01 X1650.000000 Y-400.000000 Z0.000000
G01 X1693.750000 Y-393.750000 Z0.000000
G01 X1993.750000 Y-312.500000 Z0.000000
G01 X1912.500000 Y-93.750000 Z0.000000
G01 X1693.750000 Y-393.750000 Z0.000000
G01 X1731.250000 Y-383.593750 Z0.000000
G01 X1983.593750 Y-285.156250 Z0.000000
G01 X1885.156250 Y-131.250000 Z0.000000
G01 X1731.250000 Y-383.593750 Z0.000000
G01 X1762.792970 Y-371.289062 Z0.000000
G01 X1971.289060 Y-265.917970 Z0.000000
G01 X1865.917970 Y-162.792970 Z0.000000
G01 X1762.792970 Y-371.289062 Z0.000000
G01 X1788.854980 Y-358.117676 Z0.000000
G01 X1958.117680 Y-253.027340 Z0.000000
G01 X1853.027340 Y-188.854980 Z0.000000
G01 X1788.854980 Y-358.117676 Z0.000000
G01 X1810.012820 Y-344.981384 Z0.000000
G01 X1944.981380 Y-245.005800 Z0.000000
G01 X1845.005800 Y-210.012820 Z0.000000
G01 X1810.012820 Y-344.981384 Z0.000000
G01 X1826.883890 Y-332.484436 Z0.000000
G01 X1932.484440 Y-240.631680 Z0.000000
G01 X1840.631680 Y-226.883890 Z0.000000
G01 X1826.883890 Y-332.484436 Z0.000000
G01 X1840.083960 Y-321.002841 Z0.000000
G01 X1921.002840 Y-238.913200 Z0.000000
G01 X1838.913200 Y-240.083960 Z0.000000
G01 X1840.083960 Y-321.002841 Z0.000000
G01 X1850.198820 Y-310.741636 Z0.000000
G01 X1910.741640 Y-239.059550 Z0.000000
G01 X1839.059550 Y-250.198820 Z0.000000
G01 X1850.198820 Y-310.741636 Z0.000000
G01 X1857.766670 Y-301.781375 Z0.000000
G01 X1901.781380 Y-240.451960 Z0.000000
G01 X1840.451950 Y-257.766670 Z0.000000
G01 X1857.766670 Y-301.781375 Z0.000000
M300 S145 (G00 Z5.000000)

(End cutting path id: path112)


(Start cutting path id: path138)
(Change tool to Cylindrical cutter)

M300 S145 (G00 Z5.000000)
G00 X1600.000000 Y-400.000000

M300 S125 (G01 Z0.000000 F100.0(Penetrate)
G01 X1600.000000 Y0.000000 Z0.000000 F200.000000
G01 X1200.000000 Y0.000000 Z0.000000
G01 X1600.000000 Y-400.000000 Z0.000000
G01 X1600.000000 Y-350.000000 Z0.000000
G01 X1550.000000 Y0.000000 Z0.000000
G01 X1250.000000 Y-50.000000 Z0.000000
G01 X1600.000000 Y-350.000000 Z0.000000
G01 X1593.750000 Y-306.250000 Z0.000000
G01 X1512.500000 Y-6.250000 Z0.000000
G01 X1293.750000 Y-87.500000 Z0.000000
G01 X1593.750000 Y-306.250000 Z0.000000
G01 X1583.593750 Y-268.750000 Z0.000000
G01 X1485.156250 Y-16.406250 Z0.000000
G01 X1331.250000 Y-114.843750 Z0.000000
G01 X1583.593750 Y-268.750000 Z0.000000
G01 X1571.289062 Y-237.207030 Z0.000000
G01 X1465.917970 Y-28.710940 Z0.000000
G01 X1362.792970 Y-134.082030 Z0.000000
G01 X1571.289062 Y-237.207030 Z0.000000
G01 X1558.117676 Y-211.145020 Z0.000000
G01 X1453.027340 Y-41.882320 Z0.000000
G01 X1388.854980 Y-146.972660 Z0.000000
G01 X1558.117676 Y-211.145020 Z0.000000
G01 X1544.981384 Y-189.987180 Z0.000000
G01 X1445.005800 Y-55.018620 Z0.000000
G01 X1410.012820 Y-154.994200 Z0.000000
G01 X1544.981384 Y-189.987180 Z0.000000
G01 X1532.484436 Y-173.116110 Z0.000000
G01 X1440.631680 Y-67.515560 Z0.000000
G01 X1426.883890 Y-159.368320 Z0.000000
G01 X1532.484436 Y-173.116110 Z0.000000
G01 X1521.002841 Y-159.916040 Z0.000000
G01 X1438.913200 Y-78.997160 Z0.000000
G01 X1440.083960 Y-161.086800 Z0.000000
G01 X1521.002841 Y-159.916040 Z0.000000
G01 X1510.741636 Y-149.801180 Z0.000000
G01 X1439.059550 Y-89.258360 Z0.000000
G01 X1450.198820 Y-160.940450 Z0.000000
G01 X1510.741636 Y-149.801180 Z0.000000
G01 X1501.781375 Y-142.233330 Z0.000000
G01 X1440.451960 Y-98.218620 Z0.000000
G01 X1457.766670 Y-159.548050 Z0.000000
G01 X1501.781375 Y-142.233330 Z0.000000
M300 S145 (G00 Z5.000000)

(End cutting path id: path138)


(Start cutting path id: path134)
(Change tool to Cylindrical cutter)

M300 S145 (G00 Z5.000000)
G00 X1600.000000 Y-400.000000

M300 S125 (G01 Z0.000000 F100.0(Penetrate)
G01 X1200.000000 Y-400.000000 Z0.000000 F200.000000
G01 X1200.000000 Y0.000000 Z0.000000
G01 X1600.000000 Y-400.000000 Z0.000000
G01 X1550.000000 Y-400.000000 Z0.000000
G01 X1200.000000 Y-350.000000 Z0.000000
G01 X1250.000000 Y-50.000000 Z0.000000
G01 X1550.000000 Y-400.000000 Z0.000000
G01 X1506.250000 Y-393.750000 Z0.000000
G01 X1206.250000 Y-312.500000 Z0.000000
G01 X1287.500000 Y-93.750000 Z0.000000
G01 X1506.250000 Y-393.750000 Z0.000000
G01 X1468.750000 Y-383.593750 Z0.000000
G01 X1216.406250 Y-285.156250 Z0.000000
G01 X1314.843750 Y-131.250000 Z0.000000
G01 X1468.750000 Y-383.593750 Z0.000000
G01 X1437.207030 Y-371.289062 Z0.000000
G01 X1228.710940 Y-265.917970 Z0.000000
G01 X1334.082030 Y-162.792970 Z0.000000
G01 X1437.207030 Y-371.289062 Z0.000000
G01 X1411.145020 Y-358.117676 Z0.000000
G01 X1241.882320 Y-253.027340 Z0.000000
G01 X1346.972660 Y-188.854980 Z0.000000
G01 X1411.145020 Y-358.117676 Z0.000000
G01 X1389.987180 Y-344.981384 Z0.000000
G01 X1255.018620 Y-245.005800 Z0.000000
G01 X1354.994200 Y-210.012820 Z0.000000
G01 X1389.987180 Y-344.981384 Z0.000000
G01 X1373.116110 Y-332.484436 Z0.000000
G01 X1267.515560 Y-240.631680 Z0.000000
G01 X1359.368320 Y-226.883890 Z0.000000
G01 X1373.116110 Y-332.484436 Z0.000000
G01 X1359.916040 Y-321.002841 Z0.000000
G01 X1278.997160 Y-238.913200 Z0.000000
G01 X1361.086800 Y-240.083960 Z0.000000
G01 X1359.916040 Y-321.002841 Z0.000000
G01 X1349.801180 Y-310.741636 Z0.000000
G01 X1289.258360 Y-239.059550 Z0.000000
G01 X1360.940450 Y-250.198820 Z0.000000
G01 X1349.801180 Y-310.741636 Z0.000000
G01 X1342.233330 Y-301.781375 Z0.000000
G01 X1298.218620 Y-240.451960 Z0.000000
G01 X1359.548050 Y-257.766670 Z0.000000
G01 X1342.233330 Y-301.781375 Z0.000000
M300 S145 (G00 Z5.000000)

(End cutting path id: path134)


(Start cutting path id: path160)
(Change tool to Cylindrical cutter)

M300 S145 (G00 Z5.000000)
G00 X800.000000 Y-400.000000

M300 S125 (G01 Z0.000000 F100.0(Penetrate)
G01 X800.000000 Y0.000000 Z0.000000 F200.000000
G01 X1200.000000 Y0.000000 Z0.000000
G01 X800.000000 Y-400.000000 Z0.000000
G01 X800.000000 Y-350.000000 Z0.000000
G01 X850.000000 Y0.000000 Z0.000000
G01 X1150.000000 Y-50.000000 Z0.000000
G01 X800.000000 Y-350.000000 Z0.000000
G01 X806.250000 Y-306.250000 Z0.000000
G01 X887.500000 Y-6.250000 Z0.000000
G01 X1106.250000 Y-87.500000 Z0.000000
G01 X806.250000 Y-306.250000 Z0.000000
G01 X816.406250 Y-268.750000 Z0.000000
G01 X914.843750 Y-16.406250 Z0.000000
G01 X1068.750000 Y-114.843750 Z0.000000
G01 X816.406250 Y-268.750000 Z0.000000
G01 X828.710938 Y-237.207030 Z0.000000
G01 X934.082030 Y-28.710940 Z0.000000
G01 X1037.207030 Y-134.082030 Z0.000000
G01 X828.710938 Y-237.207030 Z0.000000
G01 X841.882324 Y-211.145020 Z0.000000
G01 X946.972660 Y-41.882320 Z0.000000
G01 X1011.145020 Y-146.972660 Z0.000000
G01 X841.882324 Y-211.145020 Z0.000000
G01 X855.018616 Y-189.987180 Z0.000000
G01 X954.994200 Y-55.018620 Z0.000000
G01 X989.987180 Y-154.994200 Z0.000000
G01 X855.018616 Y-189.987180 Z0.000000
G01 X867.515564 Y-173.116110 Z0.000000
G01 X959.368320 Y-67.515560 Z0.000000
G01 X973.116110 Y-159.368320 Z0.000000
G01 X867.515564 Y-173.116110 Z0.000000
G01 X878.997159 Y-159.916040 Z0.000000
G01 X961.086800 Y-78.997160 Z0.000000
G01 X959.916040 Y-161.086800 Z0.000000
G01 X878.997159 Y-159.916040 Z0.000000
G01 X889.258364 Y-149.801180 Z0.000000
G01 X960.940450 Y-89.258360 Z0.000000
G01 X949.801180 Y-160.940450 Z0.000000
G01 X889.258364 Y-149.801180 Z0.000000
G01 X898.218625 Y-142.233330 Z0.000000
G01 X959.548040 Y-98.218620 Z0.000000
G01 X942.233330 Y-159.548050 Z0.000000
G01 X898.218625 Y-142.233330 Z0.000000
M300 S145 (G00 Z5.000000)

(End cutting path id: path160)


(Start cutting path id: path156)
(Change tool to Cylindrical cutter)

M300 S145 (G00 Z5.000000)
G00 X800.000000 Y-400.000000

M300 S125 (G01 Z0.000000 F100.0(Penetrate)
G01 X1200.000000 Y-400.000000 Z0.000000 F200.000000
G01 X1200.000000 Y0.000000 Z0.000000
G01 X800.000000 Y-400.000000 Z0.000000
G01 X850.000000 Y-400.000000 Z0.000000
G01 X1200.000000 Y-350.000000 Z0.000000
G01 X1150.000000 Y-50.000000 Z0.000000
G01 X850.000000 Y-400.000000 Z0.000000
G01 X893.750000 Y-393.750000 Z0.000000
G01 X1193.750000 Y-312.500000 Z0.000000
G01 X1112.500000 Y-93.750000 Z0.000000
G01 X893.750000 Y-393.750000 Z0.000000
G01 X931.250000 Y-383.593750 Z0.000000
G01 X1183.593750 Y-285.156250 Z0.000000
G01 X1085.156250 Y-131.250000 Z0.000000
G01 X931.250000 Y-383.593750 Z0.000000
G01 X962.792970 Y-371.289062 Z0.000000
G01 X1171.289060 Y-265.917970 Z0.000000
G01 X1065.917970 Y-162.792970 Z0.000000
G01 X962.792970 Y-371.289062 Z0.000000
G01 X988.854980 Y-358.117676 Z0.000000
G01 X1158.117680 Y-253.027340 Z0.000000
G01 X1053.027340 Y-188.854980 Z0.000000
G01 X988.854980 Y-358.117676 Z0.000000
G01 X1010.012820 Y-344.981384 Z0.000000
G01 X1144.981380 Y-245.005800 Z0.000000
G01 X1045.005800 Y-210.012820 Z0.000000
G01 X1010.012820 Y-344.981384 Z0.000000
G01 X1026.883890 Y-332.484436 Z0.000000
G01 X1132.484440 Y-240.631680 Z0.000000
G01 X1040.631680 Y-226.883890 Z0.000000
G01 X1026.883890 Y-332.484436 Z0.000000
G01 X1040.083960 Y-321.002841 Z0.000000
G01 X1121.002840 Y-238.913200 Z0.000000
G01 X1038.913200 Y-240.083960 Z0.000000
G01 X1040.083960 Y-321.002841 Z0.000000
G01 X1050.198820 Y-310.741636 Z0.000000
G01 X1110.741640 Y-239.059550 Z0.000000
G01 X1039.059550 Y-250.198820 Z0.000000
G01 X1050.198820 Y-310.741636 Z0.000000
G01 X1057.766670 Y-301.781375 Z0.000000
G01 X1101.781380 Y-240.451960 Z0.000000
G01 X1040.451950 Y-257.766670 Z0.000000
G01 X1057.766670 Y-301.781375 Z0.000000
M300 S145 (G00 Z5.000000)

(End cutting path id: path156)


(Start cutting path id: path182)
(Change tool to Cylindrical cutter)

M300 S145 (G00 Z5.000000)
G00 X800.000000 Y-400.000000

M300 S125 (G01 Z0.000000 F100.0(Penetrate)
G01 X800.000000 Y0.000000 Z0.000000 F200.000000
G01 X400.000000 Y0.000000 Z0.000000
G01 X800.000000 Y-400.000000 Z0.000000
G01 X800.000000 Y-350.000000 Z0.000000
G01 X750.000000 Y0.000000 Z0.000000
G01 X450.000000 Y-50.000000 Z0.000000
G01 X800.000000 Y-350.000000 Z0.000000
G01 X793.750000 Y-306.250000 Z0.000000
G01 X712.500000 Y-6.250000 Z0.000000
G01 X493.750000 Y-87.500000 Z0.000000
G01 X793.750000 Y-306.250000 Z0.000000
G01 X783.593750 Y-268.750000 Z0.000000
G01 X685.156250 Y-16.406250 Z0.000000
G01 X531.250000 Y-114.843750 Z0.000000
G01 X783.593750 Y-268.750000 Z0.000000
G01 X771.289062 Y-237.207030 Z0.000000
G01 X665.917970 Y-28.710940 Z0.000000
G01 X562.792970 Y-134.082030 Z0.000000
G01 X771.289062 Y-237.207030 Z0.000000
G01 X758.117676 Y-211.145020 Z0.000000
G01 X653.027340 Y-41.882320 Z0.000000
G01 X588.854980 Y-146.972660 Z0.000000
G01 X758.117676 Y-211.145020 Z0.000000
G01 X744.981384 Y-189.987180 Z0.000000
G01 X645.005800 Y-55.018620 Z0.000000
G01 X610.012820 Y-154.994200 Z0.000000
G01 X744.981384 Y-189.987180 Z0.000000
G01 X732.484436 Y-173.116110 Z0.000000
G01 X640.631680 Y-67.515560 Z0.000000
G01 X626.883890 Y-159.368320 Z0.000000
G01 X732.484436 Y-173.116110 Z0.000000
G01 X721.002841 Y-159.916040 Z0.000000
G01 X638.913200 Y-78.997160 Z0.000000
G01 X640.083960 Y-161.086800 Z0.000000
G01 X721.002841 Y-159.916040 Z0.000000
G01 X710.741636 Y-149.801180 Z0.000000
G01 X639.059550 Y-89.258360 Z0.000000
G01 X650.198820 Y-160.940450 Z0.000000
G01 X710.741636 Y-149.801180 Z0.000000
G01 X701.781375 Y-142.233330 Z0.000000
G01 X640.451960 Y-98.218620 Z0.000000
G01 X657.766670 Y-159.548050 Z0.000000
G01 X701.781375 Y-142.233330 Z0.000000
M300 S145 (G00 Z5.000000)

(End cutting path id: path182)


(Start cutting path id: path178)
(Change tool to Cylindrical cutter)

M300 S145 (G00 Z5.000000)
G00 X800.000000 Y-400.000000

M300 S125 (G01 Z0.000000 F100.0(Penetrate)
G01 X400.000000 Y-400.000000 Z0.000000 F200.000000
G01 X400.000000 Y0.000000 Z0.000000
G01 X800.000000 Y-400.000000 Z0.000000
G01 X750.000000 Y-400.000000 Z0.000000
G01 X400.000000 Y-350.000000 Z0.000000
G01 X450.000000 Y-50.000000 Z0.000000
G01 X750.000000 Y-400.000000 Z0.000000
G01 X706.250000 Y-393.750000 Z0.000000
G01 X406.250000 Y-312.500000 Z0.000000
G01 X487.500000 Y-93.750000 Z0.000000
G01 X706.250000 Y-393.750000 Z0.000000
G01 X668.750000 Y-383.593750 Z0.000000
G01 X416.406250 Y-285.156250 Z0.000000
G01 X514.843750 Y-131.250000 Z0.000000
G01 X668.750000 Y-383.593750 Z0.000000
G01 X637.207030 Y-371.289062 Z0.000000
G01 X428.710940 Y-265.917970 Z0.000000
G01 X534.082030 Y-162.792970 Z0.000000
G01 X637.207030 Y-371.289062 Z0.000000
G01 X611.145020 Y-358.117676 Z0.000000
G01 X441.882320 Y-253.027340 Z0.000000
G01 X546.972660 Y-188.854980 Z0.000000
G01 X611.145020 Y-358.117676 Z0.000000
G01 X589.987180 Y-344.981384 Z0.000000
G01 X455.018620 Y-245.005800 Z0.000000
G01 X554.994200 Y-210.012820 Z0.000000
G01 X589.987180 Y-344.981384 Z0.000000
G01 X573.116110 Y-332.484436 Z0.000000
G01 X467.515560 Y-240.631680 Z0.000000
G01 X559.368320 Y-226.883890 Z0.000000
G01 X573.116110 Y-332.484436 Z0.000000
G01 X559.916040 Y-321.002841 Z0.000000
G01 X478.997160 Y-238.913200 Z0.000000
G01 X561.086800 Y-240.083960 Z0.000000
G01 X559.916040 Y-321.002841 Z0.000000
G01 X549.801180 Y-310.741636 Z0.000000
G01 X489.258360 Y-239.059550 Z0.000000
G01 X560.940450 Y-250.198820 Z0.000000
G01 X549.801180 Y-310.741636 Z0.000000
G01 X542.233330 Y-301.781375 Z0.000000
G01 X498.218620 Y-240.451960 Z0.000000
G01 X559.548050 Y-257.766670 Z0.000000
G01 X542.233330 Y-301.781375 Z0.000000
M300 S145 (G00 Z5.000000)

(End cutting path id: path178)


(Start cutting path id: path4672-3)
(Change tool to Cylindrical cutter)

M300 S145 (G00 Z5.000000)
G00 X0.000000 Y-400.000000

M300 S125 (G01 Z0.000000 F100.0(Penetrate)
G01 X0.000000 Y0.000000 Z0.000000 F200.000000
G01 X400.000000 Y0.000000 Z0.000000
G01 X0.000000 Y-400.000000 Z0.000000
G01 X0.000000 Y-350.000000 Z0.000000
G01 X50.000000 Y0.000000 Z0.000000
G01 X350.000000 Y-50.000000 Z0.000000
G01 X0.000000 Y-350.000000 Z0.000000
G01 X6.250000 Y-306.250000 Z0.000000
G01 X87.500000 Y-6.250000 Z0.000000
G01 X306.250000 Y-87.500000 Z0.000000
G01 X6.250000 Y-306.250000 Z0.000000
G01 X16.406250 Y-268.750000 Z0.000000
G01 X114.843750 Y-16.406250 Z0.000000
G01 X268.750000 Y-114.843750 Z0.000000
G01 X16.406250 Y-268.750000 Z0.000000
G01 X28.710938 Y-237.207030 Z0.000000
G01 X134.082030 Y-28.710940 Z0.000000
G01 X237.207030 Y-134.082030 Z0.000000
G01 X28.710938 Y-237.207030 Z0.000000
G01 X41.882324 Y-211.145020 Z0.000000
G01 X146.972660 Y-41.882320 Z0.000000
G01 X211.145020 Y-146.972660 Z0.000000
G01 X41.882324 Y-211.145020 Z0.000000
G01 X55.018616 Y-189.987180 Z0.000000
G01 X154.994200 Y-55.018620 Z0.000000
G01 X189.987180 Y-154.994200 Z0.000000
G01 X55.018616 Y-189.987180 Z0.000000
G01 X67.515564 Y-173.116110 Z0.000000
G01 X159.368320 Y-67.515560 Z0.000000
G01 X173.116110 Y-159.368320 Z0.000000
G01 X67.515564 Y-173.116110 Z0.000000
G01 X78.997159 Y-159.916040 Z0.000000
G01 X161.086800 Y-78.997160 Z0.000000
G01 X159.916040 Y-161.086800 Z0.000000
G01 X78.997159 Y-159.916040 Z0.000000
G01 X89.258364 Y-149.801180 Z0.000000
G01 X160.940450 Y-89.258360 Z0.000000
G01 X149.801180 Y-160.940450 Z0.000000
G01 X89.258364 Y-149.801180 Z0.000000
G01 X98.218625 Y-142.233330 Z0.000000
G01 X159.548040 Y-98.218620 Z0.000000
G01 X142.233330 Y-159.548050 Z0.000000
G01 X98.218625 Y-142.233330 Z0.000000
M300 S145 (G00 Z5.000000)

(End cutting path id: path4672-3)


(Start cutting path id: path4796-7)
(Change tool to Cylindrical cutter)

M300 S145 (G00 Z5.000000)
G00 X0.000000 Y-400.000000

M300 S125 (G01 Z0.000000 F100.0(Penetrate)
G01 X400.000000 Y-400.000000 Z0.000000 F200.000000
G01 X400.000000 Y0.000000 Z0.000000
G01 X0.000000 Y-400.000000 Z0.000000
G01 X50.000000 Y-400.000000 Z0.000000
G01 X400.000000 Y-350.000000 Z0.000000
G01 X350.000000 Y-50.000000 Z0.000000
G01 X50.000000 Y-400.000000 Z0.000000
G01 X93.750000 Y-393.750000 Z0.000000
G01 X393.750000 Y-312.500000 Z0.000000
G01 X312.500000 Y-93.750000 Z0.000000
G01 X93.750000 Y-393.750000 Z0.000000
G01 X131.250000 Y-383.593750 Z0.000000
G01 X383.593750 Y-285.156250 Z0.000000
G01 X285.156250 Y-131.250000 Z0.000000
G01 X131.250000 Y-383.593750 Z0.000000
G01 X162.792970 Y-371.289062 Z0.000000
G01 X371.289060 Y-265.917970 Z0.000000
G01 X265.917970 Y-162.792970 Z0.000000
G01 X162.792970 Y-371.289062 Z0.000000
G01 X188.854980 Y-358.117676 Z0.000000
G01 X358.117680 Y-253.027340 Z0.000000
G01 X253.027340 Y-188.854980 Z0.000000
G01 X188.854980 Y-358.117676 Z0.000000
G01 X210.012820 Y-344.981384 Z0.000000
G01 X344.981380 Y-245.005800 Z0.000000
G01 X245.005800 Y-210.012820 Z0.000000
G01 X210.012820 Y-344.981384 Z0.000000
G01 X226.883890 Y-332.484436 Z0.000000
G01 X332.484440 Y-240.631680 Z0.000000
G01 X240.631680 Y-226.883890 Z0.000000
G01 X226.883890 Y-332.484436 Z0.000000
G01 X240.083960 Y-321.002841 Z0.000000
G01 X321.002840 Y-238.913200 Z0.000000
G01 X238.913200 Y-240.083960 Z0.000000
G01 X240.083960 Y-321.002841 Z0.000000
G01 X250.198820 Y-310.741636 Z0.000000
G01 X310.741640 Y-239.059550 Z0.000000
G01 X239.059550 Y-250.198820 Z0.000000
G01 X250.198820 Y-310.741636 Z0.000000
G01 X257.766670 Y-301.781375 Z0.000000
G01 X301.781380 Y-240.451960 Z0.000000
G01 X240.451950 Y-257.766670 Z0.000000
G01 X257.766670 Y-301.781375 Z0.000000
M300 S145 (G00 Z5.000000)

(End cutting path id: path4796-7)


(Start cutting path id: path4672)
(Change tool to Cylindrical cutter)

M300 S145 (G00 Z5.000000)
G00 X0.000000 Y400.000000

M300 S125 (G01 Z0.000000 F100.0(Penetrate)
G01 X0.000000 Y0.000000 Z0.000000 F200.000000
G01 X400.000000 Y0.000000 Z0.000000
G01 X0.000000 Y400.000000 Z0.000000
G01 X0.000000 Y350.000000 Z0.000000
G01 X50.000000 Y0.000000 Z0.000000
G01 X350.000000 Y50.000000 Z0.000000
G01 X0.000000 Y350.000000 Z0.000000
G01 X6.250000 Y306.250000 Z0.000000
G01 X87.500000 Y6.250000 Z0.000000
G01 X306.250000 Y87.500000 Z0.000000
G01 X6.250000 Y306.250000 Z0.000000
G01 X16.406250 Y268.750000 Z0.000000
G01 X114.843750 Y16.406250 Z0.000000
G01 X268.750000 Y114.843750 Z0.000000
G01 X16.406250 Y268.750000 Z0.000000
G01 X28.710938 Y237.207030 Z0.000000
G01 X134.082030 Y28.710940 Z0.000000
G01 X237.207030 Y134.082030 Z0.000000
G01 X28.710938 Y237.207030 Z0.000000
G01 X41.882324 Y211.145020 Z0.000000
G01 X146.972660 Y41.882320 Z0.000000
G01 X211.145020 Y146.972660 Z0.000000
G01 X41.882324 Y211.145020 Z0.000000
G01 X55.018616 Y189.987180 Z0.000000
G01 X154.994200 Y55.018620 Z0.000000
G01 X189.987180 Y154.994200 Z0.000000
G01 X55.018616 Y189.987180 Z0.000000
G01 X67.515564 Y173.116110 Z0.000000
G01 X159.368320 Y67.515560 Z0.000000
G01 X173.116110 Y159.368320 Z0.000000
G01 X67.515564 Y173.116110 Z0.000000
G01 X78.997159 Y159.916040 Z0.000000
G01 X161.086800 Y78.997160 Z0.000000
G01 X159.916040 Y161.086800 Z0.000000
G01 X78.997159 Y159.916040 Z0.000000
G01 X89.258364 Y149.801180 Z0.000000
G01 X160.940450 Y89.258360 Z0.000000
G01 X149.801180 Y160.940450 Z0.000000
G01 X89.258364 Y149.801180 Z0.000000
G01 X98.218625 Y142.233330 Z0.000000
G01 X159.548040 Y98.218620 Z0.000000
G01 X142.233330 Y159.548050 Z0.000000
G01 X98.218625 Y142.233330 Z0.000000
M300 S145 (G00 Z5.000000)

(End cutting path id: path4672)


(Start cutting path id: path4796)
(Change tool to Cylindrical cutter)

M300 S145 (G00 Z5.000000)
G00 X0.000000 Y400.000000

M300 S125 (G01 Z0.000000 F100.0(Penetrate)
G01 X400.000000 Y400.000000 Z0.000000 F200.000000
G01 X400.000000 Y0.000000 Z0.000000
G01 X0.000000 Y400.000000 Z0.000000
G01 X50.000000 Y400.000000 Z0.000000
G01 X400.000000 Y350.000000 Z0.000000
G01 X350.000000 Y50.000000 Z0.000000
G01 X50.000000 Y400.000000 Z0.000000
G01 X93.750000 Y393.750000 Z0.000000
G01 X393.750000 Y312.500000 Z0.000000
G01 X312.500000 Y93.750000 Z0.000000
G01 X93.750000 Y393.750000 Z0.000000
G01 X131.250000 Y383.593750 Z0.000000
G01 X383.593750 Y285.156250 Z0.000000
G01 X285.156250 Y131.250000 Z0.000000
G01 X131.250000 Y383.593750 Z0.000000
G01 X162.792970 Y371.289062 Z0.000000
G01 X371.289060 Y265.917970 Z0.000000
G01 X265.917970 Y162.792970 Z0.000000
G01 X162.792970 Y371.289062 Z0.000000
G01 X188.854980 Y358.117676 Z0.000000
G01 X358.117680 Y253.027340 Z0.000000
G01 X253.027340 Y188.854980 Z0.000000
G01 X188.854980 Y358.117676 Z0.000000
G01 X210.012820 Y344.981384 Z0.000000
G01 X344.981380 Y245.005800 Z0.000000
G01 X245.005800 Y210.012820 Z0.000000
G01 X210.012820 Y344.981384 Z0.000000
G01 X226.883890 Y332.484436 Z0.000000
G01 X332.484440 Y240.631680 Z0.000000
G01 X240.631680 Y226.883890 Z0.000000
G01 X226.883890 Y332.484436 Z0.000000
G01 X240.083960 Y321.002841 Z0.000000
G01 X321.002840 Y238.913200 Z0.000000
G01 X238.913200 Y240.083960 Z0.000000
G01 X240.083960 Y321.002841 Z0.000000
G01 X250.198820 Y310.741636 Z0.000000
G01 X310.741640 Y239.059550 Z0.000000
G01 X239.059550 Y250.198820 Z0.000000
G01 X250.198820 Y310.741636 Z0.000000
G01 X257.766670 Y301.781375 Z0.000000
G01 X301.781380 Y240.451960 Z0.000000
G01 X240.451950 Y257.766670 Z0.000000
G01 X257.766670 Y301.781375 Z0.000000
M300 S145 (G00 Z5.000000)

(End cutting path id: path4796)


(Start cutting path id: path150)
(Change tool to Cylindrical cutter)

M300 S145 (G00 Z5.000000)
G00 X800.000000 Y400.000000

M300 S125 (G01 Z0.000000 F100.0(Penetrate)
G01 X800.000000 Y0.000000 Z0.000000 F200.000000
G01 X1200.000000 Y0.000000 Z0.000000
G01 X800.000000 Y400.000000 Z0.000000
G01 X800.000000 Y350.000000 Z0.000000
G01 X850.000000 Y0.000000 Z0.000000
G01 X1150.000000 Y50.000000 Z0.000000
G01 X800.000000 Y350.000000 Z0.000000
G01 X806.250000 Y306.250000 Z0.000000
G01 X887.500000 Y6.250000 Z0.000000
G01 X1106.250000 Y87.500000 Z0.000000
G01 X806.250000 Y306.250000 Z0.000000
G01 X816.406250 Y268.750000 Z0.000000
G01 X914.843750 Y16.406250 Z0.000000
G01 X1068.750000 Y114.843750 Z0.000000
G01 X816.406250 Y268.750000 Z0.000000
G01 X828.710938 Y237.207030 Z0.000000
G01 X934.082030 Y28.710940 Z0.000000
G01 X1037.207030 Y134.082030 Z0.000000
G01 X828.710938 Y237.207030 Z0.000000
G01 X841.882324 Y211.145020 Z0.000000
G01 X946.972660 Y41.882320 Z0.000000
G01 X1011.145020 Y146.972660 Z0.000000
G01 X841.882324 Y211.145020 Z0.000000
G01 X855.018616 Y189.987180 Z0.000000
G01 X954.994200 Y55.018620 Z0.000000
G01 X989.987180 Y154.994200 Z0.000000
G01 X855.018616 Y189.987180 Z0.000000
G01 X867.515564 Y173.116110 Z0.000000
G01 X959.368320 Y67.515560 Z0.000000
G01 X973.116110 Y159.368320 Z0.000000
G01 X867.515564 Y173.116110 Z0.000000
G01 X878.997159 Y159.916040 Z0.000000
G01 X961.086800 Y78.997160 Z0.000000
G01 X959.916040 Y161.086800 Z0.000000
G01 X878.997159 Y159.916040 Z0.000000
G01 X889.258364 Y149.801180 Z0.000000
G01 X960.940450 Y89.258360 Z0.000000
G01 X949.801180 Y160.940450 Z0.000000
G01 X889.258364 Y149.801180 Z0.000000
G01 X898.218625 Y142.233330 Z0.000000
G01 X959.548040 Y98.218620 Z0.000000
G01 X942.233330 Y159.548050 Z0.000000
G01 X898.218625 Y142.233330 Z0.000000
M300 S145 (G00 Z5.000000)

(End cutting path id: path150)


(Start cutting path id: path146)
(Change tool to Cylindrical cutter)

M300 S145 (G00 Z5.000000)
G00 X800.000000 Y400.000000

M300 S125 (G01 Z0.000000 F100.0(Penetrate)
G01 X1200.000000 Y400.000000 Z0.000000 F200.000000
G01 X1200.000000 Y0.000000 Z0.000000
G01 X800.000000 Y400.000000 Z0.000000
G01 X850.000000 Y400.000000 Z0.000000
G01 X1200.000000 Y350.000000 Z0.000000
G01 X1150.000000 Y50.000000 Z0.000000
G01 X850.000000 Y400.000000 Z0.000000
G01 X893.750000 Y393.750000 Z0.000000
G01 X1193.750000 Y312.500000 Z0.000000
G01 X1112.500000 Y93.750000 Z0.000000
G01 X893.750000 Y393.750000 Z0.000000
G01 X931.250000 Y383.593750 Z0.000000
G01 X1183.593750 Y285.156250 Z0.000000
G01 X1085.156250 Y131.250000 Z0.000000
G01 X931.250000 Y383.593750 Z0.000000
G01 X962.792970 Y371.289062 Z0.000000
G01 X1171.289060 Y265.917970 Z0.000000
G01 X1065.917970 Y162.792970 Z0.000000
G01 X962.792970 Y371.289062 Z0.000000
G01 X988.854980 Y358.117676 Z0.000000
G01 X1158.117680 Y253.027340 Z0.000000
G01 X1053.027340 Y188.854980 Z0.000000
G01 X988.854980 Y358.117676 Z0.000000
G01 X1010.012820 Y344.981384 Z0.000000
G01 X1144.981380 Y245.005800 Z0.000000
G01 X1045.005800 Y210.012820 Z0.000000
G01 X1010.012820 Y344.981384 Z0.000000
G01 X1026.883890 Y332.484436 Z0.000000
G01 X1132.484440 Y240.631680 Z0.000000
G01 X1040.631680 Y226.883890 Z0.000000
G01 X1026.883890 Y332.484436 Z0.000000
G01 X1040.083960 Y321.002841 Z0.000000
G01 X1121.002840 Y238.913200 Z0.000000
G01 X1038.913200 Y240.083960 Z0.000000
G01 X1040.083960 Y321.002841 Z0.000000
G01 X1050.198820 Y310.741636 Z0.000000
G01 X1110.741640 Y239.059550 Z0.000000
G01 X1039.059550 Y250.198820 Z0.000000
G01 X1050.198820 Y310.741636 Z0.000000
G01 X1057.766670 Y301.781375 Z0.000000
G01 X1101.781380 Y240.451960 Z0.000000
G01 X1040.451950 Y257.766670 Z0.000000
G01 X1057.766670 Y301.781375 Z0.000000
M300 S145 (G00 Z5.000000)

(End cutting path id: path146)


(Start cutting path id: path172)
(Change tool to Cylindrical cutter)

M300 S145 (G00 Z5.000000)
G00 X800.000000 Y400.000000

M300 S125 (G01 Z0.000000 F100.0(Penetrate)
G01 X800.000000 Y0.000000 Z0.000000 F200.000000
G01 X400.000000 Y0.000000 Z0.000000
G01 X800.000000 Y400.000000 Z0.000000
G01 X800.000000 Y350.000000 Z0.000000
G01 X750.000000 Y0.000000 Z0.000000
G01 X450.000000 Y50.000000 Z0.000000
G01 X800.000000 Y350.000000 Z0.000000
G01 X793.750000 Y306.250000 Z0.000000
G01 X712.500000 Y6.250000 Z0.000000
G01 X493.750000 Y87.500000 Z0.000000
G01 X793.750000 Y306.250000 Z0.000000
G01 X783.593750 Y268.750000 Z0.000000
G01 X685.156250 Y16.406250 Z0.000000
G01 X531.250000 Y114.843750 Z0.000000
G01 X783.593750 Y268.750000 Z0.000000
G01 X771.289062 Y237.207030 Z0.000000
G01 X665.917970 Y28.710940 Z0.000000
G01 X562.792970 Y134.082030 Z0.000000
G01 X771.289062 Y237.207030 Z0.000000
G01 X758.117676 Y211.145020 Z0.000000
G01 X653.027340 Y41.882320 Z0.000000
G01 X588.854980 Y146.972660 Z0.000000
G01 X758.117676 Y211.145020 Z0.000000
G01 X744.981384 Y189.987180 Z0.000000
G01 X645.005800 Y55.018620 Z0.000000
G01 X610.012820 Y154.994200 Z0.000000
G01 X744.981384 Y189.987180 Z0.000000
G01 X732.484436 Y173.116110 Z0.000000
G01 X640.631680 Y67.515560 Z0.000000
G01 X626.883890 Y159.368320 Z0.000000
G01 X732.484436 Y173.116110 Z0.000000
G01 X721.002841 Y159.916040 Z0.000000
G01 X638.913200 Y78.997160 Z0.000000
G01 X640.083960 Y161.086800 Z0.000000
G01 X721.002841 Y159.916040 Z0.000000
G01 X710.741636 Y149.801180 Z0.000000
G01 X639.059550 Y89.258360 Z0.000000
G01 X650.198820 Y160.940450 Z0.000000
G01 X710.741636 Y149.801180 Z0.000000
G01 X701.781375 Y142.233330 Z0.000000
G01 X640.451960 Y98.218620 Z0.000000
G01 X657.766670 Y159.548050 Z0.000000
G01 X701.781375 Y142.233330 Z0.000000
M300 S145 (G00 Z5.000000)

(End cutting path id: path172)


(Start cutting path id: path168)
(Change tool to Cylindrical cutter)

M300 S145 (G00 Z5.000000)
G00 X800.000000 Y400.000000

M300 S125 (G01 Z0.000000 F100.0(Penetrate)
G01 X400.000000 Y400.000000 Z0.000000 F200.000000
G01 X400.000000 Y0.000000 Z0.000000
G01 X800.000000 Y400.000000 Z0.000000
G01 X750.000000 Y400.000000 Z0.000000
G01 X400.000000 Y350.000000 Z0.000000
G01 X450.000000 Y50.000000 Z0.000000
G01 X750.000000 Y400.000000 Z0.000000
G01 X706.250000 Y393.750000 Z0.000000
G01 X406.250000 Y312.500000 Z0.000000
G01 X487.500000 Y93.750000 Z0.000000
G01 X706.250000 Y393.750000 Z0.000000
G01 X668.750000 Y383.593750 Z0.000000
G01 X416.406250 Y285.156250 Z0.000000
G01 X514.843750 Y131.250000 Z0.000000
G01 X668.750000 Y383.593750 Z0.000000
G01 X637.207030 Y371.289062 Z0.000000
G01 X428.710940 Y265.917970 Z0.000000
G01 X534.082030 Y162.792970 Z0.000000
G01 X637.207030 Y371.289062 Z0.000000
G01 X611.145020 Y358.117676 Z0.000000
G01 X441.882320 Y253.027340 Z0.000000
G01 X546.972660 Y188.854980 Z0.000000
G01 X611.145020 Y358.117676 Z0.000000
G01 X589.987180 Y344.981384 Z0.000000
G01 X455.018620 Y245.005800 Z0.000000
G01 X554.994200 Y210.012820 Z0.000000
G01 X589.987180 Y344.981384 Z0.000000
G01 X573.116110 Y332.484436 Z0.000000
G01 X467.515560 Y240.631680 Z0.000000
G01 X559.368320 Y226.883890 Z0.000000
G01 X573.116110 Y332.484436 Z0.000000
G01 X559.916040 Y321.002841 Z0.000000
G01 X478.997160 Y238.913200 Z0.000000
G01 X561.086800 Y240.083960 Z0.000000
G01 X559.916040 Y321.002841 Z0.000000
G01 X549.801180 Y310.741636 Z0.000000
G01 X489.258360 Y239.059550 Z0.000000
G01 X560.940450 Y250.198820 Z0.000000
G01 X549.801180 Y310.741636 Z0.000000
G01 X542.233330 Y301.781375 Z0.000000
G01 X498.218620 Y240.451960 Z0.000000
G01 X559.548050 Y257.766670 Z0.000000
G01 X542.233330 Y301.781375 Z0.000000
M300 S145 (G00 Z5.000000)

(End cutting path id: path168)


(Start cutting path id: path106)
(Change tool to Cylindrical cutter)

M300 S145 (G00 Z5.000000)
G00 X1600.000000 Y400.000000

M300 S125 (G01 Z0.000000 F100.0(Penetrate)
G01 X1600.000000 Y0.000000 Z0.000000 F200.000000
G01 X2000.000000 Y0.000000 Z0.000000
G01 X1600.000000 Y400.000000 Z0.000000
G01 X1600.000000 Y350.000000 Z0.000000
G01 X1650.000000 Y0.000000 Z0.000000
G01 X1950.000000 Y50.000000 Z0.000000
G01 X1600.000000 Y350.000000 Z0.000000
G01 X1606.250000 Y306.250000 Z0.000000
G01 X1687.500000 Y6.250000 Z0.000000
G01 X1906.250000 Y87.500000 Z0.000000
G01 X1606.250000 Y306.250000 Z0.000000
G01 X1616.406250 Y268.750000 Z0.000000
G01 X1714.843750 Y16.406250 Z0.000000
G01 X1868.750000 Y114.843750 Z0.000000
G01 X1616.406250 Y268.750000 Z0.000000
G01 X1628.710938 Y237.207030 Z0.000000
G01 X1734.082030 Y28.710940 Z0.000000
G01 X1837.207030 Y134.082030 Z0.000000
G01 X1628.710938 Y237.207030 Z0.000000
G01 X1641.882324 Y211.145020 Z0.000000
G01 X1746.972660 Y41.882320 Z0.000000
G01 X1811.145020 Y146.972660 Z0.000000
G01 X1641.882324 Y211.145020 Z0.000000
G01 X1655.018616 Y189.987180 Z0.000000
G01 X1754.994200 Y55.018620 Z0.000000
G01 X1789.987180 Y154.994200 Z0.000000
G01 X1655.018616 Y189.987180 Z0.000000
G01 X1667.515564 Y173.116110 Z0.000000
G01 X1759.368320 Y67.515560 Z0.000000
G01 X1773.116110 Y159.368320 Z0.000000
G01 X1667.515564 Y173.116110 Z0.000000
G01 X1678.997159 Y159.916040 Z0.000000
G01 X1761.086800 Y78.997160 Z0.000000
G01 X1759.916040 Y161.086800 Z0.000000
G01 X1678.997159 Y159.916040 Z0.000000
G01 X1689.258364 Y149.801180 Z0.000000
G01 X1760.940450 Y89.258360 Z0.000000
G01 X1749.801180 Y160.940450 Z0.000000
G01 X1689.258364 Y149.801180 Z0.000000
G01 X1698.218625 Y142.233330 Z0.000000
G01 X1759.548040 Y98.218620 Z0.000000
G01 X1742.233330 Y159.548050 Z0.000000
G01 X1698.218625 Y142.233330 Z0.000000
M300 S145 (G00 Z5.000000)

(End cutting path id: path106)


(Start cutting path id: path102)
(Change tool to Cylindrical cutter)

M300 S145 (G00 Z5.000000)
G00 X1600.000000 Y400.000000

M300 S125 (G01 Z0.000000 F100.0(Penetrate)
G01 X2000.000000 Y400.000000 Z0.000000 F200.000000
G01 X2000.000000 Y0.000000 Z0.000000
G01 X1600.000000 Y400.000000 Z0.000000
G01 X1650.000000 Y400.000000 Z0.000000
G01 X2000.000000 Y350.000000 Z0.000000
G01 X1950.000000 Y50.000000 Z0.000000
G01 X1650.000000 Y400.000000 Z0.000000
G01 X1693.750000 Y393.750000 Z0.000000
G01 X1993.750000 Y312.500000 Z0.000000
G01 X1912.500000 Y93.750000 Z0.000000
G01 X1693.750000 Y393.750000 Z0.000000
G01 X1731.250000 Y383.593750 Z0.000000
G01 X1983.593750 Y285.156250 Z0.000000
G01 X1885.156250 Y131.250000 Z0.000000
G01 X1731.250000 Y383.593750 Z0.000000
G01 X1762.792970 Y371.289062 Z0.000000
G01 X1971.289060 Y265.917970 Z0.000000
G01 X1865.917970 Y162.792970 Z0.000000
G01 X1762.792970 Y371.289062 Z0.000000
G01 X1788.854980 Y358.117676 Z0.000000
G01 X1958.117680 Y253.027340 Z0.000000
G01 X1853.027340 Y188.854980 Z0.000000
G01 X1788.854980 Y358.117676 Z0.000000
G01 X1810.012820 Y344.981384 Z0.000000
G01 X1944.981380 Y245.005800 Z0.000000
G01 X1845.005800 Y210.012820 Z0.000000
G01 X1810.012820 Y344.981384 Z0.000000
G01 X1826.883890 Y332.484436 Z0.000000
G01 X1932.484440 Y240.631680 Z0.000000
G01 X1840.631680 Y226.883890 Z0.000000
G01 X1826.883890 Y332.484436 Z0.000000
G01 X1840.083960 Y321.002841 Z0.000000
G01 X1921.002840 Y238.913200 Z0.000000
G01 X1838.913200 Y240.083960 Z0.000000
G01 X1840.083960 Y321.002841 Z0.000000
G01 X1850.198820 Y310.741636 Z0.000000
G01 X1910.741640 Y239.059550 Z0.000000
G01 X1839.059550 Y250.198820 Z0.000000
G01 X1850.198820 Y310.741636 Z0.000000
G01 X1857.766670 Y301.781375 Z0.000000
G01 X1901.781380 Y240.451960 Z0.000000
G01 X1840.451950 Y257.766670 Z0.000000
G01 X1857.766670 Y301.781375 Z0.000000
M300 S145 (G00 Z5.000000)

(End cutting path id: path102)


(Start cutting path id: path128)
(Change tool to Cylindrical cutter)

M300 S145 (G00 Z5.000000)
G00 X1600.000000 Y400.000000

M300 S125 (G01 Z0.000000 F100.0(Penetrate)
G01 X1600.000000 Y0.000000 Z0.000000 F200.000000
G01 X1200.000000 Y0.000000 Z0.000000
G01 X1600.000000 Y400.000000 Z0.000000
G01 X1600.000000 Y350.000000 Z0.000000
G01 X1550.000000 Y0.000000 Z0.000000
G01 X1250.000000 Y50.000000 Z0.000000
G01 X1600.000000 Y350.000000 Z0.000000
G01 X1593.750000 Y306.250000 Z0.000000
G01 X1512.500000 Y6.250000 Z0.000000
G01 X1293.750000 Y87.500000 Z0.000000
G01 X1593.750000 Y306.250000 Z0.000000
G01 X1583.593750 Y268.750000 Z0.000000
G01 X1485.156250 Y16.406250 Z0.000000
G01 X1331.250000 Y114.843750 Z0.000000
G01 X1583.593750 Y268.750000 Z0.000000
G01 X1571.289062 Y237.207030 Z0.000000
G01 X1465.917970 Y28.710940 Z0.000000
G01 X1362.792970 Y134.082030 Z0.000000
G01 X1571.289062 Y237.207030 Z0.000000
G01 X1558.117676 Y211.145020 Z0.000000
G01 X1453.027340 Y41.882320 Z0.000000
G01 X1388.854980 Y146.972660 Z0.000000
G01 X1558.117676 Y211.145020 Z0.000000
G01 X1544.981384 Y189.987180 Z0.000000
G01 X1445.005800 Y55.018620 Z0.000000
G01 X1410.012820 Y154.994200 Z0.000000
G01 X1544.981384 Y189.987180 Z0.000000
G01 X1532.484436 Y173.116110 Z0.000000
G01 X1440.631680 Y67.515560 Z0.000000
G01 X1426.883890 Y159.368320 Z0.000000
G01 X1532.484436 Y173.116110 Z0.000000
G01 X1521.002841 Y159.916040 Z0.000000
G01 X1438.913200 Y78.997160 Z0.000000
G01 X1440.083960 Y161.086800 Z0.000000
G01 X1521.002841 Y159.916040 Z0.000000
G01 X1510.741636 Y149.801180 Z0.000000
G01 X1439.059550 Y89.258360 Z0.000000
G01 X1450.198820 Y160.940450 Z0.000000
G01 X1510.741636 Y149.801180 Z0.000000
G01 X1501.781375 Y142.233330 Z0.000000
G01 X1440.451960 Y98.218620 Z0.000000
G01 X1457.766670 Y159.548050 Z0.000000
G01 X1501.781375 Y142.233330 Z0.000000
M300 S145 (G00 Z5.000000)

(End cutting path id: path128)


(Start cutting path id: path124)
(Change tool to Cylindrical cutter)

M300 S145 (G00 Z5.000000)
G00 X1600.000000 Y400.000000

M300 S125 (G01 Z0.000000 F100.0(Penetrate)
G01 X1200.000000 Y400.000000 Z0.000000 F200.000000
G01 X1200.000000 Y0.000000 Z0.000000
G01 X1600.000000 Y400.000000 Z0.000000
G01 X1550.000000 Y400.000000 Z0.000000
G01 X1200.000000 Y350.000000 Z0.000000
G01 X1250.000000 Y50.000000 Z0.000000
G01 X1550.000000 Y400.000000 Z0.000000
G01 X1506.250000 Y393.750000 Z0.000000
G01 X1206.250000 Y312.500000 Z0.000000
G01 X1287.500000 Y93.750000 Z0.000000
G01 X1506.250000 Y393.750000 Z0.000000
G01 X1468.750000 Y383.593750 Z0.000000
G01 X1216.406250 Y285.156250 Z0.000000
G01 X1314.843750 Y131.250000 Z0.000000
G01 X1468.750000 Y383.593750 Z0.000000
G01 X1437.207030 Y371.289062 Z0.000000
G01 X1228.710940 Y265.917970 Z0.000000
G01 X1334.082030 Y162.792970 Z0.000000
G01 X1437.207030 Y371.289062 Z0.000000
G01 X1411.145020 Y358.117676 Z0.000000
G01 X1241.882320 Y253.027340 Z0.000000
G01 X1346.972660 Y188.854980 Z0.000000
G01 X1411.145020 Y358.117676 Z0.000000
G01 X1389.987180 Y344.981384 Z0.000000
G01 X1255.018620 Y245.005800 Z0.000000
G01 X1354.994200 Y210.012820 Z0.000000
G01 X1389.987180 Y344.981384 Z0.000000
G01 X1373.116110 Y332.484436 Z0.000000
G01 X1267.515560 Y240.631680 Z0.000000
G01 X1359.368320 Y226.883890 Z0.000000
G01 X1373.116110 Y332.484436 Z0.000000
G01 X1359.916040 Y321.002841 Z0.000000
G01 X1278.997160 Y238.913200 Z0.000000
G01 X1361.086800 Y240.083960 Z0.000000
G01 X1359.916040 Y321.002841 Z0.000000
G01 X1349.801180 Y310.741636 Z0.000000
G01 X1289.258360 Y239.059550 Z0.000000
G01 X1360.940450 Y250.198820 Z0.000000
G01 X1349.801180 Y310.741636 Z0.000000
G01 X1342.233330 Y301.781375 Z0.000000
G01 X1298.218620 Y240.451960 Z0.000000
G01 X1359.548050 Y257.766670 Z0.000000
G01 X1342.233330 Y301.781375 Z0.000000
M300 S145 (G00 Z5.000000)

(End cutting path id: path124)


(Start cutting path id: path62)
(Change tool to Cylindrical cutter)

M300 S145 (G00 Z5.000000)
G00 X2400.000000 Y400.000000

M300 S125 (G01 Z0.000000 F100.0(Penetrate)
G01 X2400.000000 Y0.000000 Z0.000000 F200.000000
G01 X2800.000000 Y0.000000 Z0.000000
G01 X2400.000000 Y400.000000 Z0.000000
G01 X2400.000000 Y350.000000 Z0.000000
G01 X2450.000000 Y0.000000 Z0.000000
G01 X2750.000000 Y50.000000 Z0.000000
G01 X2400.000000 Y350.000000 Z0.000000
G01 X2406.250000 Y306.250000 Z0.000000
G01 X2487.500000 Y6.250000 Z0.000000
G01 X2706.250000 Y87.500000 Z0.000000
G01 X2406.250000 Y306.250000 Z0.000000
G01 X2416.406250 Y268.750000 Z0.000000
G01 X2514.843750 Y16.406250 Z0.000000
G01 X2668.750000 Y114.843750 Z0.000000
G01 X2416.406250 Y268.750000 Z0.000000
G01 X2428.710938 Y237.207030 Z0.000000
G01 X2534.082030 Y28.710940 Z0.000000
G01 X2637.207030 Y134.082030 Z0.000000
G01 X2428.710938 Y237.207030 Z0.000000
G01 X2441.882324 Y211.145020 Z0.000000
G01 X2546.972660 Y41.882320 Z0.000000
G01 X2611.145020 Y146.972660 Z0.000000
G01 X2441.882324 Y211.145020 Z0.000000
G01 X2455.018616 Y189.987180 Z0.000000
G01 X2554.994200 Y55.018620 Z0.000000
G01 X2589.987180 Y154.994200 Z0.000000
G01 X2455.018616 Y189.987180 Z0.000000
G01 X2467.515564 Y173.116110 Z0.000000
G01 X2559.368320 Y67.515560 Z0.000000
G01 X2573.116110 Y159.368320 Z0.000000
G01 X2467.515564 Y173.116110 Z0.000000
G01 X2478.997159 Y159.916040 Z0.000000
G01 X2561.086800 Y78.997160 Z0.000000
G01 X2559.916040 Y161.086800 Z0.000000
G01 X2478.997159 Y159.916040 Z0.000000
G01 X2489.258364 Y149.801180 Z0.000000
G01 X2560.940450 Y89.258360 Z0.000000
G01 X2549.801180 Y160.940450 Z0.000000
G01 X2489.258364 Y149.801180 Z0.000000
G01 X2498.218625 Y142.233330 Z0.000000
G01 X2559.548040 Y98.218620 Z0.000000
G01 X2542.233330 Y159.548050 Z0.000000
G01 X2498.218625 Y142.233330 Z0.000000
M300 S145 (G00 Z5.000000)

(End cutting path id: path62)


(Start cutting path id: path58)
(Change tool to Cylindrical cutter)

M300 S145 (G00 Z5.000000)
G00 X2400.000000 Y400.000000

M300 S125 (G01 Z0.000000 F100.0(Penetrate)
G01 X2800.000000 Y400.000000 Z0.000000 F200.000000
G01 X2800.000000 Y0.000000 Z0.000000
G01 X2400.000000 Y400.000000 Z0.000000
G01 X2450.000000 Y400.000000 Z0.000000
G01 X2800.000000 Y350.000000 Z0.000000
G01 X2750.000000 Y50.000000 Z0.000000
G01 X2450.000000 Y400.000000 Z0.000000
G01 X2493.750000 Y393.750000 Z0.000000
G01 X2793.750000 Y312.500000 Z0.000000
G01 X2712.500000 Y93.750000 Z0.000000
G01 X2493.750000 Y393.750000 Z0.000000
G01 X2531.250000 Y383.593750 Z0.000000
G01 X2783.593750 Y285.156250 Z0.000000
G01 X2685.156250 Y131.250000 Z0.000000
G01 X2531.250000 Y383.593750 Z0.000000
G01 X2562.792970 Y371.289062 Z0.000000
G01 X2771.289060 Y265.917970 Z0.000000
G01 X2665.917970 Y162.792970 Z0.000000
G01 X2562.792970 Y371.289062 Z0.000000
G01 X2588.854980 Y358.117676 Z0.000000
G01 X2758.117680 Y253.027340 Z0.000000
G01 X2653.027340 Y188.854980 Z0.000000
G01 X2588.854980 Y358.117676 Z0.000000
G01 X2610.012820 Y344.981384 Z0.000000
G01 X2744.981380 Y245.005800 Z0.000000
G01 X2645.005800 Y210.012820 Z0.000000
G01 X2610.012820 Y344.981384 Z0.000000
G01 X2626.883890 Y332.484436 Z0.000000
G01 X2732.484440 Y240.631680 Z0.000000
G01 X2640.631680 Y226.883890 Z0.000000
G01 X2626.883890 Y332.484436 Z0.000000
G01 X2640.083960 Y321.002841 Z0.000000
G01 X2721.002840 Y238.913200 Z0.000000
G01 X2638.913200 Y240.083960 Z0.000000
G01 X2640.083960 Y321.002841 Z0.000000
G01 X2650.198820 Y310.741636 Z0.000000
G01 X2710.741640 Y239.059550 Z0.000000
G01 X2639.059550 Y250.198820 Z0.000000
G01 X2650.198820 Y310.741636 Z0.000000
G01 X2657.766670 Y301.781375 Z0.000000
G01 X2701.781380 Y240.451960 Z0.000000
G01 X2640.451950 Y257.766670 Z0.000000
G01 X2657.766670 Y301.781375 Z0.000000
M300 S145 (G00 Z5.000000)

(End cutting path id: path58)


(Start cutting path id: path84)
(Change tool to Cylindrical cutter)

M300 S145 (G00 Z5.000000)
G00 X2400.000000 Y400.000000

M300 S125 (G01 Z0.000000 F100.0(Penetrate)
G01 X2400.000000 Y0.000000 Z0.000000 F200.000000
G01 X2000.000000 Y0.000000 Z0.000000
G01 X2400.000000 Y400.000000 Z0.000000
G01 X2400.000000 Y350.000000 Z0.000000
G01 X2350.000000 Y0.000000 Z0.000000
G01 X2050.000000 Y50.000000 Z0.000000
G01 X2400.000000 Y350.000000 Z0.000000
G01 X2393.750000 Y306.250000 Z0.000000
G01 X2312.500000 Y6.250000 Z0.000000
G01 X2093.750000 Y87.500000 Z0.000000
G01 X2393.750000 Y306.250000 Z0.000000
G01 X2383.593750 Y268.750000 Z0.000000
G01 X2285.156250 Y16.406250 Z0.000000
G01 X2131.250000 Y114.843750 Z0.000000
G01 X2383.593750 Y268.750000 Z0.000000
G01 X2371.289062 Y237.207030 Z0.000000
G01 X2265.917970 Y28.710940 Z0.000000
G01 X2162.792970 Y134.082030 Z0.000000
G01 X2371.289062 Y237.207030 Z0.000000
G01 X2358.117676 Y211.145020 Z0.000000
G01 X2253.027340 Y41.882320 Z0.000000
G01 X2188.854980 Y146.972660 Z0.000000
G01 X2358.117676 Y211.145020 Z0.000000
G01 X2344.981384 Y189.987180 Z0.000000
G01 X2245.005800 Y55.018620 Z0.000000
G01 X2210.012820 Y154.994200 Z0.000000
G01 X2344.981384 Y189.987180 Z0.000000
G01 X2332.484436 Y173.116110 Z0.000000
G01 X2240.631680 Y67.515560 Z0.000000
G01 X2226.883890 Y159.368320 Z0.000000
G01 X2332.484436 Y173.116110 Z0.000000
G01 X2321.002841 Y159.916040 Z0.000000
G01 X2238.913200 Y78.997160 Z0.000000
G01 X2240.083960 Y161.086800 Z0.000000
G01 X2321.002841 Y159.916040 Z0.000000
G01 X2310.741636 Y149.801180 Z0.000000
G01 X2239.059550 Y89.258360 Z0.000000
G01 X2250.198820 Y160.940450 Z0.000000
G01 X2310.741636 Y149.801180 Z0.000000
G01 X2301.781375 Y142.233330 Z0.000000
G01 X2240.451960 Y98.218620 Z0.000000
G01 X2257.766670 Y159.548050 Z0.000000
G01 X2301.781375 Y142.233330 Z0.000000
M300 S145 (G00 Z5.000000)

(End cutting path id: path84)


(Start cutting path id: path80)
(Change tool to Cylindrical cutter)

M300 S145 (G00 Z5.000000)
G00 X2400.000000 Y400.000000

M300 S125 (G01 Z0.000000 F100.0(Penetrate)
G01 X2000.000000 Y400.000000 Z0.000000 F200.000000
G01 X2000.000000 Y0.000000 Z0.000000
G01 X2400.000000 Y400.000000 Z0.000000
G01 X2350.000000 Y400.000000 Z0.000000
G01 X2000.000000 Y350.000000 Z0.000000
G01 X2050.000000 Y50.000000 Z0.000000
G01 X2350.000000 Y400.000000 Z0.000000
G01 X2306.250000 Y393.750000 Z0.000000
G01 X2006.250000 Y312.500000 Z0.000000
G01 X2087.500000 Y93.750000 Z0.000000
G01 X2306.250000 Y393.750000 Z0.000000
G01 X2268.750000 Y383.593750 Z0.000000
G01 X2016.406250 Y285.156250 Z0.000000
G01 X2114.843750 Y131.250000 Z0.000000
G01 X2268.750000 Y383.593750 Z0.000000
G01 X2237.207030 Y371.289062 Z0.000000
G01 X2028.710940 Y265.917970 Z0.000000
G01 X2134.082030 Y162.792970 Z0.000000
G01 X2237.207030 Y371.289062 Z0.000000
G01 X2211.145020 Y358.117676 Z0.000000
G01 X2041.882320 Y253.027340 Z0.000000
G01 X2146.972660 Y188.854980 Z0.000000
G01 X2211.145020 Y358.117676 Z0.000000
G01 X2189.987180 Y344.981384 Z0.000000
G01 X2055.018620 Y245.005800 Z0.000000
G01 X2154.994200 Y210.012820 Z0.000000
G01 X2189.987180 Y344.981384 Z0.000000
G01 X2173.116110 Y332.484436 Z0.000000
G01 X2067.515560 Y240.631680 Z0.000000
G01 X2159.368320 Y226.883890 Z0.000000
G01 X2173.116110 Y332.484436 Z0.000000
G01 X2159.916040 Y321.002841 Z0.000000
G01 X2078.997160 Y238.913200 Z0.000000
G01 X2161.086800 Y240.083960 Z0.000000
G01 X2159.916040 Y321.002841 Z0.000000
G01 X2149.801180 Y310.741636 Z0.000000
G01 X2089.258360 Y239.059550 Z0.000000
G01 X2160.940450 Y250.198820 Z0.000000
G01 X2149.801180 Y310.741636 Z0.000000
G01 X2142.233330 Y301.781375 Z0.000000
G01 X2098.218620 Y240.451960 Z0.000000
G01 X2159.548050 Y257.766670 Z0.000000
G01 X2142.233330 Y301.781375 Z0.000000
M300 S145 (G00 Z5.000000)

(End cutting path id: path80)


(Start cutting path id: path40)
(Change tool to Cylindrical cutter)

M300 S145 (G00 Z5.000000)
G00 X3200.000000 Y400.000000

M300 S125 (G01 Z0.000000 F100.0(Penetrate)
G01 X3200.000000 Y0.000000 Z0.000000 F200.000000
G01 X2800.000000 Y0.000000 Z0.000000
G01 X3200.000000 Y400.000000 Z0.000000
G01 X3200.000000 Y350.000000 Z0.000000
G01 X3150.000000 Y0.000000 Z0.000000
G01 X2850.000000 Y50.000000 Z0.000000
G01 X3200.000000 Y350.000000 Z0.000000
G01 X3193.750000 Y306.250000 Z0.000000
G01 X3112.500000 Y6.250000 Z0.000000
G01 X2893.750000 Y87.500000 Z0.000000
G01 X3193.750000 Y306.250000 Z0.000000
G01 X3183.593750 Y268.750000 Z0.000000
G01 X3085.156250 Y16.406250 Z0.000000
G01 X2931.250000 Y114.843750 Z0.000000
G01 X3183.593750 Y268.750000 Z0.000000
G01 X3171.289062 Y237.207030 Z0.000000
G01 X3065.917970 Y28.710940 Z0.000000
G01 X2962.792970 Y134.082030 Z0.000000
G01 X3171.289062 Y237.207030 Z0.000000
G01 X3158.117676 Y211.145020 Z0.000000
G01 X3053.027340 Y41.882320 Z0.000000
G01 X2988.854980 Y146.972660 Z0.000000
G01 X3158.117676 Y211.145020 Z0.000000
G01 X3144.981384 Y189.987180 Z0.000000
G01 X3045.005800 Y55.018620 Z0.000000
G01 X3010.012820 Y154.994200 Z0.000000
G01 X3144.981384 Y189.987180 Z0.000000
G01 X3132.484436 Y173.116110 Z0.000000
G01 X3040.631680 Y67.515560 Z0.000000
G01 X3026.883890 Y159.368320 Z0.000000
G01 X3132.484436 Y173.116110 Z0.000000
G01 X3121.002841 Y159.916040 Z0.000000
G01 X3038.913200 Y78.997160 Z0.000000
G01 X3040.083960 Y161.086800 Z0.000000
G01 X3121.002841 Y159.916040 Z0.000000
G01 X3110.741636 Y149.801180 Z0.000000
G01 X3039.059550 Y89.258360 Z0.000000
G01 X3050.198820 Y160.940450 Z0.000000
G01 X3110.741636 Y149.801180 Z0.000000
G01 X3101.781375 Y142.233330 Z0.000000
G01 X3040.451960 Y98.218620 Z0.000000
G01 X3057.766670 Y159.548050 Z0.000000
G01 X3101.781375 Y142.233330 Z0.000000
M300 S145 (G00 Z5.000000)

(End cutting path id: path40)


(Start cutting path id: path36)
(Change tool to Cylindrical cutter)

M300 S145 (G00 Z5.000000)
G00 X3200.000000 Y400.000000

M300 S125 (G01 Z0.000000 F100.0(Penetrate)
G01 X2800.000000 Y400.000000 Z0.000000 F200.000000
G01 X2800.000000 Y0.000000 Z0.000000
G01 X3200.000000 Y400.000000 Z0.000000
G01 X3150.000000 Y400.000000 Z0.000000
G01 X2800.000000 Y350.000000 Z0.000000
G01 X2850.000000 Y50.000000 Z0.000000
G01 X3150.000000 Y400.000000 Z0.000000
G01 X3106.250000 Y393.750000 Z0.000000
G01 X2806.250000 Y312.500000 Z0.000000
G01 X2887.500000 Y93.750000 Z0.000000
G01 X3106.250000 Y393.750000 Z0.000000
G01 X3068.750000 Y383.593750 Z0.000000
G01 X2816.406250 Y285.156250 Z0.000000
G01 X2914.843750 Y131.250000 Z0.000000
G01 X3068.750000 Y383.593750 Z0.000000
G01 X3037.207030 Y371.289062 Z0.000000
G01 X2828.710940 Y265.917970 Z0.000000
G01 X2934.082030 Y162.792970 Z0.000000
G01 X3037.207030 Y371.289062 Z0.000000
G01 X3011.145020 Y358.117676 Z0.000000
G01 X2841.882320 Y253.027340 Z0.000000
G01 X2946.972660 Y188.854980 Z0.000000
G01 X3011.145020 Y358.117676 Z0.000000
G01 X2989.987180 Y344.981384 Z0.000000
G01 X2855.018620 Y245.005800 Z0.000000
G01 X2954.994200 Y210.012820 Z0.000000
G01 X2989.987180 Y344.981384 Z0.000000
G01 X2973.116110 Y332.484436 Z0.000000
G01 X2867.515560 Y240.631680 Z0.000000
G01 X2959.368320 Y226.883890 Z0.000000
G01 X2973.116110 Y332.484436 Z0.000000
G01 X2959.916040 Y321.002841 Z0.000000
G01 X2878.997160 Y238.913200 Z0.000000
G01 X2961.086800 Y240.083960 Z0.000000
G01 X2959.916040 Y321.002841 Z0.000000
G01 X2949.801180 Y310.741636 Z0.000000
G01 X2889.258360 Y239.059550 Z0.000000
G01 X2960.940450 Y250.198820 Z0.000000
G01 X2949.801180 Y310.741636 Z0.000000
G01 X2942.233330 Y301.781375 Z0.000000
G01 X2898.218620 Y240.451960 Z0.000000
G01 X2959.548050 Y257.766670 Z0.000000
G01 X2942.233330 Y301.781375 Z0.000000
M300 S145 (G00 Z5.000000)

(End cutting path id: path36)


(Footer)
M5
G00 X0.0000 Y0.0000
M2
(Using default footer. To add your own footer create file "footer" in the output dir.)
(end)
%